<?xml version="1.0" encoding="UTF-8"?>
<map version="1.10" tiledversion="1.12.2" orientation="isometric" renderorder="right-down" width="1600" height="1040" tilewidth="32" tileheight="16" infinite="1" nextlayerid="4" nextobjectid="1">
 <tileset firstgid="1" source="isometric.tsx"/>
 <tileset firstgid="41" source="larry_base.tsx"/>
 <layer id="1" name="Ground" width="1600" height="1040">
  <data encoding="csv">
   <chunk x="1232" y="608" width="16" height="16">
0,0,0,0,0,0,0,0,0,0,0,0,0,0,0,0,
0,0,0,0,0,0,0,0,0,0,0,0,0,0,0,0,
0,0,0,0,0,0,0,0,0,0,0,0,0,0,0,0,
0,0,0,0,0,0,0,0,0,0,0,0,0,0,0,0,
0,0,0,0,0,0,0,0,0,0,0,0,0,0,0,0,
0,0,0,0,0,0,0,0,0,0,0,0,0,0,0,0,
0,0,0,0,0,0,0,0,0,0,0,0,0,0,0,0,
0,0,0,0,0,0,0,0,0,0,0,0,0,0,0,0,
0,0,15,15,15,15,15,15,15,15,15,15,15,15,15,15,
0,0,15,15,15,15,15,15,15,15,15,15,15,15,15,15,
0,0,15,15,15,15,15,15,15,15,15,15,15,15,15,15,
0,0,15,15,15,15,15,15,15,15,15,15,15,15,15,15,
0,0,15,15,15,15,15,15,15,15,15,15,15,15,15,15,
0,0,15,15,15,15,15,15,15,15,15,15,15,15,15,15,
0,0,15,15,15,15,15,15,15,15,15,15,15,15,15,15,
0,0,15,15,15,15,15,15,15,15,15,15,15,15,15,15
</chunk>
   <chunk x="1248" y="608" width="16" height="16">
0,0,0,0,0,0,0,0,0,0,0,0,0,0,0,0,
0,0,0,0,0,0,0,0,0,0,0,0,0,0,0,0,
0,0,0,0,0,0,0,0,0,0,0,0,0,0,0,0,
0,0,0,0,0,0,0,0,0,0,0,0,0,0,0,0,
0,0,0,0,0,0,0,0,0,0,0,0,0,0,0,0,
0,0,0,0,0,0,0,0,0,0,0,0,0,0,0,0,
0,0,0,0,0,0,0,0,0,0,0,0,0,0,0,0,
0,0,0,0,0,0,0,0,0,0,0,0,0,0,0,0,
15,15,15,15,15,15,15,15,15,15,15,15,15,15,15,15,
15,15,15,15,15,15,15,15,15,15,15,15,15,15,15,15,
15,15,15,15,15,15,15,15,15,15,15,15,15,15,15,15,
15,15,15,15,15,15,15,15,15,15,15,15,15,15,15,15,
15,15,15,15,15,15,15,15,15,15,15,15,15,15,15,15,
15,15,15,15,15,15,15,15,15,15,15,15,15,15,15,15,
15,15,15,15,15,15,15,15,15,15,15,15,15,15,15,15,
15,15,15,15,15,15,15,15,15,15,15,15,15,15,15,15
</chunk>
   <chunk x="1264" y="608" width="16" height="16">
0,0,0,0,0,0,0,0,0,0,0,0,0,0,0,0,
0,0,0,0,0,0,0,0,0,0,0,0,0,0,0,0,
0,0,0,0,0,0,0,0,0,0,0,0,0,0,0,0,
0,0,0,0,0,0,0,0,0,0,0,0,0,0,0,0,
0,0,0,0,0,0,0,0,0,0,0,0,0,0,0,0,
0,0,0,0,0,0,0,0,0,0,0,0,0,0,0,0,
0,0,0,0,0,0,0,0,0,0,0,0,0,0,0,0,
0,0,0,0,0,0,0,0,0,0,0,0,0,0,0,0,
15,15,15,15,15,15,15,15,15,15,15,15,15,15,15,15,
15,15,15,15,15,15,15,15,15,15,15,15,15,15,15,15,
15,15,15,15,15,15,15,15,15,15,15,15,15,15,15,15,
15,15,15,15,15,15,15,15,15,15,15,15,15,15,15,15,
15,15,15,15,15,15,15,15,15,15,15,15,15,15,15,15,
15,15,15,15,15,15,15,15,15,15,15,15,15,15,15,15,
15,15,15,15,15,15,15,15,15,15,15,15,15,15,15,15,
15,15,15,15,15,15,15,15,15,15,15,15,15,15,15,15
</chunk>
   <chunk x="1280" y="608" width="16" height="16">
0,0,0,0,0,0,0,0,0,0,0,0,0,0,0,0,
0,0,0,0,0,0,0,0,0,0,0,0,0,0,0,0,
0,0,0,0,0,0,0,0,0,0,0,0,0,0,0,0,
0,0,0,0,0,0,0,0,0,0,0,0,0,0,0,0,
0,0,0,0,0,0,0,0,0,0,0,0,0,0,0,0,
0,0,0,0,0,0,0,0,0,0,0,0,0,0,0,0,
0,0,0,0,0,0,0,0,0,0,0,0,0,0,0,0,
0,0,0,0,0,0,0,0,0,0,0,0,0,0,0,0,
15,15,15,35,35,35,35,35,35,35,15,15,15,15,15,15,
15,15,15,35,35,35,35,35,35,35,15,15,15,15,15,15,
15,15,15,35,35,35,35,35,35,35,35,15,15,15,15,15,
15,15,15,35,35,35,35,35,35,35,35,15,15,15,15,15,
15,15,15,35,35,35,35,35,35,35,35,15,15,15,15,15,
15,15,15,35,35,35,35,35,35,35,35,15,15,15,15,15,
15,15,15,35,35,35,35,35,35,35,35,15,15,15,15,15,
15,15,15,35,35,35,35,35,35,35,35,15,15,15,15,15
</chunk>
   <chunk x="1296" y="608" width="16" height="16">
0,0,0,0,0,0,0,0,0,0,0,0,0,0,0,0,
0,0,0,0,0,0,0,0,0,0,0,0,0,0,0,0,
0,0,0,0,0,0,0,0,0,0,0,0,0,0,0,0,
0,0,0,0,0,0,0,0,0,0,0,0,0,0,0,0,
0,0,0,0,0,0,0,0,0,0,0,0,0,0,0,0,
0,0,0,0,0,0,0,0,0,0,0,0,0,0,0,0,
0,0,0,0,0,0,0,0,0,0,0,0,0,0,0,0,
0,0,0,0,0,0,0,0,0,0,0,0,0,0,0,0,
15,15,15,15,15,15,15,15,15,15,15,15,15,15,15,15,
15,15,15,15,15,15,15,15,15,15,15,15,15,15,15,15,
15,15,15,15,15,15,15,15,15,15,15,15,15,15,15,15,
15,15,15,15,15,15,15,15,15,15,15,15,15,15,15,15,
15,15,15,15,15,15,15,15,15,15,15,15,15,15,15,15,
15,15,15,15,15,15,15,15,15,15,15,15,15,15,15,15,
15,15,15,15,15,15,15,15,15,15,15,15,15,15,15,15,
15,15,15,15,15,15,15,15,15,15,15,15,15,15,15,15
</chunk>
   <chunk x="1312" y="608" width="16" height="16">
0,0,0,0,0,0,0,0,0,0,0,0,0,0,0,0,
0,0,0,0,0,0,0,0,0,0,0,0,0,0,0,0,
0,0,0,0,0,0,0,0,0,0,0,0,0,0,0,0,
0,0,0,0,0,0,0,0,0,0,0,0,0,0,0,0,
0,0,0,0,0,0,0,0,0,0,0,0,0,0,0,0,
0,0,0,0,0,0,0,0,0,0,0,0,0,0,0,0,
0,0,0,0,0,0,0,0,0,0,0,0,0,0,0,0,
0,0,0,0,0,0,0,0,0,0,0,0,0,0,0,0,
5,5,5,5,5,5,5,5,5,5,5,5,5,5,5,5,
15,5,5,5,5,5,5,5,5,5,5,5,5,5,5,5,
15,15,5,5,5,5,5,5,5,5,5,5,5,5,5,5,
15,15,5,5,5,5,5,5,5,5,5,5,5,5,5,5,
15,15,15,5,5,5,5,5,5,5,5,5,5,5,5,5,
15,15,15,15,5,5,5,5,5,5,5,5,5,5,5,5,
15,15,15,15,5,5,5,5,5,5,5,5,5,5,5,5,
15,15,15,15,15,5,5,5,5,5,5,5,5,5,5,5
</chunk>
   <chunk x="1328" y="608" width="16" height="16">
0,0,0,0,0,0,0,0,0,0,0,0,0,0,0,0,
0,0,0,0,0,0,0,0,0,0,0,0,0,0,0,0,
0,0,0,0,0,0,0,0,0,0,0,0,0,0,0,0,
0,0,0,0,0,0,0,0,0,0,0,0,0,0,0,0,
0,0,0,0,0,0,0,0,0,0,0,0,0,0,0,0,
0,0,0,0,0,0,0,0,0,0,0,0,0,0,0,0,
0,0,0,0,0,0,0,0,0,0,0,0,0,0,0,0,
0,0,0,0,0,0,0,0,0,0,0,0,0,0,0,0,
5,5,5,5,5,5,5,5,5,5,5,5,5,5,5,5,
5,5,5,5,5,5,5,5,5,5,5,5,5,5,5,5,
5,5,5,5,5,5,5,5,5,5,5,5,5,5,5,5,
5,5,5,5,5,5,5,5,5,5,5,5,5,5,5,5,
5,5,5,5,5,5,5,5,5,5,5,5,5,5,5,5,
5,5,5,5,5,5,5,5,5,5,5,5,5,5,5,5,
5,5,5,5,5,5,5,5,5,5,5,5,5,5,5,5,
5,5,5,5,5,5,5,5,5,5,5,5,5,5,5,5
</chunk>
   <chunk x="1344" y="608" width="16" height="16">
0,0,0,0,0,0,0,0,0,0,0,0,0,0,0,0,
0,0,0,0,0,0,0,0,0,0,0,0,0,0,0,0,
0,0,0,0,0,0,0,0,0,0,0,0,0,0,0,0,
0,0,0,0,0,0,0,0,0,0,0,0,0,0,0,0,
0,0,0,0,0,0,0,0,0,0,0,0,0,0,0,0,
0,0,0,0,0,0,0,0,0,0,0,0,0,0,0,0,
0,0,0,0,0,0,0,0,0,0,0,0,0,0,0,0,
0,0,0,0,0,0,0,0,0,0,0,0,0,0,0,0,
5,5,5,5,15,15,15,15,15,15,15,15,15,15,15,15,
5,5,5,5,5,15,15,15,15,15,15,15,15,15,15,15,
5,5,5,5,15,15,15,15,15,15,15,15,15,15,15,15,
5,5,5,5,5,15,15,15,15,15,15,15,15,15,15,15,
5,5,5,5,5,15,15,15,15,15,15,15,15,15,15,15,
5,5,5,5,5,15,15,15,15,15,15,15,15,15,15,15,
5,5,5,5,5,5,15,15,15,15,15,15,15,15,15,15,
5,5,5,5,5,15,15,15,15,15,15,15,15,15,15,15
</chunk>
   <chunk x="1360" y="608" width="16" height="16">
0,0,0,0,0,0,0,0,0,0,0,0,0,0,0,0,
0,0,0,0,0,0,0,0,0,0,0,0,0,0,0,0,
0,0,0,0,0,0,0,0,0,0,0,0,0,0,0,0,
0,0,0,0,0,0,0,0,0,0,0,0,0,0,0,0,
0,0,0,0,0,0,0,0,0,0,0,0,0,0,0,0,
0,0,0,0,0,0,0,0,0,0,0,0,0,0,0,0,
0,0,0,0,0,0,0,0,0,0,0,0,0,0,0,0,
0,0,0,0,0,0,0,0,0,0,0,0,0,0,0,0,
15,15,15,15,15,15,15,15,15,15,15,15,15,15,15,15,
15,15,15,15,15,15,15,15,15,15,15,15,15,15,15,15,
15,15,15,15,15,15,15,15,15,15,15,15,15,15,15,15,
15,15,15,15,15,15,15,15,15,15,15,15,15,15,15,15,
15,15,15,15,15,15,15,15,15,15,15,15,15,15,15,15,
15,15,15,15,15,15,15,15,15,15,15,15,15,15,15,15,
15,15,15,15,15,15,15,15,15,15,15,15,15,15,15,15,
15,15,15,15,15,15,15,15,15,15,15,15,15,15,15,15
</chunk>
   <chunk x="1376" y="608" width="16" height="16">
0,0,0,0,0,0,0,0,0,0,0,0,0,0,0,0,
0,0,0,0,0,0,0,0,0,0,0,0,0,0,0,0,
0,0,0,0,0,0,0,0,0,0,0,0,0,0,0,0,
0,0,0,0,0,0,0,0,0,0,0,0,0,0,0,0,
0,0,0,0,0,0,0,0,0,0,0,0,0,0,0,0,
0,0,0,0,0,0,0,0,0,0,0,0,0,0,0,0,
0,0,0,0,0,0,0,0,0,0,0,0,0,0,0,0,
0,0,0,0,0,0,0,0,0,0,0,0,0,0,0,0,
15,15,15,15,15,15,15,15,15,15,15,15,15,15,15,15,
15,15,15,15,15,15,15,15,15,15,15,15,15,15,15,15,
15,15,15,15,15,15,15,15,15,15,15,15,15,15,15,15,
15,15,15,15,15,15,15,15,15,15,15,15,15,15,15,15,
15,15,15,15,15,15,15,15,15,15,15,15,15,15,15,15,
15,15,15,15,15,15,15,15,15,15,15,15,15,15,15,15,
15,15,15,15,15,15,15,15,15,15,15,15,15,15,15,15,
15,15,15,15,15,15,15,15,15,15,15,15,15,15,15,15
</chunk>
   <chunk x="1392" y="608" width="16" height="16">
0,0,0,0,0,0,0,0,0,0,0,0,0,0,0,0,
0,0,0,0,0,0,0,0,0,0,0,0,0,0,0,0,
0,0,0,0,0,0,0,0,0,0,0,0,0,0,0,0,
0,0,0,0,0,0,0,0,0,0,0,0,0,0,0,0,
0,0,0,0,0,0,0,0,0,0,0,0,0,0,0,0,
0,0,0,0,0,0,0,0,0,0,0,0,0,0,0,0,
0,0,0,0,0,0,0,0,0,0,0,0,0,0,0,0,
0,0,0,0,0,0,0,0,0,0,0,0,0,0,0,0,
15,15,15,15,15,15,15,15,15,15,15,15,15,15,15,15,
15,15,15,15,15,15,15,15,15,15,15,15,15,15,35,35,
15,15,15,15,15,15,15,15,15,15,15,15,35,35,35,35,
15,15,15,15,15,15,15,15,15,35,35,35,35,35,35,35,
15,15,15,15,15,15,35,35,35,35,35,35,35,35,35,35,
15,15,15,35,35,35,35,35,35,35,35,35,35,35,35,35,
15,15,35,35,35,35,35,35,35,35,35,35,35,35,35,35,
15,35,35,35,35,35,35,35,35,35,35,35,35,35,35,35
</chunk>
   <chunk x="1408" y="608" width="16" height="16">
0,0,0,0,0,0,0,0,0,0,0,0,0,0,0,0,
0,0,0,0,0,0,0,0,0,0,0,0,0,0,0,0,
0,0,0,0,0,0,0,0,0,0,0,0,0,0,0,0,
0,0,0,0,0,0,0,0,0,0,0,0,0,0,0,0,
0,0,0,0,0,0,0,0,0,0,0,0,0,0,0,0,
0,0,0,0,0,0,0,0,0,0,0,0,0,0,0,0,
0,0,0,0,0,0,0,0,0,0,0,0,0,0,0,0,
0,0,0,0,0,0,0,0,0,0,0,0,0,0,0,0,
15,15,15,35,35,35,35,35,35,35,35,35,35,35,35,35,
35,35,35,35,35,35,35,35,35,35,35,35,35,35,35,35,
35,35,35,35,35,35,35,35,35,35,35,35,35,35,35,35,
35,35,35,35,35,35,35,35,35,35,35,35,35,35,35,15,
35,35,35,35,35,35,35,35,35,35,35,35,35,35,35,15,
35,35,35,35,35,35,35,35,35,35,35,35,35,15,15,15,
35,35,35,35,35,35,35,35,35,35,35,35,15,15,15,15,
35,35,35,35,35,35,35,35,35,35,35,15,15,15,15,15
</chunk>
   <chunk x="1424" y="608" width="16" height="16">
0,0,0,0,0,0,0,0,0,0,0,0,0,0,0,0,
0,0,0,0,0,0,0,0,0,0,0,0,0,0,0,0,
0,0,0,0,0,0,0,0,0,0,0,0,0,0,0,0,
0,0,0,0,0,0,0,0,0,0,0,0,0,0,0,0,
0,0,0,0,0,0,0,0,0,0,0,0,0,0,0,0,
0,0,0,0,0,0,0,0,0,0,0,0,0,0,0,0,
0,0,0,0,0,0,0,0,0,0,0,0,0,0,0,0,
0,0,0,0,0,0,0,0,0,0,0,0,0,0,0,0,
35,35,15,15,15,15,15,15,15,15,15,15,15,15,15,15,
35,35,15,15,15,15,15,15,15,15,15,15,15,15,15,15,
35,15,15,15,15,15,15,15,15,15,15,15,15,15,15,15,
15,15,15,15,15,15,15,15,15,15,15,15,15,15,15,15,
15,15,15,15,15,15,15,15,15,15,15,15,15,15,15,15,
15,15,15,15,15,15,15,15,15,15,15,15,15,15,15,15,
15,15,15,15,15,15,15,15,15,15,15,15,15,15,15,15,
15,15,15,15,15,15,15,15,15,15,15,15,15,15,15,15
</chunk>
   <chunk x="1440" y="608" width="16" height="16">
0,0,0,0,0,0,0,0,0,0,0,0,0,0,0,0,
0,0,0,0,0,0,0,0,0,0,0,0,0,0,0,0,
0,0,0,0,0,0,0,0,0,0,0,0,0,0,0,0,
0,0,0,0,0,0,0,0,0,0,0,0,0,0,0,0,
0,0,0,0,0,0,0,0,0,0,0,0,0,0,0,0,
0,0,0,0,0,0,0,0,0,0,0,0,0,0,0,0,
0,0,0,0,0,0,0,0,0,0,0,0,0,0,0,0,
0,0,0,0,0,0,0,0,0,0,0,0,0,0,0,0,
15,15,15,15,15,15,15,15,15,15,15,15,15,15,15,15,
15,15,15,15,15,15,15,15,15,15,15,15,15,15,15,15,
15,15,15,15,15,15,15,15,15,15,15,15,15,15,15,15,
15,15,15,15,15,15,15,15,15,15,15,15,15,15,15,15,
15,15,15,15,15,15,15,15,15,15,15,15,15,15,15,15,
15,15,15,15,15,15,15,15,15,15,15,15,15,15,15,15,
15,15,15,15,15,15,15,15,15,15,15,15,15,15,15,15,
15,15,15,15,15,15,15,15,15,15,15,15,15,15,15,15
</chunk>
   <chunk x="1456" y="608" width="16" height="16">
0,0,0,0,0,0,0,0,0,0,0,0,0,0,0,0,
0,0,0,0,0,0,0,0,0,0,0,0,0,0,0,0,
0,0,0,0,0,0,0,0,0,0,0,0,0,0,0,0,
0,0,0,0,0,0,0,0,0,0,0,0,0,0,0,0,
0,0,0,0,0,0,0,0,0,0,0,0,0,0,0,0,
0,0,0,0,0,0,0,0,0,0,0,0,0,0,0,0,
0,0,0,0,0,0,0,0,0,0,0,0,0,0,0,0,
0,0,0,0,0,0,0,0,0,0,0,0,0,0,0,0,
15,15,15,15,15,15,15,15,15,15,15,15,15,15,15,15,
15,15,15,15,15,15,15,15,15,15,15,15,15,15,15,15,
15,15,15,15,15,15,15,15,15,15,15,15,15,15,15,15,
15,15,15,15,15,15,15,15,15,15,15,15,15,15,15,15,
15,15,15,15,15,15,15,15,15,15,15,15,15,15,15,15,
15,15,15,15,15,15,15,15,15,15,15,15,15,15,15,15,
15,15,15,15,15,15,15,15,15,15,15,15,15,15,15,15,
15,15,15,15,15,15,15,15,15,15,15,15,15,15,15,15
</chunk>
   <chunk x="1472" y="608" width="16" height="16">
0,0,0,0,0,0,0,0,0,0,0,0,0,0,0,0,
0,0,0,0,0,0,0,0,0,0,0,0,0,0,0,0,
0,0,0,0,0,0,0,0,0,0,0,0,0,0,0,0,
0,0,0,0,0,0,0,0,0,0,0,0,0,0,0,0,
0,0,0,0,0,0,0,0,0,0,0,0,0,0,0,0,
0,0,0,0,0,0,0,0,0,0,0,0,0,0,0,0,
0,0,0,0,0,0,0,0,0,0,0,0,0,0,0,0,
0,0,0,0,0,0,0,0,0,0,0,0,0,0,0,0,
15,15,15,15,15,15,15,15,15,15,15,15,15,15,15,15,
15,15,15,15,15,15,15,15,15,15,15,15,15,15,15,15,
15,15,15,15,15,15,15,15,15,15,15,15,15,15,15,15,
15,15,15,15,15,15,15,15,15,15,15,15,15,15,15,15,
15,15,15,15,15,15,15,15,15,15,15,15,15,15,15,15,
15,15,15,15,15,15,15,15,15,15,15,15,15,15,15,15,
15,15,15,15,15,15,15,15,15,15,15,15,15,15,15,15,
15,15,15,15,15,15,15,15,15,15,15,15,15,15,15,35
</chunk>
   <chunk x="1488" y="608" width="16" height="16">
0,0,0,0,0,0,0,0,0,0,0,0,0,0,0,0,
0,0,0,0,0,0,0,0,0,0,0,0,0,0,0,0,
0,0,0,0,0,0,0,0,0,0,0,0,0,0,0,0,
0,0,0,0,0,0,0,0,0,0,0,0,0,0,0,0,
0,0,0,0,0,0,0,0,0,0,0,0,0,0,0,0,
0,0,0,0,0,0,0,0,0,0,0,0,0,0,0,0,
0,0,0,0,0,0,0,0,0,0,0,0,0,0,0,0,
0,0,0,0,0,0,0,0,0,0,0,0,0,0,0,0,
15,15,35,35,35,35,35,35,35,35,35,35,35,35,35,35,
15,15,35,35,35,35,35,35,35,35,35,35,35,35,35,35,
15,15,35,35,35,35,35,35,35,35,35,35,35,35,35,35,
15,35,35,35,35,35,35,35,35,35,35,35,35,35,35,35,
35,35,35,35,35,35,35,35,35,35,35,35,35,35,35,35,
35,35,35,35,35,35,35,35,35,35,35,35,35,35,35,35,
35,35,35,35,35,35,35,35,35,35,35,35,35,35,35,35,
35,35,35,35,35,35,35,35,35,35,35,35,35,35,35,35
</chunk>
   <chunk x="1504" y="608" width="16" height="16">
0,0,0,0,0,0,0,0,0,0,0,0,0,0,0,0,
0,0,0,0,0,0,0,0,0,0,0,0,0,0,0,0,
0,0,0,0,0,0,0,0,0,0,0,0,0,0,0,0,
0,0,0,0,0,0,0,0,0,0,0,0,0,0,0,0,
0,0,0,0,0,0,0,0,0,0,0,0,0,0,0,0,
0,0,0,0,0,0,0,0,0,0,0,0,0,0,0,0,
0,0,0,0,0,0,0,0,0,0,0,0,0,0,0,0,
0,0,0,0,0,0,0,0,0,0,0,0,0,0,0,0,
35,35,35,35,35,35,35,35,35,15,15,15,15,15,15,15,
35,35,35,35,35,35,35,35,15,15,15,15,15,15,15,15,
35,35,35,35,35,35,35,35,35,15,15,15,15,15,15,15,
35,35,35,35,35,35,35,35,15,15,15,15,15,15,15,15,
35,35,35,35,35,35,35,15,15,15,15,15,15,15,15,15,
35,35,35,35,35,35,35,15,15,15,15,15,15,15,15,15,
35,35,35,35,35,15,15,15,15,15,15,15,15,15,15,15,
35,35,35,35,15,15,15,15,15,15,15,15,15,15,15,15
</chunk>
   <chunk x="1520" y="608" width="16" height="16">
0,0,0,0,0,0,0,0,0,0,0,0,0,0,0,0,
0,0,0,0,0,0,0,0,0,0,0,0,0,0,0,0,
0,0,0,0,0,0,0,0,0,0,0,0,0,0,0,0,
0,0,0,0,0,0,0,0,0,0,0,0,0,0,0,0,
0,0,0,0,0,0,0,0,0,0,0,0,0,0,0,0,
0,0,0,0,0,0,0,0,0,0,0,0,0,0,0,0,
0,0,0,0,0,0,0,0,0,0,0,0,0,0,0,0,
0,0,0,0,0,0,0,0,0,0,0,0,0,0,0,0,
15,15,15,15,15,15,15,15,15,15,15,15,15,15,15,15,
15,15,15,15,15,15,15,15,15,15,15,15,15,15,15,15,
15,15,15,15,15,15,15,15,15,15,15,15,15,15,15,15,
15,15,15,15,15,15,15,15,15,15,15,15,15,15,15,15,
15,15,15,15,15,15,15,15,15,15,15,15,15,15,15,15,
15,15,15,15,15,15,15,15,15,15,15,15,15,15,15,15,
15,15,15,15,15,15,15,15,15,15,15,15,15,15,15,15,
15,15,15,15,15,15,15,15,15,15,15,15,15,15,15,15
</chunk>
   <chunk x="1536" y="608" width="16" height="16">
0,0,0,0,0,0,0,0,0,0,0,0,0,0,0,0,
0,0,0,0,0,0,0,0,0,0,0,0,0,0,0,0,
0,0,0,0,0,0,0,0,0,0,0,0,0,0,0,0,
0,0,0,0,0,0,0,0,0,0,0,0,0,0,0,0,
0,0,0,0,0,0,0,0,0,0,0,0,0,0,0,0,
0,0,0,0,0,0,0,0,0,0,0,0,0,0,0,0,
0,0,0,0,0,0,0,0,0,0,0,0,0,0,0,0,
0,0,0,0,0,0,0,0,0,0,0,0,0,0,0,0,
15,15,15,15,15,15,15,15,15,15,15,15,15,15,15,15,
15,15,15,15,15,15,15,15,15,15,15,15,15,15,15,15,
15,15,15,15,15,15,15,15,15,15,15,15,15,15,15,15,
15,15,15,15,15,15,15,15,15,15,15,15,15,15,15,15,
15,15,15,15,15,15,15,15,15,15,15,15,15,15,15,15,
15,15,15,15,15,15,15,15,15,15,15,15,15,15,15,15,
15,15,15,15,15,15,15,15,15,15,15,15,15,15,15,15,
15,15,15,15,15,15,15,15,15,15,15,15,15,15,15,15
</chunk>
   <chunk x="1552" y="608" width="16" height="16">
0,0,0,0,0,0,0,0,0,0,0,0,0,0,0,0,
0,0,0,0,0,0,0,0,0,0,0,0,0,0,0,0,
0,0,0,0,0,0,0,0,0,0,0,0,0,0,0,0,
0,0,0,0,0,0,0,0,0,0,0,0,0,0,0,0,
0,0,0,0,0,0,0,0,0,0,0,0,0,0,0,0,
0,0,0,0,0,0,0,0,0,0,0,0,0,0,0,0,
0,0,0,0,0,0,0,0,0,0,0,0,0,0,0,0,
0,0,0,0,0,0,0,0,0,0,0,0,0,0,0,0,
15,15,15,15,15,15,15,15,15,0,0,0,0,0,0,0,
15,15,15,15,15,15,15,15,15,15,0,0,0,0,0,0,
15,15,15,15,15,15,15,15,15,15,15,0,0,0,0,0,
15,15,15,15,15,15,15,15,15,15,15,0,0,0,0,0,
15,15,15,15,15,15,15,15,15,15,15,0,0,0,0,0,
15,15,15,15,15,15,15,15,15,15,15,0,0,0,0,0,
15,15,15,15,15,15,15,15,15,15,15,0,0,0,0,0,
15,15,15,15,15,15,15,15,15,15,15,0,0,0,0,0
</chunk>
   <chunk x="1232" y="624" width="16" height="16">
0,0,15,15,15,15,15,15,15,15,15,15,15,15,15,15,
0,0,15,15,15,15,15,15,15,15,15,15,15,15,15,15,
0,0,15,15,15,15,15,15,15,15,15,15,15,15,15,15,
0,0,15,15,15,15,15,15,15,15,15,15,15,15,15,15,
0,0,15,15,15,15,15,15,15,15,15,15,15,15,15,15,
0,0,15,15,15,15,15,15,15,15,15,15,15,15,15,15,
0,0,15,15,15,15,15,15,15,15,15,15,15,15,15,15,
0,0,15,15,15,15,15,15,15,15,15,15,15,15,15,15,
0,0,15,15,15,15,15,15,15,15,15,15,15,15,15,15,
0,0,15,15,15,15,15,15,15,15,15,15,15,15,15,15,
0,0,15,15,15,15,15,15,15,15,15,15,15,15,15,15,
0,0,15,15,15,15,15,15,15,15,15,15,15,15,15,15,
0,0,15,15,15,15,15,15,15,15,15,15,15,15,15,15,
0,0,15,15,15,15,15,15,15,15,15,15,15,15,15,15,
0,0,15,15,15,15,15,15,15,15,15,15,15,15,15,15,
0,0,15,15,15,15,15,15,15,15,15,15,15,15,15,15
</chunk>
   <chunk x="1248" y="624" width="16" height="16">
15,15,15,15,15,15,15,15,15,15,15,15,15,15,15,15,
15,15,15,15,15,15,15,15,15,15,15,15,15,15,15,15,
15,15,15,15,15,15,15,15,15,15,15,15,15,15,15,15,
15,15,15,15,15,15,15,15,15,15,15,15,15,15,15,15,
15,15,15,15,15,15,15,15,15,15,15,15,15,15,15,15,
15,15,15,15,15,15,15,15,15,15,15,15,15,15,15,15,
15,15,15,15,15,15,15,15,15,15,15,15,15,15,15,15,
15,15,15,15,15,15,15,15,15,15,15,15,15,15,15,15,
15,15,15,15,15,15,15,15,15,15,15,15,15,15,15,15,
15,15,15,15,15,15,15,15,15,15,15,15,15,15,15,15,
15,15,15,15,15,15,15,15,15,15,15,15,15,15,15,15,
15,15,15,15,15,15,15,15,15,15,15,15,15,15,15,15,
15,15,15,15,15,15,15,15,15,15,15,15,15,15,15,15,
15,15,15,15,15,15,15,15,15,15,15,15,15,15,15,15,
15,15,15,15,15,15,15,15,15,15,15,15,15,15,15,15,
15,15,15,15,15,15,15,15,15,15,15,15,15,15,15,15
</chunk>
   <chunk x="1264" y="624" width="16" height="16">
15,15,15,15,15,15,15,15,15,15,15,15,15,15,15,15,
15,15,15,15,15,15,15,15,15,15,15,15,15,15,15,15,
15,15,15,15,15,15,15,15,15,15,15,15,15,15,15,15,
15,15,15,15,15,15,15,15,15,15,15,15,15,15,15,15,
15,15,15,15,15,15,15,15,15,15,15,15,15,15,15,15,
15,15,15,15,15,15,15,15,15,15,15,15,15,15,15,15,
15,15,15,15,15,15,15,15,15,15,15,15,15,15,15,15,
15,15,15,15,15,15,15,15,15,15,15,15,15,15,15,15,
15,15,15,15,15,15,15,15,15,15,15,15,15,15,15,15,
15,15,15,15,15,15,15,15,15,15,15,15,15,15,15,35,
15,15,15,15,15,15,15,15,15,15,15,15,15,15,15,35,
15,15,15,15,15,15,15,15,15,15,15,15,15,15,35,35,
15,15,15,15,15,15,15,15,15,15,15,15,15,15,35,35,
15,15,15,15,15,15,15,15,15,15,15,15,15,15,35,35,
15,15,15,15,15,15,15,15,15,15,15,15,15,15,35,35,
15,15,15,15,15,15,15,15,15,15,15,15,15,15,35,35
</chunk>
   <chunk x="1280" y="624" width="16" height="16">
15,15,15,35,35,35,35,35,35,35,35,15,15,15,15,15,
15,15,15,35,35,35,35,35,35,35,35,15,15,15,15,15,
15,15,35,35,35,35,35,35,35,35,15,15,15,15,15,15,
15,15,35,35,35,35,35,35,35,35,35,15,15,15,15,15,
15,15,35,35,35,35,35,35,35,35,15,15,15,15,15,15,
15,35,35,35,35,35,35,35,35,15,15,15,15,15,15,15,
15,35,35,35,35,35,35,35,35,35,15,15,15,15,15,15,
35,35,35,35,35,35,35,35,35,15,15,15,15,15,15,15,
35,35,35,35,35,35,35,35,15,15,15,15,15,15,15,15,
35,35,35,35,35,35,35,35,15,15,15,15,15,15,15,15,
35,35,35,35,35,35,35,15,15,15,15,15,15,15,15,15,
35,35,35,35,35,35,35,15,15,15,15,15,15,15,15,15,
35,35,35,35,35,35,35,15,15,15,15,15,15,15,15,15,
35,35,35,35,35,35,35,15,15,15,15,15,15,15,15,15,
35,35,35,35,35,35,35,15,15,15,15,15,15,15,15,15,
35,35,35,35,35,35,35,35,15,15,15,15,15,15,15,15
</chunk>
   <chunk x="1296" y="624" width="16" height="16">
15,15,15,15,15,15,15,15,15,15,15,15,15,15,15,15,
15,15,15,15,15,15,15,15,15,15,15,15,15,15,15,15,
15,15,15,15,15,15,15,15,15,15,15,15,15,15,15,15,
15,15,15,15,15,15,15,15,15,15,15,15,15,15,15,15,
15,15,15,15,15,15,15,15,15,15,15,15,15,15,15,15,
15,15,15,15,15,15,15,15,15,15,15,15,15,15,15,15,
15,15,15,15,15,15,15,15,15,15,15,15,15,15,15,15,
15,15,15,15,15,15,15,15,15,15,15,15,15,15,15,15,
15,15,15,15,15,15,15,15,15,15,15,15,15,15,15,15,
15,15,15,15,15,15,15,15,15,15,15,15,15,15,15,15,
15,15,15,15,15,15,15,15,15,15,15,15,15,15,15,15,
15,15,15,15,15,15,15,15,15,15,15,15,15,15,15,15,
15,15,15,15,15,15,15,15,15,15,15,15,15,15,15,15,
15,15,15,15,15,15,15,15,15,15,15,15,15,15,15,15,
15,15,15,15,15,15,15,15,15,15,15,15,15,15,15,15,
15,15,15,15,15,15,15,15,15,15,15,15,15,15,15,15
</chunk>
   <chunk x="1312" y="624" width="16" height="16">
15,15,15,15,15,5,5,5,5,5,5,5,5,5,5,5,
15,15,15,15,15,5,5,5,5,5,5,5,5,5,5,5,
15,15,15,15,15,15,5,5,5,5,5,5,5,5,5,5,
15,15,15,15,15,15,5,5,5,5,5,5,5,5,5,5,
15,15,15,15,15,15,5,5,5,5,5,5,5,5,5,5,
15,15,15,15,15,15,5,5,5,5,5,5,5,5,5,5,
15,15,15,15,15,15,5,5,5,5,5,5,5,5,5,5,
15,15,15,15,15,15,5,5,5,5,5,5,5,5,5,5,
15,15,15,15,15,15,5,5,5,5,5,5,5,5,5,5,
15,15,15,15,15,15,5,5,5,5,5,5,5,5,5,5,
15,15,15,15,15,15,5,5,5,5,5,5,5,5,5,5,
15,15,15,15,15,5,5,5,5,5,5,5,5,5,5,5,
15,15,15,15,15,5,5,5,5,5,5,5,5,5,5,5,
15,15,15,15,5,5,5,5,5,5,5,5,5,5,5,5,
15,15,15,15,5,5,5,5,5,5,5,5,5,5,5,5,
15,15,15,5,5,5,5,5,5,5,5,5,5,5,5,5
</chunk>
   <chunk x="1328" y="624" width="16" height="16">
5,5,5,5,5,5,5,5,5,5,5,5,5,5,5,5,
5,5,5,5,5,5,5,5,5,5,5,5,5,5,5,5,
5,5,5,5,5,5,5,5,5,5,5,5,5,5,5,5,
5,5,5,5,5,5,5,5,5,5,5,5,5,5,5,5,
5,5,5,5,5,5,5,5,5,5,5,5,5,5,5,5,
5,5,5,5,5,5,5,5,5,5,5,5,5,5,5,5,
5,5,5,5,5,5,5,5,5,5,5,5,5,5,5,5,
5,5,5,5,5,5,5,5,5,5,5,5,5,5,5,5,
5,5,5,5,5,5,5,5,5,5,5,5,5,5,5,5,
5,5,5,5,5,5,5,5,5,5,5,5,5,5,5,5,
5,5,5,5,5,5,5,5,5,5,5,5,5,5,5,5,
5,5,5,5,5,5,5,5,5,5,5,5,5,5,5,5,
5,5,5,5,5,5,5,5,5,5,5,5,5,5,5,5,
5,5,5,5,5,5,5,5,5,5,5,5,5,5,5,5,
5,5,5,5,5,5,5,5,5,5,5,5,5,5,5,5,
5,5,5,5,5,5,5,5,5,5,5,5,5,5,5,5
</chunk>
   <chunk x="1344" y="624" width="16" height="16">
5,5,5,5,5,5,15,15,15,15,15,15,15,15,15,15,
5,5,5,5,5,15,15,15,15,15,15,15,15,15,15,15,
5,5,5,5,5,15,15,15,15,15,15,15,15,15,15,15,
5,5,5,5,5,15,15,15,15,15,15,15,15,15,15,15,
5,5,5,5,5,15,15,15,15,15,15,15,15,15,15,15,
5,5,5,5,5,15,15,15,15,15,15,15,15,15,15,15,
5,5,5,5,5,15,15,15,15,15,15,15,15,15,15,15,
5,5,5,5,5,15,15,15,15,15,15,15,15,15,15,15,
5,5,5,5,5,15,15,15,15,15,15,15,15,15,15,15,
5,5,5,5,5,15,15,15,15,15,15,15,15,15,15,15,
5,5,5,5,5,15,15,15,15,15,15,15,15,15,15,15,
5,5,5,5,5,15,15,15,15,15,15,15,15,15,15,15,
5,5,5,5,15,15,15,15,15,15,15,15,15,15,15,15,
5,5,5,5,5,15,15,15,15,15,15,15,15,15,15,15,
5,5,5,5,15,15,15,15,15,15,15,15,15,15,15,15,
5,5,5,15,15,15,15,15,15,15,15,15,15,15,15,15
</chunk>
   <chunk x="1360" y="624" width="16" height="16">
15,15,15,15,15,15,15,15,15,15,15,15,15,15,15,15,
15,15,15,15,15,15,15,15,15,15,15,15,15,15,15,15,
15,15,15,15,15,15,15,15,15,15,15,15,15,15,15,15,
15,15,15,15,15,15,15,15,15,15,15,15,15,15,15,15,
15,15,15,15,15,15,15,15,15,15,15,15,15,15,15,15,
15,15,15,15,15,15,15,15,15,15,15,15,15,15,15,15,
15,15,15,15,15,15,15,15,15,15,15,15,15,15,15,15,
15,15,15,15,15,15,15,15,15,15,15,15,15,15,15,15,
15,15,15,15,15,15,15,15,15,15,15,15,15,15,15,15,
15,15,15,15,15,15,15,15,15,15,15,15,15,15,15,15,
15,15,15,15,15,15,15,15,15,15,15,15,15,15,15,15,
15,15,15,15,15,15,15,15,15,15,15,15,15,15,15,15,
15,15,15,15,15,15,15,15,15,15,15,15,15,15,15,15,
15,15,15,15,15,15,15,15,15,15,15,15,15,15,15,15,
15,15,15,15,15,15,15,15,15,15,15,15,15,15,15,15,
15,15,15,15,15,15,15,15,15,15,15,15,15,15,15,15
</chunk>
   <chunk x="1376" y="624" width="16" height="16">
15,15,15,15,15,15,15,15,15,15,15,15,15,15,15,15,
15,15,15,15,15,15,15,15,15,15,15,15,15,15,15,15,
15,15,15,15,15,15,15,15,15,15,15,15,15,15,15,35,
15,15,15,15,15,15,15,15,15,15,15,15,15,15,35,35,
15,15,15,15,15,15,15,15,15,15,15,15,15,15,35,35,
15,15,15,15,15,15,15,15,15,15,15,15,15,35,35,35,
15,15,15,15,15,15,15,15,15,15,15,15,15,35,35,35,
15,15,15,15,15,15,15,15,15,15,15,15,15,35,35,35,
15,15,15,15,15,15,15,15,15,15,15,15,15,35,35,35,
15,15,15,15,15,15,15,15,15,15,15,15,15,35,35,35,
15,15,15,15,15,15,15,15,15,15,15,15,15,35,35,35,
15,15,15,15,15,15,15,15,15,15,15,15,15,35,35,35,
15,15,15,15,15,15,15,15,15,15,15,15,15,35,35,35,
15,15,15,15,15,15,15,15,15,15,15,15,15,15,35,35,
15,15,15,15,15,15,15,15,15,15,15,15,15,15,35,35,
15,15,15,15,15,15,15,15,15,15,15,15,15,15,35,35
</chunk>
   <chunk x="1392" y="624" width="16" height="16">
35,35,35,35,35,35,35,35,35,35,35,35,35,35,35,35,
35,35,35,35,35,35,35,35,35,35,35,35,35,35,35,35,
35,35,35,35,35,35,35,35,35,35,35,35,35,35,35,35,
35,35,35,35,35,35,35,35,35,35,35,35,35,35,35,35,
35,35,35,35,35,35,35,35,35,35,35,35,35,35,35,35,
35,35,35,35,35,35,35,35,35,35,35,35,35,35,35,35,
35,35,35,35,35,35,35,35,35,35,35,35,35,35,35,35,
35,35,35,35,35,35,35,35,35,35,35,35,35,35,35,35,
35,35,35,35,35,35,35,35,35,35,35,35,35,35,35,35,
35,35,35,35,35,35,35,35,35,35,35,35,35,35,35,35,
35,35,35,35,35,35,35,35,35,35,35,35,35,35,35,35,
35,35,35,35,35,35,35,35,35,35,35,35,35,35,35,35,
35,35,35,35,35,35,35,35,35,35,35,35,35,35,35,35,
35,35,35,35,35,35,35,35,35,35,35,35,35,35,35,35,
35,35,35,35,35,35,35,35,35,35,35,35,35,35,35,35,
35,35,35,35,35,35,35,35,35,35,35,35,35,35,35,35
</chunk>
   <chunk x="1408" y="624" width="16" height="16">
35,35,35,35,35,35,35,35,35,35,15,15,15,15,15,15,
35,35,35,35,35,35,35,35,35,15,15,15,15,15,15,15,
35,35,35,35,35,35,35,35,35,15,15,15,15,15,15,15,
35,35,35,35,35,35,35,15,15,15,15,15,15,15,15,15,
35,35,35,35,35,35,35,15,15,15,15,15,15,15,15,15,
35,35,35,35,35,35,15,15,15,15,15,15,15,15,15,15,
35,35,35,35,35,35,15,15,15,15,15,15,15,15,15,15,
35,35,35,35,35,15,15,15,15,15,15,15,15,15,15,15,
35,35,35,35,15,15,15,15,15,15,15,15,15,15,15,15,
35,35,15,15,15,15,15,15,15,15,15,15,15,15,15,15,
35,35,15,15,15,15,15,15,15,15,15,15,15,15,15,15,
35,15,15,15,15,15,15,15,15,15,15,15,15,15,15,15,
35,15,15,15,15,15,15,15,15,15,15,15,15,15,15,15,
15,15,15,15,15,15,15,15,15,15,15,15,15,15,15,15,
15,15,15,15,15,15,15,15,15,15,15,15,15,15,15,15,
15,15,15,15,15,15,15,15,15,15,15,15,15,15,15,15
</chunk>
   <chunk x="1424" y="624" width="16" height="16">
15,15,15,15,15,15,15,15,15,15,15,15,15,15,15,15,
15,15,15,15,15,15,15,15,15,15,15,15,15,15,15,15,
15,15,15,15,15,15,15,15,15,15,15,15,15,15,15,15,
15,15,15,15,15,15,15,15,15,15,15,15,15,15,15,15,
15,15,15,15,15,15,15,15,15,15,15,15,15,15,15,15,
15,15,15,15,15,15,15,15,15,15,15,15,15,15,15,15,
15,15,15,15,15,15,15,15,15,15,15,15,15,15,15,15,
15,15,15,15,15,15,15,15,15,15,15,15,15,15,15,15,
15,15,15,15,15,15,15,15,15,15,15,15,15,15,15,15,
15,15,15,15,15,15,15,15,15,15,15,15,15,15,15,15,
15,15,15,15,15,15,15,15,15,15,15,15,15,15,15,15,
15,15,15,15,15,15,15,15,15,15,15,15,15,15,15,15,
15,15,15,15,15,15,15,15,15,15,15,15,15,15,15,15,
15,15,15,15,15,15,15,15,15,15,15,15,15,15,15,15,
15,15,15,15,15,15,15,15,15,15,15,15,15,15,15,15,
15,15,15,15,15,15,15,15,15,15,15,15,15,15,15,15
</chunk>
   <chunk x="1440" y="624" width="16" height="16">
15,15,15,15,15,15,15,15,15,15,15,15,15,15,15,15,
15,15,15,15,15,15,15,15,15,15,15,15,15,15,15,15,
15,15,15,15,15,15,15,15,15,15,15,15,15,15,15,15,
15,15,15,15,15,15,15,15,15,15,15,15,15,15,15,15,
15,15,15,15,15,15,15,15,15,15,15,15,15,15,15,15,
15,15,15,15,15,15,15,15,15,15,15,15,15,15,15,15,
15,15,15,15,15,15,15,15,15,15,15,15,15,15,15,15,
15,15,15,15,15,15,15,15,15,15,15,15,15,15,15,15,
15,15,15,15,15,15,15,15,15,15,15,15,15,15,15,15,
15,15,15,15,15,15,15,15,15,15,15,15,15,15,15,15,
15,15,15,15,15,15,15,15,15,15,15,15,15,15,15,15,
15,15,15,15,15,15,15,15,15,15,15,15,15,15,15,15,
15,15,15,15,15,15,15,15,15,15,15,15,15,15,15,15,
15,15,15,15,15,15,15,15,15,15,15,15,15,15,15,15,
15,15,15,15,15,15,15,15,15,15,15,15,15,15,15,15,
15,15,15,15,15,15,15,15,15,15,15,15,15,15,15,15
</chunk>
   <chunk x="1456" y="624" width="16" height="16">
15,15,15,15,15,15,15,15,15,15,15,15,15,15,15,15,
15,15,15,15,15,15,15,15,15,15,15,15,15,15,15,15,
15,15,15,15,15,15,15,15,15,15,15,15,15,15,15,15,
15,15,15,15,15,15,15,15,15,15,15,15,15,15,15,15,
15,15,15,15,15,15,15,15,15,15,15,15,15,15,15,15,
15,15,15,15,15,15,15,15,15,15,15,15,15,15,15,15,
15,15,15,15,15,15,15,15,15,15,15,15,15,15,15,15,
15,15,15,15,15,15,15,15,15,15,15,15,15,15,15,15,
15,15,15,15,15,15,15,15,15,15,15,15,15,15,15,15,
15,15,15,15,15,15,15,15,15,15,15,15,15,15,15,15,
15,15,15,15,15,15,15,15,15,15,15,15,15,15,15,15,
15,15,15,15,15,15,15,15,15,15,15,15,15,15,15,15,
15,15,15,15,15,15,15,15,15,15,15,15,15,15,15,15,
15,15,15,15,15,15,15,15,15,15,15,15,15,15,15,15,
15,15,15,15,15,15,15,15,15,15,15,15,15,15,15,15,
15,15,15,15,15,15,15,15,15,15,15,15,15,15,15,15
</chunk>
   <chunk x="1472" y="624" width="16" height="16">
15,15,15,15,15,15,15,15,15,15,15,15,15,15,15,35,
15,15,15,15,15,15,15,15,15,15,15,15,15,15,15,35,
15,15,15,15,15,15,15,15,15,15,15,15,15,15,35,35,
15,15,15,15,15,15,15,15,15,15,15,15,15,15,35,35,
15,15,15,15,15,15,15,15,15,15,15,15,15,15,35,35,
15,15,15,15,15,15,15,15,15,15,15,15,15,15,35,35,
15,15,15,15,15,15,15,15,15,15,15,15,15,15,35,35,
15,15,15,15,15,15,15,15,15,15,15,15,15,15,35,35,
15,15,15,15,15,15,15,15,15,15,15,15,15,15,35,35,
15,15,15,15,15,15,15,15,15,15,15,15,15,15,35,35,
15,15,15,15,15,15,15,15,15,15,15,15,15,15,15,35,
15,15,15,15,15,15,15,15,15,15,15,15,15,15,15,35,
15,15,15,15,15,15,15,15,15,15,15,15,15,15,15,35,
15,15,15,15,15,15,15,15,15,15,15,15,15,15,15,35,
15,15,15,15,15,15,15,15,15,15,15,15,15,15,15,35,
15,15,15,15,15,15,15,15,15,15,15,15,15,15,15,15
</chunk>
   <chunk x="1488" y="624" width="16" height="16">
35,35,35,35,35,35,35,35,35,35,35,35,35,35,35,35,
35,35,35,35,35,35,35,35,35,35,35,35,35,35,35,35,
35,35,35,35,35,35,35,35,35,35,35,35,35,35,35,35,
35,35,35,35,35,35,35,35,35,35,35,35,35,35,35,35,
35,35,35,35,35,35,35,35,35,35,35,35,35,35,35,35,
35,35,35,35,35,35,35,35,35,35,35,35,35,35,35,35,
35,35,35,35,35,35,35,35,35,35,35,35,35,35,35,35,
35,35,35,35,35,35,35,35,35,35,35,35,35,35,35,35,
35,35,35,35,35,35,35,35,35,35,35,35,35,35,35,35,
35,35,35,35,35,35,35,35,35,35,35,35,35,35,35,35,
35,35,35,35,35,35,35,35,35,35,35,35,35,35,35,35,
35,35,35,35,35,35,35,35,35,35,35,35,35,35,35,35,
35,35,35,35,35,35,35,35,35,35,35,35,35,35,35,35,
35,35,35,35,35,35,35,35,35,35,35,35,35,35,35,35,
35,35,35,35,35,35,35,35,35,35,35,35,35,35,35,35,
35,35,35,35,35,35,35,35,35,35,35,35,35,35,35,15
</chunk>
   <chunk x="1504" y="624" width="16" height="16">
35,35,35,15,15,15,15,15,15,15,15,15,15,15,15,15,
35,35,35,15,15,15,15,15,15,15,15,15,15,15,15,15,
35,35,15,15,15,15,15,15,15,15,15,15,15,15,15,15,
35,35,15,15,15,15,15,15,15,15,15,15,15,15,15,15,
35,35,15,15,15,15,15,15,15,15,15,15,15,15,15,15,
35,35,15,15,15,15,15,15,15,15,15,15,15,15,15,15,
35,35,15,15,15,15,15,15,15,15,15,15,15,15,15,15,
35,35,15,15,15,15,15,15,15,15,15,15,15,15,15,15,
35,15,15,15,15,15,15,15,15,15,15,15,15,15,15,15,
35,15,15,15,15,15,15,15,15,15,15,15,15,15,15,15,
35,15,15,15,15,15,15,15,15,15,15,15,15,15,15,15,
35,15,15,15,15,15,15,15,15,15,15,15,15,15,15,15,
15,15,15,15,15,15,15,15,15,15,15,15,15,15,15,15,
15,15,15,15,15,15,15,15,15,15,15,15,15,15,15,15,
15,15,15,15,15,15,15,15,15,15,15,15,15,15,15,15,
15,15,15,15,15,15,15,15,15,15,15,15,15,15,15,15
</chunk>
   <chunk x="1520" y="624" width="16" height="16">
15,15,15,15,15,15,15,15,15,15,15,15,15,15,15,15,
15,15,15,15,15,15,15,15,15,15,15,15,15,15,15,15,
15,15,15,15,15,15,15,15,15,15,15,15,15,15,15,15,
15,15,15,15,15,15,15,15,15,15,15,15,15,15,15,15,
15,15,15,15,15,15,15,15,15,15,15,15,15,15,15,15,
15,15,15,15,15,15,15,15,15,15,15,15,15,15,15,15,
15,15,15,15,15,15,15,15,15,15,15,15,15,15,15,15,
15,15,15,15,15,15,15,15,15,15,15,15,15,15,15,15,
15,15,15,15,15,15,15,15,15,15,15,15,15,15,15,15,
15,15,15,15,15,15,15,15,15,15,15,15,15,15,15,15,
15,15,15,15,15,15,15,15,15,15,15,15,15,15,15,15,
15,15,15,15,15,15,15,15,15,15,15,15,15,15,15,15,
15,15,15,15,15,15,15,15,15,15,15,15,15,15,15,15,
15,15,15,15,15,15,15,15,15,15,15,15,15,15,15,15,
15,15,15,15,15,15,15,15,15,15,15,15,15,15,15,15,
15,15,15,15,15,15,15,15,15,15,15,15,15,15,15,15
</chunk>
   <chunk x="1536" y="624" width="16" height="16">
15,15,15,15,15,15,15,15,15,15,15,15,15,15,15,15,
15,15,15,15,15,15,15,15,15,15,15,15,15,15,15,15,
15,15,15,15,15,15,15,15,15,15,15,15,15,15,15,15,
15,15,15,15,15,15,15,15,15,15,15,15,15,15,15,15,
15,15,15,15,15,15,15,15,15,15,15,15,15,15,15,15,
15,15,15,15,15,15,15,15,15,15,15,15,15,15,15,15,
15,15,15,15,15,15,15,15,15,15,15,15,15,15,15,15,
15,15,15,15,15,15,15,15,15,15,15,15,15,15,15,15,
15,15,15,15,15,15,15,15,15,15,15,15,15,15,15,15,
15,15,15,15,15,15,15,15,15,15,15,15,15,15,15,15,
15,15,15,15,15,15,15,15,15,15,15,15,15,15,15,15,
15,15,15,15,15,15,15,15,15,15,15,15,15,15,15,15,
15,15,15,15,15,15,15,15,15,15,15,15,15,15,15,15,
15,15,15,15,15,15,15,15,15,15,15,15,15,15,15,15,
15,15,15,15,15,15,15,15,15,15,15,15,15,15,15,15,
15,15,15,15,15,15,15,15,15,15,15,15,15,15,15,15
</chunk>
   <chunk x="1552" y="624" width="16" height="16">
15,15,15,15,15,15,15,15,15,15,15,0,0,0,0,0,
15,15,15,15,15,15,15,15,15,15,15,0,0,0,0,0,
15,15,15,15,15,15,15,15,15,15,15,0,0,0,0,0,
15,15,15,15,15,15,15,15,15,15,15,0,0,0,0,0,
15,15,15,15,15,15,15,15,15,15,15,0,0,0,0,0,
15,15,15,15,15,15,15,15,15,15,15,0,0,0,0,0,
15,15,15,15,15,15,15,15,15,15,15,0,0,0,0,0,
15,15,15,15,15,15,15,15,15,15,15,0,0,0,0,0,
15,15,15,15,15,15,15,15,15,15,15,0,0,0,0,0,
15,15,15,15,15,15,15,15,15,15,15,0,0,0,0,0,
15,15,15,15,15,15,15,15,15,15,15,0,0,0,0,0,
15,15,15,15,15,15,15,15,15,15,15,0,0,0,0,0,
15,15,15,15,15,15,15,15,15,15,15,0,0,0,0,0,
15,15,15,15,15,15,15,15,15,15,15,0,0,0,0,0,
15,15,15,15,15,15,15,15,15,15,15,0,0,0,0,0,
15,15,15,15,15,15,15,15,15,15,15,0,0,0,0,0
</chunk>
   <chunk x="1232" y="640" width="16" height="16">
0,0,15,15,15,15,15,15,15,15,15,15,15,15,15,15,
0,0,15,15,15,15,15,15,15,15,15,15,15,15,15,15,
0,0,15,15,15,15,15,15,15,15,15,15,15,15,15,15,
0,0,15,15,15,15,15,15,15,15,15,15,15,15,15,15,
0,0,15,15,15,15,15,15,15,15,15,15,15,15,15,15,
0,0,15,15,15,15,15,15,15,15,15,15,15,15,15,15,
0,0,15,15,15,15,15,15,15,15,15,15,15,15,15,15,
0,0,15,15,15,15,15,15,15,15,15,15,15,15,15,15,
0,0,15,15,15,15,15,15,15,15,15,15,15,15,15,15,
0,0,15,15,15,15,15,15,15,15,15,15,15,15,15,15,
0,0,15,15,15,15,15,15,15,15,15,15,15,15,15,15,
0,0,15,15,15,15,15,15,15,15,15,15,15,15,15,15,
0,0,15,15,15,15,15,15,15,15,15,15,15,15,15,15,
0,0,15,15,15,15,15,15,15,15,15,15,15,15,15,15,
0,0,15,15,15,15,15,15,15,15,15,15,15,15,15,15,
0,0,15,15,15,15,15,15,15,15,15,15,15,15,15,15
</chunk>
   <chunk x="1248" y="640" width="16" height="16">
15,15,15,15,15,15,15,15,15,15,15,15,15,15,15,15,
15,15,15,15,15,15,15,15,15,15,15,15,15,15,15,15,
15,15,15,15,15,15,15,15,15,15,15,15,15,15,15,15,
15,15,15,15,15,15,15,15,15,15,15,15,15,15,15,15,
15,15,15,15,15,15,15,15,15,15,15,15,15,15,15,15,
15,15,15,15,15,15,15,15,15,15,15,15,15,15,15,15,
15,15,15,15,15,15,15,15,15,15,15,15,15,15,15,15,
15,15,15,15,15,15,15,15,15,15,15,15,15,15,15,15,
15,15,15,15,15,15,15,15,15,15,15,15,15,15,15,15,
15,15,15,15,15,15,15,15,15,15,15,15,15,15,15,15,
15,15,15,15,15,15,15,15,15,15,15,15,15,15,15,15,
15,15,15,15,15,15,15,15,15,15,15,15,15,15,15,15,
15,15,15,15,15,15,15,15,15,15,15,15,15,15,15,15,
15,15,15,15,15,15,15,15,15,15,15,15,15,15,15,15,
15,15,15,15,15,15,15,15,15,15,15,15,15,15,15,15,
15,15,15,15,15,15,15,15,15,15,15,15,15,15,15,15
</chunk>
   <chunk x="1264" y="640" width="16" height="16">
15,15,15,15,15,15,15,15,15,15,15,15,15,15,35,35,
15,15,15,15,15,15,15,15,15,15,15,15,15,15,35,35,
15,15,15,15,15,15,15,15,15,15,15,15,15,15,35,35,
15,15,15,15,15,15,15,15,15,15,15,15,15,15,15,35,
15,15,15,15,15,15,15,15,15,15,15,15,15,15,15,35,
15,15,15,15,15,15,15,15,15,15,15,15,15,15,15,15,
15,15,15,15,15,15,15,15,15,15,15,15,15,15,15,15,
15,15,15,15,15,15,15,15,15,15,15,15,15,15,15,15,
15,15,15,15,15,15,15,15,15,15,15,15,15,15,15,15,
15,15,15,15,15,15,15,15,15,15,15,15,15,15,15,15,
15,15,15,15,15,15,15,15,15,15,15,15,15,15,15,15,
15,15,15,15,15,15,15,15,15,15,15,15,15,15,15,15,
15,15,15,15,15,15,15,15,15,15,15,15,15,15,15,15,
15,15,15,15,15,15,15,15,15,15,15,15,15,15,15,15,
15,15,15,15,15,15,15,15,15,15,15,15,15,15,15,15,
15,15,15,15,15,15,15,15,15,15,15,15,15,15,15,15
</chunk>
   <chunk x="1280" y="640" width="16" height="16">
35,35,35,35,35,35,35,35,15,15,15,15,15,15,15,15,
35,35,35,35,35,35,35,35,15,15,15,15,15,15,15,15,
35,35,35,35,35,35,35,35,35,15,15,15,15,15,15,15,
35,35,35,35,35,35,35,35,35,15,15,15,15,15,15,15,
35,35,35,35,35,35,35,35,35,35,15,15,15,15,15,15,
35,35,35,35,35,35,35,35,35,35,35,15,15,15,15,15,
35,35,35,35,35,35,35,35,35,35,35,15,15,15,15,15,
15,35,35,35,35,35,35,35,35,35,35,35,15,15,15,15,
15,35,35,35,35,35,35,35,35,35,35,35,15,15,15,15,
15,15,35,35,35,35,35,35,35,35,35,35,35,15,15,15,
15,15,15,35,35,35,35,35,35,35,35,35,35,35,15,15,
15,15,15,15,35,35,35,35,35,35,35,35,35,35,15,15,
15,15,15,15,15,35,35,35,35,35,35,35,35,35,35,15,
15,15,15,15,15,15,35,35,35,35,35,35,35,35,35,35,
15,15,15,15,15,15,15,35,35,35,35,35,35,35,35,35,
15,15,15,15,15,15,15,15,35,35,35,35,35,35,35,35
</chunk>
   <chunk x="1296" y="640" width="16" height="16">
15,15,15,15,15,15,15,15,15,15,15,15,15,15,15,15,
15,15,15,15,15,15,15,15,15,15,15,15,15,15,15,15,
15,15,15,15,15,15,15,15,15,15,15,15,15,15,15,15,
15,15,15,15,15,15,15,15,15,15,15,15,15,15,15,15,
15,15,15,15,15,15,15,15,15,15,15,15,15,15,15,15,
15,15,15,15,15,15,15,15,15,15,15,15,15,15,15,15,
15,15,15,15,15,15,15,15,15,15,15,15,15,15,15,15,
15,15,15,15,15,15,15,15,15,15,15,15,15,15,15,15,
15,15,15,15,15,15,15,15,15,15,15,15,15,15,15,15,
15,15,15,15,15,15,15,15,15,15,15,15,15,15,15,15,
15,15,15,15,15,15,15,15,15,15,15,15,15,15,15,15,
15,15,15,15,15,15,15,15,15,15,15,15,15,15,15,15,
15,15,15,15,15,15,15,15,15,15,15,15,15,15,15,15,
15,15,15,15,15,15,15,15,15,15,15,15,15,15,15,15,
35,15,15,15,15,15,15,15,15,15,15,15,15,15,15,15,
35,15,15,15,15,15,15,15,15,15,15,15,15,15,15,15
</chunk>
   <chunk x="1312" y="640" width="16" height="16">
15,15,5,5,5,5,5,5,5,5,5,5,5,5,5,5,
15,15,5,5,5,5,5,5,5,5,5,5,5,5,5,5,
15,5,5,5,5,5,5,5,5,5,5,5,5,5,5,5,
15,5,5,5,5,5,5,5,5,5,5,5,5,5,5,5,
15,5,5,5,5,5,5,5,5,5,5,5,5,5,5,5,
15,5,5,5,5,5,5,5,5,5,5,5,5,5,5,5,
15,5,5,5,5,5,5,5,5,5,5,5,5,5,5,5,
15,5,5,5,5,5,5,5,5,5,5,5,5,5,5,5,
15,5,5,5,5,5,5,5,5,5,5,5,5,5,5,5,
15,5,5,5,5,5,5,5,5,5,5,5,5,5,5,5,
15,5,5,5,5,5,5,5,5,5,5,5,5,5,5,5,
15,15,5,5,5,5,5,5,5,5,5,5,5,5,5,5,
15,15,5,5,5,5,5,5,5,5,5,5,5,5,5,5,
15,15,5,5,5,5,5,5,5,5,5,5,5,5,5,5,
15,15,15,5,5,5,5,5,5,5,5,5,5,5,5,5,
15,15,15,5,5,5,5,5,5,5,5,5,5,5,5,5
</chunk>
   <chunk x="1328" y="640" width="16" height="16">
5,5,5,5,5,5,5,5,5,5,5,5,5,5,5,5,
5,5,5,5,5,5,5,5,5,5,5,5,5,5,5,5,
5,5,5,5,5,5,5,5,5,5,5,5,5,5,5,5,
5,5,5,5,5,5,5,5,5,5,5,5,5,5,5,5,
5,5,5,5,5,5,5,5,5,5,5,5,5,5,5,5,
5,5,5,5,5,5,5,5,5,5,5,5,5,5,5,5,
5,5,5,5,5,5,5,5,5,5,5,5,5,5,5,5,
5,5,5,5,5,5,5,5,5,5,5,5,5,5,5,5,
5,5,5,5,5,5,5,5,5,5,5,5,5,5,5,5,
5,5,5,5,5,5,5,5,5,5,5,5,5,5,5,5,
5,5,5,5,5,5,5,5,5,5,5,5,5,5,5,5,
5,5,5,5,5,5,5,5,5,5,5,5,5,5,5,5,
5,5,5,5,5,5,5,5,5,5,5,5,5,5,5,5,
5,5,5,5,5,5,5,5,5,5,5,5,5,5,5,5,
5,5,5,5,5,5,5,5,5,5,5,5,5,5,5,5,
5,5,5,5,5,5,5,5,5,5,5,5,5,5,5,15
</chunk>
   <chunk x="1344" y="640" width="16" height="16">
5,5,5,5,15,15,15,15,15,15,15,15,15,15,15,15,
5,5,5,15,15,15,15,15,15,15,15,15,15,15,15,15,
5,5,15,15,15,15,15,15,15,15,15,15,15,15,15,15,
5,5,15,15,15,15,15,15,15,15,15,15,15,15,15,15,
5,5,15,15,15,15,15,15,15,15,15,15,15,15,15,15,
5,15,15,15,15,15,15,15,15,15,15,15,15,15,15,15,
5,15,15,15,15,15,15,15,15,15,15,15,15,15,15,15,
5,15,15,15,15,15,15,15,15,15,15,15,15,15,15,15,
15,15,15,15,15,15,15,15,15,15,15,15,15,15,15,15,
5,15,15,15,15,15,15,15,15,15,15,15,15,15,15,15,
15,15,15,15,15,15,15,15,15,15,15,15,15,15,15,15,
15,15,15,15,15,15,15,15,15,15,15,15,15,15,15,15,
15,15,15,15,15,15,15,15,15,15,15,15,15,15,15,15,
15,15,15,15,15,15,15,15,15,15,15,15,15,15,15,15,
15,15,15,15,15,15,15,15,15,15,15,15,15,15,15,15,
15,15,15,15,15,15,15,15,15,15,15,15,15,15,15,15
</chunk>
   <chunk x="1360" y="640" width="16" height="16">
15,15,15,15,15,15,15,15,15,15,15,15,15,15,15,15,
15,15,15,15,15,15,15,15,15,15,15,15,15,15,15,15,
15,15,15,15,15,15,15,15,15,15,15,15,15,15,15,15,
15,15,15,15,15,15,15,15,15,15,15,15,15,15,15,15,
15,15,15,15,15,15,15,15,15,15,15,15,15,15,15,15,
15,15,15,15,15,15,15,15,15,15,15,15,15,15,15,15,
15,15,15,15,15,15,15,15,15,15,15,15,15,15,15,15,
15,15,15,15,15,15,15,15,15,15,15,15,15,15,15,15,
15,15,15,15,15,15,15,15,15,15,15,15,15,15,15,15,
15,15,15,15,15,15,15,15,15,15,15,15,15,15,15,15,
15,15,15,15,15,15,15,15,15,15,15,15,15,15,15,15,
15,15,15,15,15,15,15,15,15,15,15,15,15,15,15,15,
15,15,15,15,15,15,15,15,15,15,15,15,15,15,15,15,
15,15,15,15,15,15,15,15,15,15,15,15,15,15,15,15,
15,15,15,15,15,15,15,15,15,15,15,15,15,15,15,15,
15,15,15,15,15,15,15,15,15,15,15,15,15,15,15,15
</chunk>
   <chunk x="1376" y="640" width="16" height="16">
15,15,15,15,15,15,15,15,15,15,15,15,15,15,35,35,
15,15,15,15,15,15,15,15,15,15,15,15,15,15,15,35,
15,15,15,15,15,15,15,15,15,15,15,15,15,15,15,35,
15,15,15,15,15,15,15,15,15,15,15,15,15,15,15,35,
15,15,15,15,15,15,15,15,15,15,15,15,15,15,15,35,
15,15,15,15,15,15,15,15,15,15,15,15,15,15,15,15,
15,15,15,15,15,15,15,15,15,15,15,15,15,15,15,15,
15,15,15,15,15,15,15,15,15,15,15,15,15,15,15,15,
15,15,15,15,15,15,15,15,15,15,15,15,15,15,15,15,
15,15,15,15,15,15,15,15,15,15,15,15,15,15,15,15,
15,15,15,15,15,15,15,15,15,15,15,15,15,15,15,15,
15,15,15,15,15,15,15,15,15,15,15,15,15,15,15,15,
15,15,15,15,15,15,15,15,15,15,15,15,15,15,15,15,
15,15,15,15,15,15,15,15,15,15,15,15,15,15,15,15,
15,15,15,15,15,15,15,15,15,15,15,15,15,15,15,15,
15,15,15,15,15,15,15,15,15,15,15,15,15,15,15,15
</chunk>
   <chunk x="1392" y="640" width="16" height="16">
35,35,35,35,35,35,35,35,35,35,35,35,35,35,35,15,
35,35,35,35,35,35,35,35,35,35,35,35,35,35,35,15,
35,35,35,35,35,35,35,35,35,35,35,35,35,35,35,15,
35,35,35,35,35,35,35,35,35,35,35,35,35,35,35,15,
35,35,35,35,35,35,35,35,35,35,35,35,35,35,15,15,
35,35,35,35,35,35,35,35,35,35,35,35,35,35,15,15,
35,35,35,35,35,35,35,35,35,35,35,35,35,35,15,15,
35,35,35,35,35,35,35,35,35,35,35,35,35,35,35,15,
35,35,35,35,35,35,35,35,35,35,35,35,35,35,15,15,
35,35,35,35,35,35,35,35,35,35,35,35,35,35,15,15,
35,35,35,35,35,35,35,35,35,35,35,35,35,35,35,15,
35,35,35,35,35,35,35,35,35,35,35,35,35,35,35,15,
35,35,35,35,35,35,35,35,35,35,35,35,35,35,35,15,
35,35,35,35,35,35,35,35,35,35,35,35,35,35,35,35,
35,35,35,35,35,35,35,35,35,35,35,35,35,35,35,35,
35,35,35,35,35,35,35,35,35,35,35,35,35,35,35,35
</chunk>
   <chunk x="1408" y="640" width="16" height="16">
15,15,15,15,15,15,15,15,15,15,15,15,15,15,15,15,
15,15,15,15,15,15,15,15,15,15,15,15,15,15,15,15,
15,15,15,15,15,15,15,15,15,15,15,15,15,15,15,15,
15,15,15,15,15,15,15,15,15,15,15,15,15,15,15,15,
15,15,15,15,15,15,15,15,15,15,15,15,15,15,15,15,
15,15,15,15,15,15,15,15,15,15,15,15,15,15,15,15,
15,15,15,15,15,15,15,15,15,15,15,15,15,15,15,15,
15,15,15,15,15,15,15,15,15,15,15,15,15,15,15,15,
15,15,15,15,15,15,15,15,15,15,15,15,15,15,15,15,
15,15,15,15,15,15,15,15,15,15,15,15,15,15,15,15,
15,15,15,15,15,15,15,15,15,15,15,15,15,15,15,15,
15,15,15,15,15,15,15,15,15,15,15,15,15,15,15,15,
15,15,15,15,15,15,15,15,15,15,15,15,15,15,15,15,
15,15,15,15,15,15,15,15,15,15,15,15,15,15,15,15,
15,15,15,15,15,15,15,15,15,15,15,15,15,15,15,15,
15,15,15,15,15,15,15,15,15,15,15,15,15,15,15,15
</chunk>
   <chunk x="1424" y="640" width="16" height="16">
15,15,15,15,15,15,15,15,15,15,15,15,15,15,15,15,
15,15,15,15,15,15,15,15,15,15,15,15,15,15,15,15,
15,15,15,15,15,15,15,15,15,15,15,15,15,15,15,15,
15,15,15,15,15,15,15,15,15,15,15,15,15,15,15,15,
15,15,15,15,15,15,15,15,15,15,15,15,15,15,15,15,
15,15,15,15,15,15,15,15,15,15,15,15,15,15,15,15,
15,15,15,15,15,15,15,15,15,15,15,15,15,15,15,15,
15,15,15,15,15,15,15,15,15,15,15,15,15,15,15,15,
15,15,15,15,15,15,15,15,15,15,15,15,15,15,15,15,
15,15,15,15,15,15,15,15,15,15,15,15,15,15,15,15,
15,15,15,15,15,15,15,15,15,15,15,15,15,15,15,15,
15,15,15,15,15,15,15,15,15,15,15,15,15,15,15,15,
15,15,15,15,15,15,15,15,15,15,15,15,15,15,15,15,
15,15,15,15,15,15,15,15,15,15,15,15,15,15,15,15,
15,15,15,15,15,15,15,15,15,15,15,15,15,15,15,15,
15,15,15,15,15,15,15,15,15,15,15,15,15,15,15,15
</chunk>
   <chunk x="1440" y="640" width="16" height="16">
15,15,15,15,15,15,15,15,15,15,15,15,15,15,15,15,
15,15,15,15,15,15,15,15,15,15,15,15,15,15,15,15,
15,15,15,15,15,15,15,15,15,15,15,15,15,15,15,15,
15,15,15,15,15,15,15,15,15,15,15,15,15,15,15,15,
15,15,15,15,15,15,15,15,15,15,15,15,15,15,15,15,
15,15,15,15,15,15,15,15,15,15,15,15,15,15,15,15,
15,15,15,15,15,15,15,15,15,15,15,15,15,15,15,15,
15,15,15,15,15,15,15,15,15,15,15,15,15,15,15,15,
15,15,15,15,15,15,15,15,15,15,15,15,15,15,15,15,
15,15,15,15,15,15,15,15,15,15,15,15,15,15,15,15,
15,15,15,15,15,15,15,15,15,15,15,15,15,15,15,15,
15,15,15,15,15,15,15,15,15,15,15,15,15,15,15,15,
15,15,15,15,15,15,15,15,15,15,15,15,15,15,15,15,
15,15,15,15,15,15,15,15,15,15,15,15,15,15,15,15,
15,15,15,15,15,15,15,15,15,15,15,15,15,15,15,15,
15,15,15,15,15,15,15,15,15,15,15,15,15,15,15,15
</chunk>
   <chunk x="1456" y="640" width="16" height="16">
15,15,15,15,15,15,15,15,15,15,15,15,15,15,15,15,
15,15,15,15,15,15,15,15,15,15,15,15,15,15,15,15,
15,15,15,15,15,15,15,15,15,15,15,15,15,15,15,15,
15,15,15,15,15,15,15,15,15,15,15,15,15,15,15,15,
15,15,15,15,15,15,15,15,15,15,15,15,15,15,15,15,
15,15,15,15,15,15,15,15,15,15,15,15,15,15,15,15,
15,15,15,15,15,15,15,15,15,15,15,15,15,15,15,15,
15,15,15,15,15,15,15,15,15,15,15,15,15,15,15,15,
15,15,15,15,15,15,15,15,15,15,15,15,15,15,15,15,
15,15,15,15,15,15,15,15,15,15,15,15,15,15,15,15,
15,15,15,15,15,15,15,15,15,15,15,15,15,15,15,15,
15,15,15,15,15,15,15,15,15,15,15,15,15,15,15,15,
15,15,15,15,15,15,15,15,15,15,15,15,15,15,15,15,
15,15,15,15,15,15,15,15,15,15,15,15,15,15,15,15,
15,15,15,15,15,15,15,15,15,15,15,15,15,15,15,15,
15,15,15,15,15,15,15,15,15,15,15,15,15,15,15,15
</chunk>
   <chunk x="1472" y="640" width="16" height="16">
15,15,15,15,15,15,15,15,15,15,15,15,15,15,15,15,
15,15,15,15,15,15,15,15,15,15,15,15,15,15,15,15,
15,15,15,15,15,15,15,15,15,15,15,15,15,15,15,15,
15,15,15,15,15,15,15,15,15,15,15,15,15,15,15,15,
15,15,15,15,15,15,15,15,15,15,15,15,15,15,15,15,
15,15,15,15,15,15,15,15,15,15,15,15,15,15,15,15,
15,15,15,15,15,15,15,15,15,15,15,15,15,15,15,15,
15,15,15,15,15,15,15,15,15,15,15,15,15,15,15,15,
15,15,15,15,15,15,15,15,15,15,15,15,15,15,15,15,
15,15,15,15,15,15,15,15,15,15,15,15,15,15,15,15,
15,15,15,15,15,15,15,15,15,15,15,15,15,15,15,15,
15,15,15,15,15,15,15,15,15,15,15,15,15,15,15,15,
15,15,15,15,15,15,15,15,15,15,15,15,15,15,15,15,
15,15,15,15,15,15,15,15,15,15,15,15,15,15,15,15,
15,15,15,15,15,15,15,15,15,15,15,15,15,15,15,15,
15,15,15,15,15,15,15,15,15,15,15,15,15,15,15,15
</chunk>
   <chunk x="1488" y="640" width="16" height="16">
35,35,35,35,35,35,35,35,35,35,35,35,35,35,15,15,
35,35,35,35,35,35,35,35,35,35,35,35,35,35,35,15,
35,35,35,35,35,35,35,35,35,35,35,35,35,35,35,15,
35,35,35,35,35,35,35,35,35,35,35,35,35,35,35,15,
35,35,35,35,35,35,35,35,35,35,35,35,35,35,35,15,
35,35,35,35,35,35,35,35,35,35,35,35,35,35,35,35,
35,35,35,35,35,35,35,35,35,35,35,35,35,35,35,35,
35,35,35,35,35,35,35,35,35,35,35,35,35,35,35,35,
15,35,35,35,35,35,35,35,35,35,35,35,35,35,35,35,
35,35,35,35,35,35,35,35,35,35,35,35,35,35,35,35,
35,35,35,35,35,35,35,35,35,35,35,35,35,35,35,35,
35,35,35,35,35,35,35,35,35,35,35,35,35,35,35,35,
35,35,35,35,35,35,35,35,35,35,35,35,35,35,35,35,
35,35,35,35,35,35,35,35,35,35,35,35,35,35,35,35,
35,35,35,35,35,35,35,35,35,35,35,35,35,35,35,35,
35,35,35,35,35,35,35,35,35,35,35,35,35,35,35,35
</chunk>
   <chunk x="1504" y="640" width="16" height="16">
15,15,15,15,15,15,15,15,15,15,15,15,15,15,15,15,
15,15,15,15,15,15,15,15,15,15,15,15,15,15,15,15,
15,15,15,15,15,15,15,15,15,15,15,15,15,15,15,15,
15,15,15,15,15,15,15,15,15,15,15,15,15,15,15,15,
15,15,15,15,15,15,15,15,15,15,15,15,15,15,15,15,
15,15,15,15,15,15,15,15,15,15,15,15,15,15,15,15,
15,15,15,15,15,15,15,15,15,15,15,15,15,15,15,15,
15,15,15,15,15,15,15,15,15,15,15,15,15,15,15,15,
15,15,15,15,15,15,15,15,15,15,15,15,15,15,15,15,
15,15,15,15,15,15,15,15,15,15,15,15,15,15,15,15,
15,15,15,15,15,15,15,15,15,15,15,15,15,15,15,15,
15,15,15,15,15,15,15,15,15,15,15,15,15,15,15,15,
15,15,15,15,15,15,15,15,15,15,15,15,15,15,15,15,
15,15,15,15,15,15,15,15,15,15,15,15,15,15,15,15,
35,15,15,15,15,15,15,15,15,15,15,15,15,15,15,15,
15,15,15,15,15,15,15,15,15,15,15,15,15,15,15,15
</chunk>
   <chunk x="1520" y="640" width="16" height="16">
15,15,15,15,15,15,15,15,15,15,15,15,15,15,15,15,
15,15,15,15,15,15,15,15,15,15,15,15,15,15,15,15,
15,15,15,15,15,15,15,15,15,15,15,15,15,15,15,15,
15,15,15,15,15,15,15,15,15,15,15,15,15,15,15,15,
15,15,15,15,15,15,15,15,15,15,15,15,15,15,15,15,
15,15,15,15,15,15,15,15,15,15,15,15,15,15,15,15,
15,15,15,15,15,15,15,15,15,15,15,15,15,15,15,15,
15,15,15,15,15,15,15,15,15,15,15,15,15,15,15,15,
15,15,15,15,15,15,15,15,15,15,15,15,15,15,15,15,
15,15,15,15,15,15,15,15,15,15,15,15,15,15,15,15,
15,15,15,15,15,15,15,15,15,15,15,15,15,15,15,15,
15,15,15,15,15,15,15,15,15,15,15,15,15,15,15,15,
15,15,15,15,15,15,15,15,15,15,15,15,15,15,15,15,
15,15,15,15,15,15,15,15,15,15,15,15,15,15,15,15,
15,15,15,15,15,15,15,15,15,15,15,15,15,15,15,15,
15,15,15,15,15,15,15,15,15,15,15,15,15,15,15,15
</chunk>
   <chunk x="1536" y="640" width="16" height="16">
15,15,15,15,15,15,15,15,15,15,15,15,15,15,15,15,
15,15,15,15,15,15,15,15,15,15,15,15,15,15,15,15,
15,15,15,15,15,15,15,15,15,15,15,15,15,15,15,15,
15,15,15,15,15,15,15,15,15,15,15,15,15,15,15,15,
15,15,15,15,15,15,15,15,15,15,15,15,15,15,15,15,
15,15,15,15,15,15,15,15,15,15,15,15,15,15,15,15,
15,15,15,15,15,15,15,15,15,15,15,15,15,15,15,15,
15,15,15,15,15,15,15,15,15,15,15,15,15,15,15,15,
15,15,15,15,15,15,15,15,15,15,15,15,15,15,15,15,
15,15,15,15,15,15,15,15,15,15,15,15,15,15,15,15,
15,15,15,15,15,15,15,15,15,15,15,15,15,15,15,15,
15,15,15,15,15,15,15,15,15,15,15,15,15,15,15,15,
15,15,15,15,15,15,15,15,15,15,15,15,15,15,15,15,
15,15,15,15,15,15,15,15,15,15,15,15,15,15,15,15,
15,15,15,15,15,15,15,15,15,15,15,15,15,15,15,15,
15,15,15,15,15,15,15,15,15,15,15,15,15,15,15,15
</chunk>
   <chunk x="1552" y="640" width="16" height="16">
15,15,15,15,15,15,15,15,15,15,15,0,0,0,0,0,
15,15,15,15,15,15,15,15,15,15,15,0,0,0,0,0,
15,15,15,15,15,15,15,15,15,15,15,0,0,0,0,0,
15,15,15,15,15,15,15,15,15,15,15,0,0,0,0,0,
15,15,15,15,15,15,15,15,15,15,15,0,0,0,0,0,
15,15,15,15,15,15,15,15,15,15,15,0,0,0,0,0,
15,15,15,15,15,15,15,15,15,15,15,0,0,0,0,0,
15,15,15,15,15,15,15,15,15,15,15,0,0,0,0,0,
15,15,15,15,15,15,15,15,15,15,15,0,0,0,0,0,
15,15,15,15,15,15,15,15,15,15,15,0,0,0,0,0,
15,15,15,15,15,15,15,15,15,15,15,0,0,0,0,0,
15,15,15,15,15,15,15,15,15,15,15,0,0,0,0,0,
15,15,15,15,15,15,15,15,15,15,15,0,0,0,0,0,
15,15,15,15,15,15,15,15,15,15,15,0,0,0,0,0,
15,15,15,15,15,15,15,15,15,15,15,0,0,0,0,0,
15,15,15,15,15,15,15,15,15,15,15,0,0,0,0,0
</chunk>
   <chunk x="1232" y="656" width="16" height="16">
0,0,15,15,15,15,15,15,15,15,15,15,15,15,15,15,
0,0,15,15,15,15,15,15,15,15,15,15,15,15,15,15,
0,0,15,15,15,15,15,15,15,15,15,15,15,15,15,15,
0,0,15,15,15,15,15,15,15,15,15,15,15,15,15,15,
0,0,15,15,15,15,15,15,15,15,15,15,15,15,15,15,
0,0,15,15,15,15,15,15,15,15,15,15,15,15,15,15,
0,0,15,15,15,15,15,15,15,15,15,15,15,15,15,15,
0,0,15,15,15,15,15,15,15,15,15,15,15,15,15,15,
0,0,15,15,15,15,15,15,15,15,15,15,15,15,15,15,
0,0,15,15,15,15,15,15,15,15,15,15,15,15,15,15,
0,0,15,15,15,15,15,15,15,15,15,15,15,15,15,15,
0,0,15,15,15,15,15,15,15,15,15,15,15,15,15,15,
0,0,15,15,15,15,15,15,15,15,15,15,15,15,15,15,
0,0,15,15,15,15,15,15,15,15,15,15,15,15,15,15,
0,0,15,15,15,15,15,15,15,15,15,15,15,15,15,15,
0,0,15,15,15,15,15,15,15,15,15,15,15,15,15,15
</chunk>
   <chunk x="1248" y="656" width="16" height="16">
15,15,15,15,15,15,15,15,15,15,15,15,15,15,15,15,
15,15,15,15,15,15,15,15,15,15,15,15,15,15,15,15,
15,15,15,15,15,15,15,15,15,15,15,15,15,15,15,15,
15,15,15,15,15,15,15,15,15,15,15,15,15,15,15,15,
15,15,15,15,15,15,15,15,15,15,15,15,15,15,15,15,
15,15,15,15,15,15,15,15,15,15,15,15,15,15,15,15,
15,15,15,15,15,15,15,15,15,15,15,15,15,15,15,15,
15,15,15,15,15,15,15,15,15,15,15,15,15,15,15,15,
15,15,15,15,15,15,15,15,15,15,15,15,15,15,15,15,
15,15,15,15,15,15,15,15,15,15,15,15,15,15,15,15,
15,15,15,15,15,15,15,15,15,15,15,15,15,15,15,15,
15,15,15,15,15,15,15,15,15,15,15,15,15,15,15,15,
15,15,15,15,15,15,15,15,15,15,15,15,15,15,15,15,
15,15,15,15,15,15,15,15,15,15,15,15,15,15,15,15,
15,15,15,15,15,15,15,15,15,15,15,15,15,15,15,15,
15,15,15,15,15,15,15,15,15,15,15,15,15,15,15,15
</chunk>
   <chunk x="1264" y="656" width="16" height="16">
15,15,15,15,15,15,15,15,15,15,15,15,15,15,15,15,
15,15,15,15,15,15,15,15,15,15,15,15,15,15,15,15,
15,15,15,15,15,15,15,15,15,15,15,15,15,15,15,15,
15,15,15,15,15,15,15,15,15,15,15,15,15,15,15,15,
15,15,15,15,15,15,15,15,15,15,15,15,15,15,15,15,
15,15,15,15,15,15,15,15,15,15,15,15,15,15,15,15,
15,15,15,15,15,15,15,15,15,15,15,15,15,15,15,15,
15,15,15,15,15,15,15,15,15,15,15,15,15,15,15,15,
15,15,15,15,15,15,15,15,15,15,15,15,15,15,15,15,
15,15,15,15,15,15,15,15,15,15,15,15,15,15,15,15,
15,15,15,15,15,15,15,15,15,15,15,15,15,15,15,15,
15,15,15,15,15,15,15,15,15,15,15,15,15,15,15,15,
15,15,15,15,15,15,15,15,15,15,15,15,15,15,15,15,
15,15,15,15,15,15,15,15,15,15,15,15,15,15,15,15,
15,15,15,15,15,15,15,15,15,15,15,15,15,15,15,15,
15,15,15,15,15,15,15,15,15,15,15,15,15,15,15,15
</chunk>
   <chunk x="1280" y="656" width="16" height="16">
15,15,15,15,15,15,15,15,15,35,35,35,35,35,35,35,
15,15,15,15,15,15,15,15,15,15,35,35,35,35,35,35,
15,15,15,15,15,15,15,15,15,15,15,35,35,35,35,35,
15,15,15,15,15,15,15,15,15,15,15,15,35,35,35,35,
15,15,15,15,15,15,15,15,15,15,15,15,15,35,35,35,
15,15,15,15,15,15,15,15,15,15,15,15,15,15,35,35,
15,15,15,15,15,15,15,15,15,15,15,15,15,15,15,35,
15,15,15,15,15,15,15,15,15,15,15,15,15,15,15,15,
15,15,15,15,15,15,15,15,15,15,15,15,15,15,15,15,
15,15,15,15,15,15,15,15,15,15,15,15,15,15,15,15,
15,15,15,15,15,15,15,15,15,15,15,15,15,15,15,15,
15,15,15,15,15,15,15,15,15,15,15,15,15,15,15,15,
15,15,15,15,15,15,15,15,15,15,15,15,15,15,15,15,
15,15,15,15,15,15,15,15,15,15,15,15,15,15,15,15,
15,15,15,15,15,15,15,15,15,15,15,15,15,15,15,15,
15,15,15,15,15,15,15,15,15,15,15,15,15,15,15,15
</chunk>
   <chunk x="1296" y="656" width="16" height="16">
35,35,15,15,15,15,15,15,15,15,15,15,15,15,15,15,
35,35,35,15,15,15,15,15,15,15,15,15,15,15,15,15,
35,35,35,35,15,15,15,15,15,15,15,15,15,15,15,15,
35,35,35,35,35,15,15,15,15,15,15,15,15,15,15,15,
35,35,35,35,35,35,15,15,15,15,15,15,15,15,15,15,
35,35,35,35,35,35,15,15,15,15,15,15,15,15,15,15,
35,35,35,35,35,35,35,15,15,15,15,15,15,15,15,15,
35,35,35,35,35,35,35,35,15,15,15,15,15,15,15,15,
35,35,35,35,35,35,35,35,35,15,15,15,15,15,15,15,
15,35,35,35,35,35,35,35,35,35,15,15,15,15,15,15,
15,15,35,35,35,35,35,35,35,35,15,15,15,15,15,15,
15,15,15,35,35,35,35,35,35,35,35,15,15,15,15,15,
15,15,15,15,35,35,35,35,35,35,35,15,15,15,15,15,
15,15,15,15,15,35,35,35,35,35,35,35,15,15,15,15,
15,15,15,15,15,35,35,35,35,35,35,35,35,15,15,15,
15,15,15,15,15,15,35,35,35,35,35,35,35,15,15,15
</chunk>
   <chunk x="1312" y="656" width="16" height="16">
15,15,15,5,5,5,5,5,5,5,5,5,5,5,5,5,
15,15,15,15,5,5,5,5,5,5,5,5,5,5,5,5,
15,15,15,15,5,5,5,5,5,5,5,5,5,5,5,5,
15,15,15,15,15,5,5,5,5,5,5,5,5,5,5,5,
15,15,15,15,15,5,5,5,5,5,5,5,5,5,5,5,
15,15,15,15,15,15,5,5,5,5,5,5,5,5,5,5,
15,15,15,15,15,15,15,5,5,5,5,5,5,5,5,5,
15,15,15,15,15,15,15,5,5,5,5,5,5,5,5,5,
15,15,15,15,15,15,15,15,5,5,5,5,5,5,5,5,
15,15,15,15,15,15,15,15,15,5,5,5,5,5,5,5,
15,15,15,15,15,15,15,15,15,5,5,5,5,5,5,5,
15,15,15,15,15,15,15,15,15,15,5,5,5,5,5,5,
15,15,15,15,15,15,15,15,15,15,15,5,5,5,5,5,
15,15,15,15,15,15,15,15,15,15,15,5,5,5,5,5,
15,15,15,15,15,15,15,15,15,15,15,15,5,5,5,5,
15,15,15,15,15,15,15,15,15,15,15,15,5,5,5,5
</chunk>
   <chunk x="1328" y="656" width="16" height="16">
5,5,5,5,5,5,5,5,5,5,5,5,5,5,5,5,
5,5,5,5,5,5,5,5,5,5,5,5,5,5,5,15,
5,5,5,5,5,5,5,5,5,5,5,5,5,5,5,5,
5,5,5,5,5,5,5,5,5,5,5,5,5,5,5,15,
5,5,5,5,5,5,5,5,5,5,5,5,5,5,5,5,
5,5,5,5,5,5,5,5,5,5,5,5,5,5,5,15,
5,5,5,5,5,5,5,5,5,5,5,5,5,5,5,5,
5,5,5,5,5,5,5,5,5,5,5,5,5,5,5,15,
5,5,5,5,5,5,5,5,5,5,5,5,5,5,5,5,
5,5,5,5,5,5,5,5,5,5,5,5,5,5,5,5,
5,5,5,5,5,5,5,5,5,5,5,5,5,5,5,5,
5,5,5,5,5,5,5,5,5,5,5,5,5,5,5,5,
5,5,5,5,5,5,5,5,5,5,5,5,5,5,5,5,
5,5,5,5,5,5,5,5,5,5,5,5,5,5,5,5,
5,5,5,5,5,5,5,5,5,5,5,5,5,5,5,5,
5,5,5,5,5,5,5,5,5,5,5,5,5,5,5,5
</chunk>
   <chunk x="1344" y="656" width="16" height="16">
15,15,15,15,15,15,15,15,15,15,15,15,15,15,15,15,
15,15,15,15,15,15,15,15,15,15,15,15,15,15,15,15,
15,15,15,15,15,15,15,15,15,15,15,15,15,15,15,15,
15,15,15,15,15,15,15,15,15,15,15,15,15,15,15,15,
15,15,15,15,15,15,15,15,15,15,15,15,15,15,15,15,
15,15,15,15,15,15,15,15,15,15,15,15,15,15,15,15,
15,15,15,15,15,15,15,15,15,15,15,15,15,15,15,15,
15,15,15,15,15,15,15,15,15,15,15,15,15,15,15,15,
15,15,15,15,15,15,15,15,15,15,15,15,15,15,15,15,
15,15,15,15,15,15,15,15,15,15,15,15,15,15,15,15,
15,15,15,15,15,15,15,15,15,15,15,15,15,15,15,15,
5,15,15,15,15,15,15,15,15,15,15,15,15,15,15,15,
15,15,15,15,15,15,15,15,15,15,15,15,15,15,15,15,
5,15,15,15,15,15,15,15,15,15,15,15,15,15,15,15,
5,15,15,15,15,15,15,15,15,15,15,15,15,15,15,15,
5,15,15,15,15,15,15,15,15,15,15,15,15,15,15,15
</chunk>
   <chunk x="1360" y="656" width="16" height="16">
15,15,15,15,15,15,15,15,15,15,15,15,15,15,15,15,
15,15,15,15,15,15,15,15,15,15,15,15,15,15,15,15,
15,15,15,15,15,15,15,15,15,15,15,15,15,15,15,15,
15,15,15,15,15,15,15,15,15,15,15,15,15,15,15,15,
15,15,15,15,15,15,15,15,15,15,15,15,15,15,15,15,
15,15,15,15,15,15,15,15,15,15,15,15,15,15,15,15,
15,15,15,15,15,15,15,15,15,15,15,15,15,15,15,15,
15,15,15,15,15,15,15,15,15,15,15,15,15,15,15,15,
15,15,15,15,15,15,15,15,15,15,15,15,15,15,15,15,
15,15,15,15,15,15,15,15,15,15,15,15,15,15,15,15,
15,15,15,15,15,15,15,15,15,15,15,15,15,15,15,15,
15,15,15,15,15,15,15,15,15,15,15,15,15,15,15,15,
15,15,15,15,15,15,15,15,15,15,15,15,15,15,15,15,
15,15,15,15,15,15,15,15,15,15,15,15,15,15,15,15,
15,15,15,15,15,15,15,15,15,15,15,15,15,15,15,15,
15,15,15,15,15,15,15,15,15,15,15,15,15,15,15,15
</chunk>
   <chunk x="1376" y="656" width="16" height="16">
15,15,15,15,15,15,15,15,15,15,15,15,15,15,15,15,
15,15,15,15,15,15,15,15,15,15,15,15,15,15,15,15,
15,15,15,15,15,15,15,15,15,15,15,15,15,15,15,35,
15,15,15,15,15,15,15,15,15,15,15,15,15,15,15,35,
15,15,15,15,15,15,15,15,15,15,15,15,15,15,15,35,
15,15,15,15,15,15,15,15,15,15,15,15,15,15,35,35,
15,15,15,15,15,15,15,15,15,15,15,15,15,15,35,35,
15,15,15,15,15,15,15,15,15,15,15,15,15,15,35,35,
15,15,15,15,15,15,15,15,15,15,15,15,15,35,35,35,
15,15,15,15,15,15,15,15,15,15,15,15,15,35,35,35,
15,15,15,15,15,15,15,15,15,15,15,15,15,35,35,35,
15,15,15,15,15,15,15,15,15,15,15,15,35,35,35,35,
15,15,15,15,15,15,15,15,15,15,15,15,35,35,35,35,
15,15,15,15,15,15,15,15,15,15,15,15,35,35,35,35,
15,15,15,15,15,15,15,15,15,15,15,35,35,35,35,35,
15,15,15,15,15,15,15,15,15,15,15,35,35,35,35,35
</chunk>
   <chunk x="1392" y="656" width="16" height="16">
35,35,35,35,35,35,35,35,35,35,35,35,35,35,35,35,
35,35,35,35,35,35,35,35,35,35,35,35,35,35,35,35,
35,35,35,35,35,35,35,35,35,35,35,35,35,35,35,35,
35,35,35,35,35,35,35,35,35,35,35,35,35,35,35,35,
35,35,35,35,35,35,35,35,35,35,35,35,35,35,35,35,
35,35,35,35,35,35,35,35,35,35,35,35,35,35,35,35,
35,35,35,35,35,35,35,35,35,35,35,35,35,35,35,35,
35,35,35,35,35,35,35,35,35,35,35,35,35,35,35,35,
35,35,35,35,35,35,35,35,35,35,35,35,35,35,35,35,
35,35,35,35,35,35,35,35,35,35,35,35,35,35,35,35,
35,35,35,35,35,35,35,35,35,35,35,35,35,35,35,35,
35,35,35,35,35,35,35,35,35,35,35,35,35,35,35,35,
35,35,35,35,35,35,35,35,35,35,35,35,35,35,35,35,
35,35,35,35,35,35,35,35,35,35,35,35,35,35,35,35,
35,35,35,35,35,35,35,35,35,35,35,35,35,35,35,35,
35,35,35,35,35,35,35,35,35,35,35,35,35,35,35,35
</chunk>
   <chunk x="1408" y="656" width="16" height="16">
15,15,15,15,15,15,15,15,15,15,15,15,15,15,15,15,
35,15,15,15,15,15,15,15,15,15,15,15,15,15,15,15,
35,15,15,15,15,15,15,15,15,15,15,15,15,15,15,15,
35,15,15,15,15,15,15,15,15,15,15,15,15,15,15,15,
35,15,15,15,15,15,15,15,15,15,15,15,15,15,15,15,
35,15,15,15,15,15,15,15,15,15,15,15,15,15,15,15,
35,15,15,15,15,15,15,15,15,15,15,15,15,15,15,15,
35,35,15,15,15,15,15,15,15,15,15,15,15,15,15,15,
35,35,15,15,15,15,15,15,15,15,15,15,15,15,15,15,
35,35,15,15,15,15,15,15,15,15,15,15,15,15,15,15,
35,35,15,15,15,15,15,15,15,15,15,15,15,15,15,15,
35,35,15,15,15,15,15,15,15,15,15,15,15,15,15,15,
35,35,15,15,15,15,15,15,15,15,15,15,15,15,15,15,
35,35,15,15,15,15,15,15,15,15,15,15,15,15,15,15,
35,15,15,15,15,15,15,15,15,15,15,15,15,15,15,15,
15,15,15,15,15,15,15,15,15,15,15,15,15,15,15,15
</chunk>
   <chunk x="1424" y="656" width="16" height="16">
15,15,15,15,15,15,15,15,15,15,15,15,15,15,15,15,
15,15,15,15,15,15,15,15,15,15,15,15,15,15,15,15,
15,15,15,15,15,15,15,15,15,15,15,15,15,15,15,15,
15,15,15,15,15,15,15,15,15,15,15,15,15,15,15,15,
15,15,15,15,15,15,15,15,15,15,15,15,15,15,15,15,
15,15,15,15,15,15,15,15,15,15,15,15,15,15,15,15,
15,15,15,15,15,15,15,15,15,15,15,15,15,15,15,15,
15,15,15,15,15,15,15,15,15,15,15,15,15,15,15,15,
15,15,15,15,15,15,15,15,15,15,15,15,15,15,15,15,
15,15,15,15,15,15,15,15,15,15,15,15,15,15,15,15,
15,15,15,15,15,15,15,15,15,15,15,15,15,15,15,15,
15,15,15,15,15,15,15,15,15,15,15,15,15,15,15,15,
15,15,15,15,15,15,15,15,15,15,15,15,15,15,15,15,
15,15,15,15,15,15,15,15,15,15,15,15,15,15,15,15,
15,15,15,15,15,15,15,15,15,15,15,15,15,15,15,15,
15,15,15,15,15,15,15,15,15,15,15,15,15,15,15,15
</chunk>
   <chunk x="1440" y="656" width="16" height="16">
15,15,15,15,15,15,15,15,15,15,15,15,15,15,15,15,
15,15,15,15,15,15,15,15,15,15,15,15,15,15,15,15,
15,15,15,15,15,15,15,15,15,15,15,15,15,15,15,15,
15,15,15,15,15,15,15,15,15,15,15,15,15,15,15,15,
15,15,15,15,15,15,15,15,15,15,15,15,15,15,15,15,
15,15,15,15,15,15,15,15,15,15,15,15,15,15,15,15,
15,15,15,15,15,15,15,15,15,15,15,15,15,15,15,15,
15,15,15,15,15,15,15,15,15,15,15,15,15,15,15,15,
15,15,15,15,15,15,15,15,15,15,15,15,15,15,15,15,
15,15,15,15,15,15,15,15,15,15,15,15,15,15,15,15,
15,15,15,15,15,15,15,15,15,15,15,15,15,15,15,15,
15,15,15,15,15,15,15,15,15,15,15,15,15,15,15,15,
15,15,15,15,15,15,15,15,15,15,15,15,15,15,15,15,
15,15,15,15,15,15,15,15,15,15,15,15,15,15,15,15,
15,15,15,15,15,15,15,15,15,15,15,15,15,15,15,15,
15,15,15,15,15,15,15,15,15,15,15,15,15,15,15,15
</chunk>
   <chunk x="1456" y="656" width="16" height="16">
15,15,15,15,15,15,15,15,15,15,15,15,15,15,15,15,
15,15,15,15,15,15,15,15,15,15,15,15,15,15,15,15,
15,15,15,15,15,15,15,15,15,15,15,15,15,15,15,15,
15,15,15,15,15,15,15,15,15,15,15,15,15,15,15,15,
15,15,15,15,15,15,15,15,15,15,15,15,15,15,15,15,
15,15,15,15,15,15,15,15,15,15,15,15,15,15,15,15,
15,15,15,15,15,15,15,15,15,15,15,15,15,15,15,15,
15,15,15,15,15,15,15,15,15,15,15,15,15,15,15,15,
15,15,15,15,15,15,15,15,15,15,15,15,15,15,15,15,
15,15,15,15,15,15,15,15,15,15,15,15,15,15,15,15,
15,15,15,15,15,15,15,15,15,15,15,15,15,15,15,15,
15,15,15,15,15,15,15,15,15,15,15,15,15,15,15,15,
15,15,15,15,15,15,15,15,15,15,15,15,15,15,15,15,
15,15,15,15,15,15,15,15,15,15,15,15,15,15,15,15,
15,15,15,15,15,15,15,15,15,15,15,15,15,15,15,15,
15,15,15,15,15,15,15,15,15,15,15,15,15,15,15,15
</chunk>
   <chunk x="1472" y="656" width="16" height="16">
15,15,15,15,15,15,15,15,15,15,15,15,15,15,15,35,
15,15,15,15,15,15,15,15,15,15,15,15,15,15,35,35,
15,15,15,15,15,15,15,15,15,15,15,15,15,15,35,35,
15,15,15,15,15,15,15,15,15,15,15,15,15,15,35,35,
15,15,15,15,15,15,15,15,15,15,15,15,15,35,35,35,
15,15,15,15,15,15,15,15,15,15,15,15,35,35,35,35,
15,15,15,15,15,15,15,15,15,15,15,15,35,35,35,35,
15,15,15,15,15,15,15,15,15,15,35,35,35,35,35,35,
15,15,15,15,15,15,15,15,15,35,35,35,35,35,35,35,
15,15,15,15,15,15,15,15,35,35,35,35,35,35,35,35,
15,15,15,15,15,15,15,35,35,35,35,35,35,35,35,35,
15,15,15,15,15,15,35,35,35,35,35,35,35,35,35,35,
15,15,15,15,35,35,35,35,35,35,35,35,35,35,35,35,
15,15,15,35,35,35,35,35,35,35,35,35,35,35,35,35,
15,15,35,35,35,35,35,35,35,35,35,35,35,35,35,35,
35,35,35,35,35,35,35,35,35,35,35,35,35,35,35,15
</chunk>
   <chunk x="1488" y="656" width="16" height="16">
35,35,35,35,35,35,35,35,35,35,35,35,35,35,35,35,
35,35,35,35,35,35,35,35,35,35,35,35,35,35,35,35,
35,35,35,35,35,35,35,35,35,35,35,35,35,35,35,35,
35,35,35,35,35,35,35,35,35,35,35,35,35,35,35,35,
35,35,35,35,35,35,35,35,35,35,35,35,35,35,35,15,
35,35,35,35,35,35,35,35,35,35,35,35,35,35,35,15,
35,35,35,35,35,35,35,35,35,35,35,35,35,35,15,15,
35,35,35,35,35,35,35,35,35,35,35,35,35,35,15,15,
35,35,35,35,35,35,35,35,35,35,35,35,15,15,15,15,
35,35,35,35,35,35,35,35,35,35,35,15,15,15,15,15,
35,35,35,35,35,35,35,35,35,35,15,15,15,15,15,15,
35,35,35,35,35,35,35,35,35,15,15,15,15,15,15,15,
35,35,35,35,35,35,35,15,15,15,15,15,15,15,15,15,
35,35,35,15,35,15,15,15,15,15,15,15,15,15,15,15,
35,35,15,15,15,15,15,15,15,15,15,15,15,15,15,15,
15,15,15,15,15,15,15,15,15,15,15,15,15,15,15,15
</chunk>
   <chunk x="1504" y="656" width="16" height="16">
15,15,15,15,15,15,15,15,15,15,15,15,15,15,15,15,
15,15,15,15,15,15,15,15,15,15,15,15,15,15,15,15,
15,15,15,15,15,15,15,15,15,15,15,15,15,15,15,15,
15,15,15,15,15,15,15,15,15,15,15,15,15,15,15,15,
15,15,15,15,15,15,15,15,15,15,15,15,15,15,15,15,
15,15,15,15,15,15,15,15,15,15,15,15,15,15,15,15,
15,15,15,15,15,15,15,15,15,15,15,15,15,15,15,15,
15,15,15,15,15,15,15,15,15,15,15,15,15,15,15,15,
15,15,15,15,15,15,15,15,15,15,15,15,15,15,15,15,
15,15,15,15,15,15,15,15,15,15,15,15,15,15,15,15,
15,15,15,15,15,15,15,15,15,15,15,15,15,15,15,15,
15,15,15,15,15,15,15,15,15,15,15,15,15,15,15,15,
15,15,15,15,15,15,15,15,15,15,15,15,15,15,15,15,
15,15,15,15,15,15,15,15,15,15,15,15,15,15,15,15,
15,15,15,15,15,15,15,15,15,15,15,15,15,15,15,15,
15,15,15,15,15,15,15,15,15,15,15,15,15,15,15,15
</chunk>
   <chunk x="1520" y="656" width="16" height="16">
15,15,15,15,15,15,15,15,15,15,15,15,15,15,15,15,
15,15,15,15,15,15,15,15,15,15,15,15,15,15,15,15,
15,15,15,15,15,15,15,15,15,15,15,15,15,15,15,15,
15,15,15,15,15,15,15,15,15,15,15,15,15,15,15,15,
15,15,15,15,15,15,15,15,15,15,15,15,15,15,15,15,
15,15,15,15,15,15,15,15,15,15,15,15,15,15,15,15,
15,15,15,15,15,15,15,15,15,15,15,15,15,15,15,15,
15,15,15,15,15,15,15,15,15,15,15,15,15,15,15,15,
15,15,15,15,15,15,15,15,15,15,15,15,15,15,15,15,
15,15,15,15,15,15,15,15,15,15,15,15,15,15,15,15,
15,15,15,15,15,15,15,15,15,15,15,15,15,15,15,15,
15,15,15,15,15,15,15,15,15,15,15,15,15,15,15,15,
15,15,15,15,15,15,15,15,15,15,15,15,15,15,15,15,
15,15,15,15,15,15,15,15,15,15,15,15,15,15,15,15,
15,15,15,15,15,15,15,15,15,15,15,15,15,15,15,15,
15,15,15,15,15,15,15,15,15,15,15,15,15,15,15,15
</chunk>
   <chunk x="1536" y="656" width="16" height="16">
15,15,15,15,15,15,15,15,15,15,15,15,15,15,15,15,
15,15,15,15,15,15,15,15,15,15,15,15,15,15,15,15,
15,15,15,15,15,15,15,15,15,15,15,15,15,15,15,15,
15,15,15,15,15,15,15,15,15,15,15,15,15,15,15,15,
15,15,15,15,15,15,15,15,15,15,15,15,15,15,15,15,
15,15,15,15,15,15,15,15,15,15,15,15,15,15,15,15,
15,15,15,15,15,15,15,15,15,15,15,15,15,15,15,15,
15,15,15,15,15,15,15,15,15,15,15,15,15,15,15,15,
15,15,15,15,15,15,15,15,15,15,15,15,15,15,15,15,
15,15,15,15,15,15,15,15,15,15,15,15,15,15,15,15,
15,15,15,15,15,15,15,15,15,15,15,15,15,15,15,15,
15,15,15,15,15,15,15,15,15,15,15,15,15,15,15,15,
15,15,15,15,15,15,15,15,15,15,15,15,15,15,15,15,
15,15,15,15,15,15,15,15,15,15,15,15,15,15,15,15,
15,15,15,15,15,15,15,15,15,15,15,15,15,15,15,15,
15,15,15,15,15,15,15,15,15,15,15,15,15,15,15,15
</chunk>
   <chunk x="1552" y="656" width="16" height="16">
15,15,15,15,15,15,15,15,15,15,15,0,0,0,0,0,
15,15,15,15,15,15,15,15,15,15,15,0,0,0,0,0,
15,15,15,15,15,15,15,15,15,15,15,0,0,0,0,0,
15,15,15,15,15,15,15,15,15,15,15,0,0,0,0,0,
15,15,15,15,15,15,15,15,15,15,15,0,0,0,0,0,
15,15,15,15,15,15,15,15,15,15,15,0,0,0,0,0,
15,15,15,15,15,15,15,15,15,15,15,0,0,0,0,0,
15,15,15,15,15,15,15,15,15,15,15,0,0,0,0,0,
15,15,15,15,15,15,15,15,15,15,15,0,0,0,0,0,
15,15,15,15,15,15,15,15,15,15,15,0,0,0,0,0,
15,15,15,15,15,15,15,15,15,15,15,0,0,0,0,0,
15,15,15,15,15,15,15,15,15,15,15,0,0,0,0,0,
15,15,15,15,15,15,15,15,15,15,15,0,0,0,0,0,
15,15,15,15,15,15,15,15,15,15,15,0,0,0,0,0,
15,15,15,15,15,15,15,15,15,15,15,0,0,0,0,0,
15,15,15,15,15,15,15,15,15,15,15,0,0,0,0,0
</chunk>
   <chunk x="1232" y="672" width="16" height="16">
0,0,15,15,15,15,15,15,15,15,15,15,15,15,15,15,
0,0,15,15,15,15,15,15,15,15,15,15,15,15,15,15,
0,0,35,35,15,15,15,15,15,15,15,15,15,15,15,15,
0,0,35,35,35,35,35,15,15,15,15,15,15,15,15,15,
0,0,35,35,35,35,35,35,35,35,15,15,15,15,15,15,
0,0,35,35,35,35,35,35,35,35,35,35,35,15,15,15,
0,0,35,35,35,35,35,35,35,35,35,35,35,35,35,15,
0,0,35,35,35,35,35,35,35,35,35,35,35,35,35,35,
0,0,35,35,35,35,35,35,35,35,35,35,35,35,35,35,
0,0,35,35,35,35,35,35,35,35,35,35,35,35,35,35,
0,0,35,35,35,35,35,35,35,35,35,35,35,35,35,35,
0,0,35,35,35,35,35,35,35,35,35,35,35,35,35,35,
0,0,35,35,35,35,35,35,35,35,35,35,35,35,35,35,
0,0,35,35,35,35,35,35,35,35,35,35,35,35,35,35,
0,0,35,35,35,35,35,35,35,35,35,35,35,35,35,35,
0,0,35,35,35,35,35,35,35,35,35,35,35,35,35,35
</chunk>
   <chunk x="1248" y="672" width="16" height="16">
15,15,15,15,15,15,15,15,15,15,15,15,15,15,15,15,
15,15,15,15,15,15,15,15,15,15,15,15,15,15,15,15,
15,15,15,15,15,15,15,15,15,15,15,15,15,15,15,15,
15,15,15,15,15,15,15,15,15,15,15,15,15,15,15,15,
15,15,15,15,15,15,15,15,15,15,15,15,15,15,15,15,
15,15,15,15,15,15,15,15,15,15,15,15,15,15,15,15,
15,15,15,15,15,15,15,15,15,15,15,15,15,15,15,15,
35,15,15,15,15,15,15,15,15,15,15,15,15,15,15,15,
35,35,35,35,15,15,15,15,15,15,15,15,15,15,15,15,
35,35,35,35,35,35,15,15,15,15,15,15,15,15,15,15,
35,35,35,35,35,35,35,35,15,15,15,15,15,15,15,15,
35,35,35,35,35,35,35,35,35,35,15,15,15,15,15,15,
35,35,35,35,35,35,35,35,35,35,35,35,15,15,15,15,
35,35,35,35,35,35,35,35,35,35,35,35,35,35,15,15,
35,35,35,35,35,35,35,35,35,35,35,35,35,35,35,15,
35,35,35,35,35,35,35,35,35,35,35,35,35,35,35,35
</chunk>
   <chunk x="1264" y="672" width="16" height="16">
15,15,15,15,15,15,15,15,15,15,15,15,15,15,15,15,
15,15,15,15,15,15,15,15,15,15,15,15,15,15,15,15,
15,15,15,15,15,15,15,15,15,15,15,15,15,15,15,15,
15,15,15,15,15,15,15,15,15,15,15,15,15,15,15,15,
15,15,15,15,15,15,15,15,15,15,15,15,15,15,15,15,
15,15,15,15,15,15,15,15,15,15,15,15,15,15,15,15,
15,15,15,15,15,15,15,15,15,15,15,15,15,15,15,15,
15,15,15,15,15,15,15,15,15,15,15,15,15,15,15,15,
15,15,15,15,15,15,15,15,15,15,15,15,15,15,15,15,
15,15,15,15,15,15,15,15,15,15,15,15,15,15,15,15,
15,15,15,15,15,15,15,15,15,15,15,15,15,15,15,15,
15,15,15,15,15,15,15,15,15,15,15,15,15,15,15,15,
15,15,15,15,15,15,15,15,15,15,15,15,15,15,15,15,
15,15,15,15,15,15,15,15,15,15,15,15,15,15,15,15,
15,15,15,15,15,15,15,15,15,15,15,15,15,15,15,15,
35,15,15,15,15,15,15,15,15,15,15,15,15,15,15,15
</chunk>
   <chunk x="1280" y="672" width="16" height="16">
15,15,15,15,15,15,15,15,15,15,15,15,15,15,15,15,
15,15,15,15,15,15,15,15,15,15,15,15,15,15,15,15,
15,15,15,15,15,15,15,15,15,15,15,15,15,15,15,15,
15,15,15,15,15,15,15,15,15,15,15,15,15,15,15,15,
15,15,15,15,15,15,15,15,15,15,15,15,15,15,15,15,
15,15,15,15,15,15,15,15,15,15,15,15,15,15,15,15,
15,15,15,15,15,15,15,15,15,15,15,15,15,15,15,15,
15,15,15,15,15,15,15,15,15,15,15,15,15,15,15,15,
15,15,15,15,15,15,15,15,15,15,15,15,15,15,15,15,
15,15,15,15,15,15,15,15,15,15,15,15,15,15,15,15,
15,15,15,15,15,15,15,15,15,15,15,15,15,15,15,15,
15,15,15,15,15,15,15,15,15,15,15,15,15,15,15,15,
15,15,15,15,15,15,15,15,15,15,15,15,15,15,15,15,
15,15,15,15,15,15,15,15,15,15,15,15,15,15,15,15,
15,15,15,15,15,15,15,15,15,15,15,15,15,15,15,15,
15,15,15,15,15,15,15,15,15,15,15,15,15,15,15,15
</chunk>
   <chunk x="1296" y="672" width="16" height="16">
15,15,15,15,15,15,15,35,35,35,35,35,35,35,15,15,
15,15,15,15,15,15,15,35,35,35,35,35,35,35,35,15,
15,15,15,15,15,15,15,15,35,35,35,35,35,35,35,15,
15,15,15,15,15,15,15,15,15,35,35,35,35,35,35,35,
15,15,15,15,15,15,15,15,15,35,35,35,35,35,35,35,
15,15,15,15,15,15,15,15,15,15,35,35,35,35,35,35,
15,15,15,15,15,15,15,15,15,15,35,35,35,35,35,35,
15,15,15,15,15,15,15,15,15,15,15,35,35,35,35,35,
15,15,15,15,15,15,15,15,15,15,15,35,35,35,35,35,
15,15,15,15,15,15,15,15,15,15,15,15,35,35,35,35,
15,15,15,15,15,15,15,15,15,15,15,15,35,35,35,35,
15,15,15,15,15,15,15,15,15,15,15,15,15,35,35,35,
15,15,15,15,15,15,15,15,15,15,15,15,15,35,35,35,
15,15,15,15,15,15,15,15,15,15,15,15,15,15,35,35,
15,15,15,15,15,15,15,15,15,15,15,15,15,15,35,35,
15,15,15,15,15,15,15,15,15,15,15,15,15,15,15,35
</chunk>
   <chunk x="1312" y="672" width="16" height="16">
15,15,15,15,15,15,15,15,15,15,15,15,15,5,5,5,
15,15,15,15,15,15,15,15,15,15,15,15,15,5,5,5,
15,15,15,15,15,15,15,15,15,15,15,15,15,5,5,5,
15,15,15,15,15,15,15,15,15,15,15,15,15,15,5,5,
35,15,15,15,15,15,15,15,15,15,15,15,15,15,5,5,
35,15,15,15,15,15,15,15,15,15,15,15,15,15,15,5,
35,35,15,15,15,15,15,15,15,15,15,15,15,15,15,5,
35,35,35,15,15,15,15,15,15,15,15,15,15,15,15,15,
35,35,35,15,15,15,15,15,15,15,15,15,15,15,15,15,
35,35,35,35,15,15,15,15,15,15,15,15,15,15,15,15,
35,35,35,35,15,15,15,15,15,15,15,15,15,15,15,15,
35,35,35,35,35,15,15,15,15,15,15,15,15,15,15,15,
35,35,35,35,35,35,15,15,15,15,15,15,15,15,15,15,
35,35,35,35,35,35,15,15,15,15,15,15,15,15,15,15,
35,35,35,35,35,35,15,15,15,15,15,15,15,15,15,15,
35,35,35,35,35,35,35,15,15,15,15,15,15,15,15,15
</chunk>
   <chunk x="1328" y="672" width="16" height="16">
5,5,5,5,5,5,5,5,5,5,5,5,5,5,5,5,
5,5,5,5,5,5,5,5,5,5,5,5,5,5,5,5,
5,5,5,5,5,5,5,5,5,5,5,5,5,5,5,5,
5,5,5,5,5,5,5,5,5,5,5,5,5,5,5,5,
5,5,5,5,5,5,5,5,5,5,5,5,5,5,5,5,
5,5,5,5,5,5,5,5,5,5,5,5,5,5,5,5,
5,5,5,5,5,5,5,5,5,5,5,5,5,5,5,5,
5,5,5,5,5,5,5,5,5,5,5,5,5,5,5,5,
5,5,5,5,5,5,5,5,5,5,5,5,5,5,5,5,
15,5,5,5,5,5,5,5,5,5,5,5,5,5,5,5,
15,5,5,5,5,5,5,5,5,5,5,5,5,5,5,5,
15,15,5,5,5,5,5,5,5,5,5,5,5,5,5,5,
15,15,5,5,5,5,5,5,5,5,5,5,5,5,5,5,
15,15,15,5,5,5,5,5,5,5,5,5,5,5,5,5,
15,15,15,5,5,5,5,5,5,5,5,5,5,5,5,5,
15,15,15,15,5,5,5,5,5,5,5,5,5,5,5,5
</chunk>
   <chunk x="1344" y="672" width="16" height="16">
5,5,15,15,15,15,15,15,15,15,15,15,15,15,15,15,
5,5,15,15,15,15,15,15,15,15,15,15,15,15,15,15,
5,5,15,15,15,15,15,15,15,15,15,15,15,15,15,15,
5,5,5,15,15,15,15,15,15,15,15,15,15,15,15,15,
5,5,15,15,15,15,15,15,15,15,15,15,15,15,15,15,
5,5,5,15,15,15,15,15,15,15,15,15,15,15,15,15,
5,5,5,5,15,15,15,15,15,15,15,15,15,15,15,15,
5,5,5,5,15,15,15,15,15,15,15,15,15,15,15,15,
5,5,5,5,15,15,15,15,15,15,15,15,15,15,15,15,
5,5,5,5,5,15,15,15,15,15,15,15,15,15,15,15,
5,5,5,5,5,15,15,15,15,15,15,15,15,15,15,15,
5,5,5,5,5,15,15,15,15,15,15,15,15,15,15,15,
5,5,5,5,5,5,15,15,15,15,15,15,15,15,15,15,
5,5,5,5,5,5,5,15,15,15,15,15,15,15,15,15,
5,5,5,5,5,5,15,15,15,15,15,15,15,15,15,15,
5,5,5,5,5,5,5,15,15,15,15,15,15,15,15,15
</chunk>
   <chunk x="1360" y="672" width="16" height="16">
15,15,15,15,15,15,15,15,15,15,15,15,15,15,15,15,
15,15,15,15,15,15,15,15,15,15,15,15,15,15,15,15,
15,15,15,15,15,15,15,15,15,15,15,15,15,15,15,15,
15,15,15,15,15,15,15,15,15,15,15,15,15,15,15,15,
15,15,15,15,15,15,15,15,15,15,15,15,15,15,15,15,
15,15,15,15,15,15,15,15,15,15,15,15,15,15,15,15,
15,15,15,15,15,15,15,15,15,15,15,15,15,15,15,15,
15,15,15,15,15,15,15,15,15,15,15,15,15,15,15,15,
15,15,15,15,15,15,15,15,15,15,15,15,15,15,15,15,
15,15,15,15,15,15,15,15,15,15,15,15,15,15,15,15,
15,15,15,15,15,15,15,15,15,15,15,15,15,15,15,15,
15,15,15,15,15,15,15,15,15,15,15,15,15,15,15,15,
15,15,15,15,15,15,15,15,15,15,15,15,15,15,15,15,
15,15,15,15,15,15,15,15,15,15,15,15,15,15,15,15,
15,15,15,15,15,15,15,15,15,15,15,15,15,15,15,15,
15,15,15,15,15,15,15,15,15,15,15,15,15,15,15,15
</chunk>
   <chunk x="1376" y="672" width="16" height="16">
15,15,15,15,15,15,15,15,15,15,15,35,35,35,35,35,
15,15,15,15,15,15,15,15,15,15,35,35,35,35,35,35,
15,15,15,15,15,15,15,15,15,15,35,35,35,35,35,35,
15,15,15,15,15,15,15,15,15,15,35,35,35,35,35,35,
15,15,15,15,15,15,15,15,15,35,35,35,35,35,35,35,
15,15,15,15,15,15,15,15,15,35,35,35,35,35,35,35,
15,15,15,15,15,15,15,15,35,35,35,35,35,35,35,35,
15,15,15,15,15,15,15,35,35,35,35,35,35,35,35,35,
15,15,15,15,15,15,15,35,35,35,35,35,35,35,35,35,
15,15,15,15,15,15,35,35,35,35,35,35,35,35,35,35,
15,15,15,15,15,35,35,35,35,35,35,35,35,35,35,35,
15,15,15,15,35,35,35,35,35,35,35,35,35,35,35,35,
15,15,15,35,35,35,35,35,35,35,35,35,35,35,35,35,
15,15,35,35,35,35,35,35,35,35,35,35,35,15,35,15,
15,35,35,35,35,35,35,35,35,35,35,35,35,15,15,15,
35,35,35,35,35,35,35,35,35,35,35,15,15,15,15,15
</chunk>
   <chunk x="1392" y="672" width="16" height="16">
35,35,35,35,35,35,35,35,35,35,35,35,35,35,35,35,
35,35,35,35,35,35,35,35,35,35,35,35,35,35,15,15,
35,35,35,35,35,35,35,35,35,35,35,35,35,15,15,15,
35,35,35,35,35,35,35,35,35,35,35,35,15,15,15,15,
35,35,35,35,35,35,35,35,35,35,35,15,15,15,15,15,
35,35,35,35,35,35,35,35,35,15,15,15,15,15,15,15,
35,35,35,35,35,35,35,35,35,15,15,15,15,15,15,15,
35,35,35,35,35,35,15,15,15,15,15,15,15,15,15,15,
35,35,35,35,35,35,15,15,15,15,15,15,15,15,15,15,
35,35,35,35,35,15,15,15,15,15,15,15,15,15,15,15,
35,35,15,15,15,15,15,15,15,15,15,15,15,15,15,15,
35,15,15,15,15,15,15,15,15,15,15,15,15,15,15,15,
15,15,15,15,15,15,15,15,15,15,15,15,15,15,15,15,
15,15,15,15,15,15,15,15,15,15,15,15,15,15,15,15,
15,15,15,15,15,15,15,15,15,15,15,15,15,15,15,15,
15,15,15,15,15,15,15,15,15,15,15,15,15,15,15,15
</chunk>
   <chunk x="1408" y="672" width="16" height="16">
15,15,15,15,15,15,15,15,15,15,15,15,15,15,15,15,
15,15,15,15,15,15,15,15,15,15,15,15,15,15,15,15,
15,15,15,15,15,15,15,15,15,15,15,15,15,15,15,15,
15,15,15,15,15,15,15,15,15,15,15,15,15,15,15,15,
15,15,15,15,15,15,15,15,15,15,15,15,15,15,15,15,
15,15,15,15,15,15,15,15,15,15,15,15,15,15,15,15,
15,15,15,15,15,15,15,15,15,15,15,15,15,15,15,15,
15,15,15,15,15,15,15,15,15,15,15,15,15,15,15,15,
15,15,15,15,15,15,15,15,15,15,15,15,15,15,15,15,
15,15,15,15,15,15,15,15,15,15,15,15,15,15,15,15,
15,15,15,15,15,15,15,15,15,15,15,15,15,15,15,15,
15,15,15,15,15,15,15,15,15,15,15,15,15,15,15,15,
15,15,15,15,15,15,15,15,15,15,15,15,15,15,15,15,
15,15,15,15,15,15,15,15,15,15,15,15,15,15,15,15,
15,15,15,15,15,15,15,15,15,15,15,15,15,15,15,15,
15,15,15,15,15,15,15,15,15,15,15,15,15,15,15,15
</chunk>
   <chunk x="1424" y="672" width="16" height="16">
15,15,15,15,15,15,15,15,15,15,15,15,15,15,15,15,
15,15,15,15,15,15,15,15,15,15,15,15,15,15,15,15,
15,15,15,15,15,15,15,15,15,15,15,15,15,15,15,15,
15,15,15,15,15,15,15,15,15,15,15,15,15,15,15,15,
15,15,15,15,15,15,15,15,15,15,15,15,15,15,15,15,
15,15,15,15,15,15,15,15,15,15,15,15,15,15,15,15,
15,15,15,15,15,15,15,15,15,15,15,15,15,15,15,15,
15,15,15,15,15,15,15,15,15,15,15,15,15,15,15,15,
15,15,15,15,15,15,15,15,15,15,15,15,15,15,15,15,
15,15,15,15,15,15,15,15,15,15,15,15,15,15,15,15,
15,15,15,15,15,15,15,15,15,15,15,15,15,15,15,15,
15,15,15,15,15,15,15,15,15,15,15,15,15,15,15,15,
15,15,15,15,15,15,15,15,15,15,15,15,15,15,15,15,
15,15,15,15,15,15,15,15,15,15,15,15,15,15,15,15,
15,15,15,15,15,15,15,15,15,15,15,15,15,15,15,15,
15,15,15,15,15,15,15,15,15,15,15,15,15,15,15,15
</chunk>
   <chunk x="1440" y="672" width="16" height="16">
15,15,15,15,15,15,15,15,15,15,15,15,15,15,15,15,
15,15,15,15,15,15,15,15,15,15,15,15,15,15,15,15,
15,15,15,15,15,15,15,15,15,15,15,15,15,15,15,15,
15,15,15,15,15,15,15,15,15,15,15,15,15,15,15,15,
15,15,15,15,15,15,15,15,15,15,15,15,15,15,15,15,
15,15,15,15,15,15,15,15,15,15,15,15,15,15,15,15,
15,15,15,15,15,15,15,15,15,15,15,15,15,15,15,15,
15,15,15,15,15,15,15,15,15,15,15,15,15,15,15,15,
15,15,15,15,15,15,15,15,15,15,15,15,15,15,35,35,
15,15,15,15,15,15,15,15,15,15,15,15,35,35,35,35,
15,15,15,15,15,15,15,15,15,15,35,35,35,35,35,35,
15,15,15,15,15,15,15,15,35,35,35,35,35,35,35,35,
15,15,15,15,15,15,15,35,35,35,35,35,35,35,35,35,
15,15,15,15,15,35,35,35,35,35,35,35,35,35,35,35,
15,15,15,35,35,35,35,35,35,35,35,35,35,35,35,35,
15,35,35,35,35,35,35,35,35,35,35,35,35,35,35,35
</chunk>
   <chunk x="1456" y="672" width="16" height="16">
15,15,15,15,15,15,15,15,15,15,15,15,15,15,35,35,
15,15,15,15,15,15,15,15,15,15,15,15,35,35,35,35,
15,15,15,15,15,15,15,15,15,15,15,35,35,35,35,35,
15,15,15,15,15,15,15,15,15,35,35,35,35,35,35,35,
15,15,15,15,15,15,15,35,35,35,35,35,35,35,35,35,
15,15,15,15,15,35,35,35,35,35,35,35,35,35,35,35,
15,15,15,35,35,35,35,35,35,35,35,35,35,35,35,35,
35,35,35,35,35,35,35,35,35,35,35,35,35,35,35,35,
35,35,35,35,35,35,35,35,35,35,35,35,35,35,35,35,
35,35,35,35,35,35,35,35,35,35,35,35,35,35,35,35,
35,35,35,35,35,35,35,35,35,35,35,35,35,35,35,35,
35,35,35,35,35,35,35,35,35,35,35,35,35,35,35,35,
35,35,35,35,35,35,35,35,35,35,35,35,35,35,35,35,
35,35,35,35,35,35,35,35,35,35,35,35,35,35,35,35,
35,35,35,35,35,35,35,35,35,35,35,35,35,35,35,35,
35,35,35,35,35,35,35,35,35,35,35,35,35,35,35,15
</chunk>
   <chunk x="1472" y="672" width="16" height="16">
35,35,35,35,35,35,35,35,35,35,35,35,35,35,35,15,
35,35,35,35,35,35,35,35,35,35,35,35,35,15,15,15,
35,35,35,35,35,35,35,35,35,35,35,35,15,15,15,15,
35,35,35,35,35,35,35,35,35,35,35,15,15,15,15,15,
35,35,35,35,35,35,35,35,35,15,15,15,15,15,15,15,
35,35,35,35,35,35,35,35,15,15,15,15,15,15,15,15,
35,35,35,35,35,35,35,35,15,15,15,15,15,15,15,15,
35,35,35,35,35,35,35,15,15,15,15,15,15,15,15,15,
35,35,35,35,35,15,15,15,15,15,15,15,15,15,15,15,
35,35,35,35,35,15,15,15,15,15,15,15,15,15,15,15,
35,35,35,35,35,15,15,15,15,15,15,15,15,15,15,15,
35,35,35,15,15,15,15,15,15,15,15,15,15,15,15,15,
35,35,35,15,15,15,15,15,15,15,15,15,15,15,15,15,
35,35,15,15,15,15,15,15,15,15,15,15,15,15,15,15,
15,15,15,15,15,15,15,15,15,15,15,15,15,15,15,15,
15,15,15,15,15,15,15,15,15,15,15,15,15,15,15,15
</chunk>
   <chunk x="1488" y="672" width="16" height="16">
15,15,15,15,15,15,15,15,15,15,15,15,15,15,15,15,
15,15,15,15,15,15,15,15,15,15,15,15,15,15,15,15,
15,15,15,15,15,15,15,15,15,15,15,15,15,15,15,15,
15,15,15,15,15,15,15,15,15,15,15,15,15,15,15,15,
15,15,15,15,15,15,15,15,15,15,15,15,15,15,15,15,
15,15,15,15,15,15,15,15,15,15,15,15,15,15,15,15,
15,15,15,15,15,15,15,15,15,15,15,15,15,15,15,15,
15,15,15,15,15,15,15,15,15,15,15,15,15,15,15,15,
15,15,15,15,15,15,15,15,15,15,15,15,15,15,15,15,
15,15,15,15,15,15,15,15,15,15,15,15,15,15,15,15,
15,15,15,15,15,15,15,15,15,15,15,15,15,15,15,15,
15,15,15,15,15,15,15,15,15,15,15,15,15,15,15,15,
15,15,15,15,15,15,15,15,15,15,15,15,15,15,15,15,
15,15,15,15,15,15,15,15,15,15,15,15,15,15,15,15,
15,15,15,15,15,15,15,15,15,15,15,15,15,15,15,15,
15,15,15,15,15,15,15,15,15,15,15,15,15,15,15,15
</chunk>
   <chunk x="1504" y="672" width="16" height="16">
15,15,15,15,15,15,15,15,15,15,15,15,15,15,15,15,
15,15,15,15,15,15,15,15,15,15,15,15,15,15,15,15,
15,15,15,15,15,15,15,15,15,15,15,15,15,15,15,15,
15,15,15,15,15,15,15,15,15,15,15,15,15,15,15,15,
15,15,15,15,15,15,15,15,15,15,15,15,15,15,15,15,
15,15,15,15,15,15,15,15,15,15,15,15,15,15,15,15,
15,15,15,15,15,15,15,15,15,15,15,15,15,15,15,15,
15,15,15,15,15,15,15,15,15,15,15,15,15,15,15,15,
15,15,15,15,15,15,15,15,15,15,15,15,15,15,15,15,
15,15,15,15,15,15,15,15,15,15,15,15,15,15,15,15,
15,15,15,15,15,15,15,15,15,15,15,15,15,15,15,15,
15,15,15,15,15,15,15,15,15,15,15,15,15,15,15,15,
15,15,15,15,15,15,15,15,15,15,15,15,15,15,15,15,
15,15,15,15,15,15,15,15,15,15,15,15,15,15,15,15,
15,15,15,15,15,15,15,15,15,15,15,15,15,15,15,15,
15,15,15,15,15,15,15,15,15,15,15,15,15,15,15,15
</chunk>
   <chunk x="1520" y="672" width="16" height="16">
15,15,15,15,15,15,15,15,15,15,15,15,15,15,15,15,
15,15,15,15,15,15,15,15,15,15,15,15,15,15,15,15,
15,15,15,15,15,15,15,15,15,15,15,15,15,15,15,15,
15,15,15,15,15,15,15,15,15,15,15,15,15,15,15,15,
15,15,15,15,15,15,15,15,15,15,15,15,15,15,15,15,
15,15,15,15,15,15,15,15,15,15,15,15,15,15,15,15,
15,15,15,15,15,15,15,15,15,15,15,15,15,15,15,15,
15,15,15,15,15,15,15,15,15,15,15,15,15,15,15,15,
15,15,15,15,15,15,15,15,15,15,15,15,15,15,15,15,
15,15,15,15,15,15,15,15,15,15,15,15,15,15,15,15,
15,15,15,15,15,15,15,15,15,15,15,15,15,15,15,15,
15,15,15,15,15,15,15,15,15,15,15,15,15,15,15,15,
15,15,15,15,15,15,15,15,15,15,15,15,15,15,15,15,
15,15,15,15,15,15,15,15,15,15,15,15,15,15,15,15,
15,15,15,15,15,15,15,15,15,15,15,15,15,15,15,15,
15,15,15,15,15,15,15,15,15,15,15,15,15,15,15,15
</chunk>
   <chunk x="1536" y="672" width="16" height="16">
15,15,15,15,15,15,15,15,15,15,15,15,15,15,15,15,
15,15,15,15,15,15,15,15,15,15,15,15,15,15,15,15,
15,15,15,15,15,15,15,15,15,15,15,15,15,15,15,15,
15,15,15,15,15,15,15,15,15,15,15,15,15,15,15,15,
15,15,15,15,15,15,15,15,15,15,15,15,15,15,15,15,
15,15,15,15,15,15,15,15,15,15,15,15,15,15,15,15,
15,15,15,15,15,15,15,15,15,15,15,15,15,15,15,15,
15,15,15,15,15,15,15,15,15,15,15,15,15,15,15,15,
15,15,15,15,15,15,15,15,15,15,15,15,15,15,15,15,
15,15,15,15,15,15,15,15,15,15,15,15,15,15,15,15,
15,15,15,15,15,15,15,15,15,15,15,15,15,15,15,15,
15,15,15,15,15,15,15,15,15,15,15,15,15,15,15,15,
15,15,15,15,15,15,15,15,15,15,15,15,15,15,15,15,
15,15,15,15,15,15,15,15,15,15,15,15,15,15,15,15,
15,15,15,15,15,15,15,15,15,15,15,15,15,15,15,15,
15,15,15,15,15,15,15,15,15,15,15,15,15,15,15,15
</chunk>
   <chunk x="1552" y="672" width="16" height="16">
15,15,15,15,15,15,15,15,15,15,15,0,0,0,0,0,
15,15,15,15,15,15,15,15,15,15,15,0,0,0,0,0,
15,15,15,15,15,15,15,15,15,15,15,0,0,0,0,0,
15,15,15,15,15,15,15,15,15,15,15,0,0,0,0,0,
15,15,15,15,15,15,15,15,15,15,15,0,0,0,0,0,
15,15,15,15,15,15,15,15,15,15,15,0,0,0,0,0,
15,15,15,15,15,15,15,15,15,15,15,0,0,0,0,0,
15,15,15,15,15,15,15,15,15,15,15,0,0,0,0,0,
15,15,15,15,15,15,15,15,15,15,15,0,0,0,0,0,
15,15,15,15,15,15,15,15,15,15,15,0,0,0,0,0,
15,15,15,15,15,15,15,15,15,15,15,0,0,0,0,0,
15,15,15,15,15,15,15,15,15,15,15,0,0,0,0,0,
15,15,15,15,15,15,15,15,15,15,15,0,0,0,0,0,
15,15,15,15,15,15,15,15,15,15,15,0,0,0,0,0,
15,15,15,15,15,15,15,15,15,15,15,0,0,0,0,0,
15,15,15,15,15,15,15,15,15,15,15,0,0,0,0,0
</chunk>
   <chunk x="1232" y="688" width="16" height="16">
0,0,35,35,35,35,35,35,35,35,35,35,35,35,35,35,
0,0,35,35,35,35,35,35,35,35,35,35,35,35,35,35,
0,0,35,35,35,35,35,35,35,35,35,35,35,35,35,35,
0,0,35,35,35,35,35,35,35,35,35,35,35,35,35,35,
0,0,35,35,35,35,35,35,35,35,35,35,35,35,35,35,
0,0,35,35,35,35,35,35,35,35,35,35,35,35,35,35,
0,0,35,35,35,35,35,35,35,35,35,35,35,35,35,35,
0,0,35,35,35,35,35,35,35,35,35,35,35,35,35,35,
0,0,35,35,35,35,35,35,35,35,35,35,35,35,35,35,
0,0,35,35,35,35,35,35,35,35,35,35,35,35,35,35,
0,0,35,35,35,35,35,35,35,35,35,35,35,35,35,35,
0,0,15,15,15,35,35,35,35,35,35,35,35,35,35,35,
0,0,15,15,15,15,15,15,15,15,15,35,35,35,35,35,
0,0,15,15,15,15,15,15,15,15,15,15,15,15,15,15,
0,0,15,15,15,15,15,15,15,15,15,15,15,15,15,15,
0,0,15,15,15,15,15,15,15,15,15,15,15,15,15,15
</chunk>
   <chunk x="1248" y="688" width="16" height="16">
35,35,35,35,35,35,35,35,35,35,35,35,35,35,35,35,
35,35,35,35,35,35,35,35,35,35,35,35,35,35,35,35,
35,35,35,35,35,35,35,35,35,35,35,35,35,35,35,35,
35,35,35,35,35,35,35,35,35,35,35,35,35,35,35,35,
35,35,35,35,35,35,35,35,35,35,35,35,35,35,35,35,
35,35,35,35,35,35,35,35,35,35,35,35,35,35,35,35,
35,35,35,35,35,35,35,35,35,35,35,35,35,35,35,35,
35,35,35,35,35,35,35,35,35,35,35,35,35,35,35,35,
35,35,35,35,35,35,35,35,35,35,35,35,35,35,35,35,
35,35,35,35,35,35,35,35,35,35,35,35,35,35,35,35,
35,35,35,35,35,35,35,35,35,35,35,35,35,35,35,35,
35,35,35,35,35,35,35,35,35,35,35,35,35,35,35,35,
35,35,35,35,35,35,35,35,35,35,35,35,35,35,35,35,
15,15,35,35,35,35,35,35,35,35,35,35,35,35,35,35,
15,15,15,15,35,35,35,35,35,35,35,35,35,35,35,35,
15,15,15,15,15,15,35,35,35,35,35,35,35,35,35,35
</chunk>
   <chunk x="1264" y="688" width="16" height="16">
35,35,35,15,15,15,15,15,15,15,15,15,15,15,15,15,
35,35,35,35,15,15,15,15,15,15,15,15,15,15,15,15,
35,35,35,35,35,15,15,15,15,15,15,15,15,15,15,15,
35,35,35,35,35,35,15,15,15,15,15,15,15,15,15,15,
35,35,35,35,35,35,35,15,15,15,15,15,15,15,15,15,
35,35,35,35,35,35,35,35,15,15,15,15,15,15,15,15,
35,35,35,35,35,35,35,35,35,35,15,15,15,15,15,15,
35,35,35,35,35,35,35,35,35,35,35,15,15,15,15,15,
35,35,35,35,35,35,35,35,35,35,35,35,15,15,15,15,
35,35,35,35,35,35,35,35,35,35,35,35,35,15,15,15,
35,35,35,35,35,35,35,35,35,35,35,35,35,35,15,15,
35,35,35,35,35,35,35,35,35,35,35,35,35,35,35,15,
35,35,35,35,35,35,35,35,35,35,35,35,35,35,35,35,
35,35,35,35,35,35,35,35,35,35,35,35,35,35,35,35,
35,35,35,35,35,35,35,35,35,35,35,35,35,35,35,35,
35,35,35,35,35,35,35,35,35,35,35,35,35,35,35,35
</chunk>
   <chunk x="1280" y="688" width="16" height="16">
15,15,15,15,15,15,15,15,15,15,15,15,15,15,15,15,
15,15,15,15,15,15,15,15,15,15,15,15,15,15,15,15,
15,15,15,15,15,15,15,15,15,15,15,15,15,15,15,15,
15,15,15,15,15,15,15,15,15,15,15,15,15,15,15,15,
15,15,15,15,15,15,15,15,15,15,15,15,15,15,15,15,
15,15,15,15,15,15,15,15,15,15,15,15,15,15,15,15,
15,15,15,15,15,15,15,15,15,15,15,15,15,15,15,15,
15,15,15,15,15,15,15,15,15,15,15,15,15,15,15,15,
15,15,15,15,15,15,15,15,15,15,15,15,15,15,15,15,
15,15,15,15,15,15,15,15,15,15,15,15,15,15,15,15,
15,15,15,15,15,15,15,15,15,15,15,15,15,15,15,15,
15,15,15,15,15,15,15,15,15,15,15,15,15,15,15,15,
15,15,15,15,15,15,15,15,15,15,15,15,15,15,15,15,
35,15,15,15,15,15,15,15,15,15,15,15,15,15,15,15,
35,35,15,15,15,15,15,15,15,15,15,15,15,15,15,15,
35,35,35,15,15,15,15,15,15,15,15,15,15,15,15,15
</chunk>
   <chunk x="1296" y="688" width="16" height="16">
15,15,15,15,15,15,15,15,15,15,15,15,15,15,15,35,
15,15,15,15,15,15,15,15,15,15,15,15,15,15,15,35,
15,15,15,15,15,15,15,15,15,15,15,15,15,15,15,15,
15,15,15,15,15,15,15,15,15,15,15,15,15,15,15,15,
15,15,15,15,15,15,15,15,15,15,15,15,15,15,15,15,
15,15,15,15,15,15,15,15,15,15,15,15,15,15,15,15,
15,15,15,15,15,15,15,15,15,15,15,15,15,15,15,15,
15,15,15,15,15,15,15,15,15,15,15,15,15,15,15,15,
15,15,15,15,15,15,15,15,15,15,15,15,15,15,15,15,
15,15,15,15,15,15,15,15,15,15,15,15,15,15,15,15,
15,15,15,15,15,15,15,15,15,15,15,15,15,15,15,15,
15,15,15,15,15,15,15,15,15,15,15,15,15,15,15,15,
15,15,15,15,15,15,15,15,15,15,15,15,15,15,15,15,
15,15,15,15,15,15,15,15,15,15,15,15,15,15,15,15,
15,15,15,15,15,15,15,15,15,15,15,15,15,15,15,15,
15,15,15,15,15,15,15,15,15,15,15,15,15,15,15,15
</chunk>
   <chunk x="1312" y="688" width="16" height="16">
35,35,35,35,35,35,35,15,15,15,15,15,15,15,15,15,
35,35,35,35,35,35,35,35,15,15,15,15,15,15,15,15,
35,35,35,35,35,35,35,35,35,15,15,15,15,15,15,15,
35,35,35,35,35,35,35,35,35,15,15,15,15,15,15,15,
35,35,35,35,35,35,35,35,35,35,15,15,15,15,15,15,
15,35,35,35,35,35,35,35,35,35,15,15,15,15,15,15,
15,35,35,35,35,35,35,35,35,35,15,15,15,15,15,15,
15,35,35,35,35,35,35,35,35,35,35,15,15,15,15,15,
15,35,35,35,35,35,35,35,35,35,35,15,15,15,15,15,
15,15,35,35,35,35,35,35,35,35,35,15,15,15,15,15,
15,15,35,35,35,35,35,35,35,35,35,15,15,15,15,15,
15,15,35,35,35,35,35,35,35,35,35,15,15,15,15,15,
15,15,35,35,35,35,35,35,35,35,35,15,15,15,15,15,
15,15,35,35,35,35,35,35,35,35,35,35,15,15,15,15,
15,15,35,35,35,35,35,35,35,35,35,35,15,15,15,15,
15,15,35,35,35,35,35,35,35,35,35,35,15,15,15,15
</chunk>
   <chunk x="1328" y="688" width="16" height="16">
15,15,15,15,5,5,5,5,5,5,5,5,5,5,5,5,
15,15,15,15,5,5,5,5,5,5,5,5,5,5,5,5,
15,15,15,15,15,5,5,5,5,5,5,5,5,5,5,5,
15,15,15,15,15,5,5,5,5,5,5,5,5,5,5,5,
15,15,15,15,15,5,5,5,5,5,5,5,5,5,5,5,
15,15,15,15,15,5,5,5,5,5,5,5,5,5,5,5,
15,15,15,15,15,5,5,5,5,5,5,5,5,5,5,5,
15,15,15,15,15,5,5,5,5,5,5,5,5,5,5,5,
15,15,15,15,15,5,5,5,5,5,5,5,5,5,5,5,
15,15,15,15,5,5,5,5,5,5,5,5,5,5,5,5,
15,15,15,15,5,5,5,5,5,5,5,5,5,5,5,5,
15,15,15,15,5,5,5,5,5,5,5,5,5,5,5,5,
15,15,15,15,5,5,5,5,5,5,5,5,5,5,5,5,
15,15,15,15,5,5,5,5,5,5,5,5,5,5,5,5,
15,15,15,15,5,5,5,5,5,5,5,5,5,5,5,5,
15,15,15,5,5,5,5,5,5,5,5,5,5,5,5,5
</chunk>
   <chunk x="1344" y="688" width="16" height="16">
5,5,5,5,5,5,5,15,15,15,15,15,15,15,15,15,
5,5,5,5,5,5,5,15,15,15,15,15,15,15,15,15,
5,5,5,5,5,5,5,5,15,15,15,15,15,15,15,15,
5,5,5,5,5,5,5,5,5,15,15,15,15,15,15,35,
5,5,5,5,5,5,5,5,5,15,15,15,15,15,35,35,
5,5,5,5,5,5,5,5,5,15,15,15,15,35,35,35,
5,5,5,5,5,5,5,5,5,5,15,15,15,35,35,35,
5,5,5,5,5,5,5,5,5,5,15,15,15,35,35,35,
5,5,5,5,5,5,5,5,5,5,15,15,35,35,35,35,
5,5,5,5,5,5,5,5,5,5,5,15,35,35,35,35,
5,5,5,5,5,5,5,5,5,5,5,15,35,35,35,35,
5,5,5,5,5,5,5,5,5,5,5,15,35,35,35,35,
5,5,5,5,5,5,5,5,5,5,5,5,35,35,35,35,
5,5,5,5,5,5,5,5,5,5,5,5,35,35,35,35,
5,5,5,5,5,5,5,5,5,5,5,5,35,35,35,35,
5,5,5,5,5,5,5,5,5,5,5,5,5,35,35,35
</chunk>
   <chunk x="1360" y="688" width="16" height="16">
15,15,15,15,15,15,15,15,15,15,15,15,15,15,35,35,
15,35,35,35,35,35,35,35,35,35,35,35,35,35,35,35,
35,35,35,35,35,35,35,35,35,35,35,35,35,35,35,35,
35,35,35,35,35,35,35,35,35,35,35,35,35,35,35,35,
35,35,35,35,35,35,35,35,35,35,35,35,35,35,35,35,
35,35,35,35,35,35,35,35,35,35,35,35,35,35,35,35,
35,35,35,35,35,35,35,35,35,35,35,35,35,35,35,35,
35,35,35,35,35,35,35,35,35,35,35,35,35,35,35,35,
35,35,35,35,35,35,35,35,35,35,35,35,35,35,35,35,
35,35,35,35,35,35,35,35,35,35,35,35,35,35,35,35,
35,35,35,35,35,35,35,35,35,35,35,35,35,35,35,35,
35,35,35,35,35,35,35,35,35,35,35,35,35,35,35,35,
35,35,35,35,35,35,35,35,35,35,35,35,35,35,35,35,
35,35,35,35,35,35,35,35,35,35,35,35,35,35,35,15,
35,35,35,35,35,35,35,35,35,35,35,35,35,35,15,15,
35,35,35,35,35,35,35,35,35,35,35,35,35,35,15,15
</chunk>
   <chunk x="1376" y="688" width="16" height="16">
35,35,35,35,35,35,35,35,35,35,15,15,15,15,15,15,
35,35,35,35,35,35,35,35,15,15,15,15,15,15,15,15,
35,35,35,35,35,35,35,15,15,15,15,15,15,15,15,15,
35,35,35,35,35,35,15,15,15,15,15,15,15,15,15,15,
35,35,35,35,35,15,15,15,15,15,15,15,15,15,15,15,
35,35,35,35,15,15,15,15,15,15,15,15,15,15,15,15,
35,35,35,15,15,15,15,15,15,15,15,15,15,15,15,15,
35,35,35,15,15,15,15,15,15,15,15,15,15,15,15,15,
35,35,15,15,15,15,15,15,15,15,15,15,15,15,15,15,
35,15,15,15,15,15,15,15,15,15,15,15,15,15,15,15,
35,15,15,15,15,15,15,15,15,15,15,15,15,15,15,15,
35,15,15,15,15,15,15,15,15,15,15,15,15,15,15,15,
15,15,15,15,15,15,15,15,15,15,15,15,15,15,15,15,
15,15,15,15,15,15,15,15,15,15,15,15,15,15,15,15,
15,15,15,15,15,15,15,15,15,15,15,15,15,15,15,15,
15,15,15,15,15,15,15,15,15,15,15,15,15,15,15,15
</chunk>
   <chunk x="1392" y="688" width="16" height="16">
15,15,15,15,15,15,15,15,15,15,15,15,15,15,15,15,
15,15,15,15,15,15,15,15,15,15,15,15,15,15,15,15,
15,15,15,15,15,15,15,15,15,15,15,15,15,15,15,15,
15,15,15,15,15,15,15,15,15,15,15,15,15,15,15,15,
15,15,15,15,15,15,15,15,15,15,15,15,15,15,15,15,
15,15,15,15,15,15,15,15,15,15,15,15,15,15,15,15,
15,15,15,15,15,15,15,15,15,15,15,15,15,15,15,15,
15,15,15,15,15,15,15,15,15,15,15,15,15,15,15,15,
15,15,15,15,15,15,15,15,15,15,15,15,15,15,15,15,
15,15,15,15,15,15,15,15,15,15,15,15,15,15,15,15,
15,15,15,15,15,15,15,15,15,15,15,15,15,15,15,15,
15,15,15,15,15,15,15,15,15,15,15,15,15,15,15,15,
15,15,15,15,15,15,15,15,15,15,15,15,15,15,15,15,
15,15,15,15,15,15,15,15,15,15,15,15,15,15,15,15,
15,15,15,15,15,15,15,15,15,15,15,15,15,15,15,15,
15,15,15,15,15,15,15,15,15,15,15,15,15,15,15,15
</chunk>
   <chunk x="1408" y="688" width="16" height="16">
15,15,15,15,15,15,15,15,15,15,15,15,15,15,15,15,
15,15,15,15,15,15,15,15,15,15,15,15,15,15,15,15,
15,15,15,15,15,15,15,15,15,15,15,15,15,15,15,15,
15,15,15,15,15,15,15,15,15,15,15,15,15,15,15,15,
15,15,15,15,15,15,15,15,15,15,15,15,15,15,15,15,
15,15,15,15,15,15,15,15,15,15,15,15,15,15,15,15,
15,15,15,15,15,15,15,15,15,15,15,15,15,15,15,15,
15,15,15,15,15,15,15,15,15,15,15,15,15,15,15,15,
15,15,15,15,15,15,15,15,15,15,15,15,15,15,15,15,
15,15,15,15,15,15,15,15,15,15,15,15,15,15,15,15,
15,15,15,15,15,15,15,15,15,15,15,15,15,15,15,15,
15,15,15,15,15,15,15,15,15,15,15,15,15,15,15,35,
15,15,15,15,15,15,15,15,15,15,15,15,15,35,35,35,
15,15,15,15,15,15,15,15,15,15,15,15,35,35,35,35,
15,15,15,15,15,15,15,15,15,15,15,35,35,35,35,35,
15,15,15,15,15,15,15,15,15,15,15,35,35,35,35,35
</chunk>
   <chunk x="1424" y="688" width="16" height="16">
15,15,15,15,15,15,15,15,15,15,15,15,15,15,15,35,
15,15,15,15,15,15,15,15,15,15,15,15,15,35,35,35,
15,15,15,15,15,15,15,15,15,15,15,35,35,35,35,35,
15,15,15,15,15,15,15,15,15,35,35,35,35,35,35,35,
15,15,15,15,15,15,15,35,35,35,35,35,35,35,35,35,
15,15,15,15,15,35,35,35,35,35,35,35,35,35,35,35,
15,15,15,15,35,35,35,35,35,35,35,35,35,35,35,35,
15,15,15,35,35,35,35,35,35,35,35,35,35,35,35,35,
15,15,35,35,35,35,35,35,35,35,35,35,35,35,35,35,
15,35,35,35,35,35,35,35,35,35,35,35,35,35,35,35,
35,35,35,35,35,35,35,35,35,35,35,35,35,35,35,35,
35,35,35,35,35,35,35,35,35,35,35,35,35,35,35,35,
35,35,35,35,35,35,35,35,35,35,35,35,35,35,35,35,
35,35,35,35,35,35,35,35,35,35,35,35,35,35,35,35,
35,35,35,35,35,35,35,35,35,35,35,35,35,35,35,35,
35,35,35,35,35,35,35,35,35,35,35,35,35,35,35,35
</chunk>
   <chunk x="1440" y="688" width="16" height="16">
35,35,35,35,35,35,35,35,35,35,35,35,35,35,35,35,
35,35,35,35,35,35,35,35,35,35,35,35,35,35,35,35,
35,35,35,35,35,35,35,35,35,35,35,35,35,35,35,35,
35,35,35,35,35,35,35,35,35,35,35,35,35,35,35,35,
35,35,35,35,35,35,35,35,35,35,35,35,35,35,35,35,
35,35,35,35,35,35,35,35,35,35,35,35,35,35,35,35,
35,35,35,35,35,35,35,35,35,35,35,35,35,35,35,35,
35,35,35,35,35,35,35,35,35,35,35,35,35,35,35,35,
35,35,35,35,35,35,35,35,35,35,35,35,35,35,35,35,
35,35,35,35,35,35,35,35,35,35,35,35,35,35,35,35,
35,35,35,35,35,35,35,35,35,35,35,35,35,35,35,35,
35,35,35,35,35,35,35,35,35,35,35,35,35,35,35,35,
35,35,35,35,35,35,35,35,35,35,35,35,35,35,35,35,
35,35,35,35,35,35,35,35,35,35,35,35,35,35,35,35,
35,35,35,35,35,35,35,35,35,35,35,35,35,35,35,35,
35,35,35,35,35,35,35,35,35,35,35,35,35,35,35,35
</chunk>
   <chunk x="1456" y="688" width="16" height="16">
35,35,35,35,35,35,35,35,35,35,35,35,35,35,35,15,
35,35,35,35,35,35,35,35,35,35,35,35,35,35,15,15,
35,35,35,35,35,35,35,35,35,35,35,35,35,35,15,15,
35,35,35,35,35,35,35,35,35,35,35,35,35,15,15,15,
35,35,35,35,35,35,35,35,35,35,35,15,15,15,15,15,
35,35,35,35,35,35,35,35,35,35,35,15,15,15,15,15,
35,35,35,35,35,35,35,35,35,15,15,15,15,15,15,15,
35,35,35,35,35,35,35,35,35,15,15,15,15,15,15,15,
35,35,35,35,35,35,35,15,15,15,15,15,15,15,15,15,
35,35,35,35,35,35,15,15,15,15,15,15,15,15,15,15,
35,35,35,35,35,15,15,15,15,15,15,15,15,15,15,15,
35,35,35,35,35,15,15,15,15,15,15,15,15,15,15,15,
35,35,35,15,15,15,15,15,15,15,15,15,15,15,15,15,
35,35,15,15,15,15,15,15,15,15,15,15,15,15,15,15,
35,15,15,15,15,15,15,15,15,15,15,15,15,15,15,15,
35,15,15,15,15,15,15,15,15,15,15,15,15,15,15,15
</chunk>
   <chunk x="1472" y="688" width="16" height="16">
15,15,15,15,15,15,15,15,15,15,15,15,15,15,15,15,
15,15,15,15,15,15,15,15,15,15,15,15,15,15,15,15,
15,15,15,15,15,15,15,15,15,15,15,15,15,15,15,15,
15,15,15,15,15,15,15,15,15,15,15,15,15,15,15,15,
15,15,15,15,15,15,15,15,15,15,15,15,15,15,15,15,
15,15,15,15,15,15,15,15,15,15,15,15,15,15,15,15,
15,15,15,15,15,15,15,15,15,15,15,15,15,15,15,15,
15,15,15,15,15,15,15,15,15,15,15,15,15,15,15,15,
15,15,15,15,15,15,15,15,15,15,15,15,15,15,15,15,
15,15,15,15,15,15,15,15,15,15,15,15,15,15,15,15,
15,15,15,15,15,15,15,15,15,15,15,15,15,15,15,15,
15,15,15,15,15,15,15,15,15,15,15,15,15,15,15,15,
15,15,15,15,15,15,15,15,15,15,15,15,15,15,15,15,
15,15,15,15,15,15,15,15,15,15,15,15,15,15,15,15,
15,15,15,15,15,15,15,15,15,15,15,15,15,15,15,15,
15,15,15,15,15,15,15,15,15,15,15,15,15,15,15,15
</chunk>
   <chunk x="1488" y="688" width="16" height="16">
15,15,15,15,15,15,15,15,15,15,15,15,15,15,15,15,
15,15,15,15,15,15,15,15,15,15,15,15,15,15,15,15,
15,15,15,15,15,15,15,15,15,15,15,15,15,15,15,15,
15,15,15,15,15,15,15,15,15,15,15,15,15,15,15,15,
15,15,15,15,15,15,15,15,15,15,15,15,15,15,15,15,
15,15,15,15,15,15,15,15,15,15,15,15,15,15,15,15,
15,15,15,15,15,15,15,15,15,15,15,15,15,15,15,15,
15,15,15,15,15,15,15,15,15,15,15,15,15,15,15,15,
15,15,15,15,15,15,15,15,15,15,15,15,15,15,15,15,
15,15,15,15,15,15,15,15,15,15,15,15,15,15,15,15,
15,15,15,15,15,15,15,15,15,15,15,15,15,15,15,15,
15,15,15,15,15,15,15,15,15,15,15,15,15,15,15,15,
15,15,15,15,15,15,15,15,15,15,15,15,15,15,15,15,
15,15,15,15,15,15,15,15,15,15,15,15,15,15,15,15,
15,15,15,15,15,15,15,15,15,15,15,15,15,15,15,15,
15,15,15,15,15,15,15,15,15,15,15,15,15,15,15,15
</chunk>
   <chunk x="1504" y="688" width="16" height="16">
15,15,15,15,15,15,15,15,15,15,15,15,15,15,15,15,
15,15,15,15,15,15,15,15,15,15,15,15,15,15,15,15,
15,15,15,15,15,15,15,15,15,15,15,15,15,15,15,15,
15,15,15,15,15,15,15,15,15,15,15,15,15,15,15,15,
15,15,15,15,15,15,15,15,15,15,15,15,15,15,15,15,
15,15,15,15,15,15,15,15,15,15,15,15,15,15,15,15,
15,15,15,15,15,15,15,15,15,15,15,15,15,15,15,15,
15,15,15,15,15,15,15,15,15,15,15,15,15,15,15,15,
15,15,15,15,15,15,15,15,15,15,15,15,15,15,15,15,
15,15,15,15,15,15,15,15,15,15,15,15,15,15,15,15,
15,15,15,15,15,15,15,15,15,15,15,15,15,15,15,15,
15,15,15,15,15,15,15,15,15,15,15,15,15,15,15,15,
15,15,15,15,15,15,15,15,15,15,15,15,15,15,15,15,
15,15,15,15,15,15,15,15,15,15,15,15,15,15,15,15,
15,15,15,15,15,15,15,15,15,15,15,15,15,15,15,15,
15,15,15,15,15,15,15,15,15,15,15,15,15,15,15,15
</chunk>
   <chunk x="1520" y="688" width="16" height="16">
15,15,15,15,15,15,15,15,15,15,15,15,15,15,15,15,
15,15,15,15,15,15,15,15,15,15,15,15,15,15,15,15,
15,15,15,15,15,15,15,15,15,15,15,15,15,15,15,15,
15,15,15,15,15,15,15,15,15,15,15,15,15,15,15,15,
15,15,15,15,15,15,15,15,15,15,15,15,15,15,15,15,
15,15,15,15,15,15,15,15,15,15,15,15,15,15,15,15,
15,15,15,15,15,15,15,15,15,15,15,15,15,15,15,15,
15,15,15,15,15,15,15,15,15,15,15,15,15,15,15,15,
15,15,15,15,15,15,15,15,15,15,15,15,15,15,15,15,
15,15,15,15,15,15,15,15,15,15,15,15,15,15,15,15,
15,15,15,15,15,15,15,15,15,15,15,15,15,15,15,15,
15,15,15,15,15,15,15,15,15,15,15,15,15,15,15,15,
15,15,15,15,15,15,15,15,15,15,15,15,15,15,15,15,
15,15,15,15,15,15,15,15,15,15,15,15,15,15,15,15,
15,15,15,15,15,15,15,15,15,15,15,15,15,15,15,15,
15,15,15,15,15,15,15,15,15,15,15,15,15,15,15,15
</chunk>
   <chunk x="1536" y="688" width="16" height="16">
15,15,15,15,15,15,15,15,15,15,15,15,15,15,15,15,
15,15,15,15,15,15,15,15,15,15,15,15,15,15,15,15,
15,15,15,15,15,15,15,15,15,15,15,15,15,15,15,15,
15,15,15,15,15,15,15,15,15,15,15,15,15,15,15,15,
15,15,15,15,15,15,15,15,15,15,15,15,15,15,15,15,
15,15,15,15,15,15,15,15,15,15,15,15,15,15,15,15,
15,15,15,15,15,15,15,15,15,15,15,15,15,15,15,15,
15,15,15,15,15,15,15,15,15,15,15,15,15,15,15,15,
15,15,15,15,15,15,15,15,15,15,15,15,15,15,15,15,
15,15,15,15,15,15,15,15,15,15,15,15,15,15,15,15,
15,15,15,15,15,15,15,15,15,15,15,15,15,15,15,15,
15,15,15,15,15,15,15,15,15,15,15,15,15,15,15,15,
15,15,15,15,15,15,15,15,15,15,15,15,15,15,15,15,
15,15,15,15,15,15,15,15,15,15,15,15,15,15,15,15,
15,15,15,15,15,15,15,15,15,15,15,15,15,15,15,15,
15,15,15,15,15,15,15,15,15,15,15,15,15,15,15,15
</chunk>
   <chunk x="1552" y="688" width="16" height="16">
15,15,15,15,15,15,15,15,15,15,15,0,0,0,0,0,
15,15,15,15,15,15,15,15,15,15,15,0,0,0,0,0,
15,15,15,15,15,15,15,15,15,15,15,0,0,0,0,0,
15,15,15,15,15,15,15,15,15,15,15,0,0,0,0,0,
15,15,15,15,15,15,15,15,15,15,15,0,0,0,0,0,
15,15,15,15,15,15,15,15,15,15,15,0,0,0,0,0,
15,15,15,15,15,15,15,15,15,15,15,0,0,0,0,0,
15,15,15,15,15,15,15,15,15,15,15,0,0,0,0,0,
15,15,15,15,15,15,15,15,15,15,15,0,0,0,0,0,
15,15,15,15,15,15,15,15,15,15,15,0,0,0,0,0,
15,15,15,15,15,15,15,15,15,15,15,0,0,0,0,0,
15,15,15,15,15,15,15,15,15,15,15,0,0,0,0,0,
15,15,15,15,15,15,15,15,15,15,15,0,0,0,0,0,
15,15,15,15,15,15,15,15,15,15,15,0,0,0,0,0,
15,15,15,15,15,15,15,15,15,15,15,0,0,0,0,0,
15,15,15,15,15,15,15,15,15,15,15,0,0,0,0,0
</chunk>
   <chunk x="1232" y="704" width="16" height="16">
0,0,15,15,15,15,15,15,15,15,15,15,15,15,15,15,
0,0,15,15,15,15,15,15,15,15,15,15,15,15,15,15,
0,0,15,15,15,15,15,15,15,15,15,15,15,15,15,15,
0,0,15,15,15,15,15,15,15,15,15,15,15,15,15,15,
0,0,15,15,15,15,15,15,15,15,15,15,15,15,15,15,
0,0,15,15,15,15,15,15,15,15,15,15,15,15,15,15,
0,0,15,15,15,15,15,15,15,15,15,15,15,15,15,15,
0,0,15,15,15,15,15,15,15,15,15,15,15,15,15,15,
0,0,15,15,15,15,15,15,15,15,15,15,15,15,15,15,
0,0,15,15,15,15,15,15,15,15,15,15,15,15,15,15,
0,0,15,15,15,15,15,15,15,15,15,15,15,15,15,15,
0,0,15,15,15,15,15,15,15,15,15,15,15,15,15,15,
0,0,15,15,15,15,15,15,15,15,15,15,15,15,15,15,
0,0,15,15,15,15,15,15,15,15,15,15,15,15,15,15,
0,0,15,15,15,15,15,15,15,15,15,15,15,15,15,15,
0,0,15,15,15,15,15,15,15,15,15,15,15,15,15,15
</chunk>
   <chunk x="1248" y="704" width="16" height="16">
15,15,15,15,15,15,15,15,35,35,35,35,35,35,35,35,
15,15,15,15,15,15,15,15,15,15,35,35,35,35,35,35,
15,15,15,15,15,15,15,15,15,15,15,15,35,35,35,35,
15,15,15,15,15,15,15,15,15,15,15,15,15,35,35,35,
15,15,15,15,15,15,15,15,15,15,15,15,15,15,15,35,
15,15,15,15,15,15,15,15,15,15,15,15,15,15,15,15,
15,15,15,15,15,15,15,15,15,15,15,15,15,15,15,15,
15,15,15,15,15,15,15,15,15,15,15,15,15,15,15,15,
15,15,15,15,15,15,15,15,15,15,15,15,15,15,15,15,
15,15,15,15,15,15,15,15,15,15,15,15,15,15,15,15,
15,15,15,15,15,15,15,15,15,15,15,15,15,15,15,15,
15,15,15,15,15,15,15,15,15,15,15,15,15,15,15,15,
15,15,15,15,15,15,15,15,15,15,15,15,15,15,15,15,
15,15,15,15,15,15,15,15,15,15,15,15,15,15,15,15,
15,15,15,15,15,15,15,15,15,15,15,15,15,15,15,15,
15,15,15,15,15,15,15,15,15,15,15,15,15,15,15,15
</chunk>
   <chunk x="1264" y="704" width="16" height="16">
35,35,35,35,35,35,35,35,35,35,35,35,35,35,35,35,
35,35,35,35,35,35,35,35,35,35,35,35,35,35,35,35,
35,35,35,35,35,35,35,35,35,35,35,35,35,35,35,35,
35,35,35,35,35,35,35,35,35,35,35,35,35,35,35,35,
35,35,35,35,35,35,35,35,35,35,35,35,35,35,35,35,
35,35,35,35,35,35,35,35,35,35,35,35,35,35,35,35,
15,15,35,35,35,35,35,35,35,35,35,35,35,35,35,35,
15,15,15,15,35,35,35,35,35,35,35,35,35,35,35,35,
15,15,15,15,15,15,35,35,35,35,35,35,35,35,35,35,
15,15,15,15,15,15,15,15,35,35,35,35,35,35,35,35,
15,15,15,15,15,15,15,15,15,15,15,35,35,35,35,35,
15,15,15,15,15,15,15,15,15,15,15,15,15,35,35,35,
15,15,15,15,15,15,15,15,15,15,15,15,15,15,15,35,
15,15,15,15,15,15,15,15,15,15,15,15,15,15,15,15,
15,15,15,15,15,15,15,15,15,15,15,15,15,15,15,15,
15,15,15,15,15,15,15,15,15,15,15,15,15,15,15,15
</chunk>
   <chunk x="1280" y="704" width="16" height="16">
35,35,35,35,15,15,15,15,15,15,15,15,15,15,15,15,
35,35,35,35,35,15,15,15,15,15,15,15,15,15,15,15,
35,35,35,35,35,35,15,15,15,15,15,15,15,15,15,15,
35,35,35,35,35,35,35,15,15,15,15,15,15,15,15,15,
35,35,35,35,35,35,35,35,15,15,15,15,15,15,15,15,
35,35,35,35,35,35,35,35,15,15,15,15,15,15,15,15,
35,35,35,35,35,35,35,35,35,35,15,15,15,15,15,15,
35,35,35,35,35,35,35,35,35,35,35,15,15,15,15,15,
35,35,35,35,35,35,35,35,35,35,35,35,15,15,15,15,
35,35,35,35,35,35,35,35,35,35,35,35,15,15,15,15,
35,35,35,35,35,35,35,35,35,35,35,35,35,15,15,15,
35,35,35,35,35,35,35,35,35,35,35,35,35,35,15,15,
35,35,35,35,35,35,35,35,35,35,35,35,35,35,35,15,
15,35,35,35,35,35,35,35,35,35,35,35,35,35,35,35,
15,15,15,35,35,35,35,35,35,35,35,35,35,35,35,35,
15,15,15,15,35,35,35,35,35,35,35,35,35,35,35,35
</chunk>
   <chunk x="1296" y="704" width="16" height="16">
15,15,15,15,15,15,15,15,15,15,15,15,15,15,15,15,
15,15,15,15,15,15,15,15,15,15,15,15,15,15,15,15,
15,15,15,15,15,15,15,15,15,15,15,15,15,15,15,15,
15,15,15,15,15,15,15,15,15,15,15,15,15,15,15,15,
15,15,15,15,15,15,15,15,15,15,15,15,15,15,15,15,
15,15,15,15,15,15,15,15,15,15,15,15,15,15,15,15,
15,15,15,15,15,15,15,15,15,15,15,15,15,15,15,15,
15,15,15,15,15,15,15,15,15,15,15,15,15,15,15,15,
15,15,15,15,15,15,15,15,15,15,15,15,15,15,15,15,
15,15,15,15,15,15,15,15,15,15,15,15,15,15,15,15,
15,15,15,15,15,15,15,15,15,15,15,15,15,15,15,15,
15,15,15,15,15,15,15,15,15,15,15,15,15,15,15,35,
15,15,15,15,15,15,15,15,15,15,15,15,15,15,15,15,
15,15,15,15,15,15,15,15,15,15,15,15,15,15,15,15,
35,15,15,15,15,15,15,15,15,15,15,15,15,15,15,15,
35,35,15,15,15,15,15,15,15,15,15,15,15,15,15,15
</chunk>
   <chunk x="1312" y="704" width="16" height="16">
15,15,35,35,35,35,35,35,35,35,35,35,15,15,15,15,
15,15,35,35,35,35,35,35,35,35,35,35,15,15,15,15,
15,15,35,35,35,35,35,35,35,35,35,35,15,15,15,15,
15,15,35,35,35,35,35,35,35,35,35,15,15,15,15,15,
15,15,35,35,35,35,35,35,35,35,35,15,15,15,15,15,
15,15,35,35,35,35,35,35,35,35,35,15,15,15,15,15,
15,35,35,35,35,35,35,35,35,35,35,15,15,15,15,15,
15,35,35,35,35,35,35,35,35,35,15,15,15,15,15,15,
35,35,35,35,35,35,35,35,35,35,35,15,15,15,15,15,
35,35,35,35,35,35,35,35,35,35,15,15,15,15,15,15,
35,35,35,35,35,35,35,35,35,35,15,15,15,15,15,15,
35,35,35,35,35,35,35,35,35,15,15,15,15,15,15,15,
35,35,35,35,35,35,35,35,35,15,15,15,15,15,15,15,
35,35,35,35,35,35,35,35,35,15,15,15,15,15,15,5,
35,35,35,35,35,35,35,35,35,15,15,15,15,15,15,5,
35,35,35,35,35,35,35,35,35,15,15,15,15,15,15,5
</chunk>
   <chunk x="1328" y="704" width="16" height="16">
15,15,15,5,5,5,5,5,5,5,5,5,5,5,5,5,
15,15,15,5,5,5,5,5,5,5,5,5,5,5,5,5,
15,15,5,5,5,5,5,5,5,5,5,5,5,5,5,5,
15,15,5,5,5,5,5,5,5,5,5,5,5,5,5,5,
15,15,5,5,5,5,5,5,5,5,5,5,5,5,5,5,
15,15,5,5,5,5,5,5,5,5,5,5,5,5,5,5,
15,5,5,5,5,5,5,5,5,5,5,5,5,5,5,5,
15,5,5,5,5,5,5,5,5,5,5,5,5,5,5,5,
15,5,5,5,5,5,5,5,5,5,5,5,5,5,5,5,
5,5,5,5,5,5,5,5,5,5,5,5,5,5,5,5,
5,5,5,5,5,5,5,5,5,5,5,5,5,5,5,5,
5,5,5,5,5,5,5,5,5,5,5,5,5,5,5,5,
5,5,5,5,5,5,5,5,5,5,5,5,5,5,5,5,
5,5,5,5,5,5,5,5,5,5,5,5,5,5,5,5,
5,5,5,5,5,5,5,5,5,5,5,5,5,5,5,5,
5,5,5,5,5,5,5,5,5,5,5,5,5,5,5,5
</chunk>
   <chunk x="1344" y="704" width="16" height="16">
5,5,5,5,5,5,5,5,5,5,5,5,5,35,35,35,
5,5,5,5,5,5,5,5,5,5,5,35,5,35,35,35,
5,5,5,5,5,5,5,5,5,5,5,35,5,5,35,35,
5,5,5,5,5,5,5,5,5,5,5,5,5,35,35,35,
5,5,5,5,5,5,5,5,5,5,5,5,35,5,35,35,
5,5,5,5,5,5,5,5,5,5,5,5,35,5,35,35,
5,5,5,5,5,5,5,5,5,5,5,5,35,5,35,35,
5,5,5,5,5,5,5,5,5,5,5,5,5,5,35,35,
5,5,5,5,5,5,5,5,5,5,5,5,5,5,35,35,
5,5,5,5,5,5,5,5,5,5,5,5,5,35,5,35,
5,5,5,5,5,5,5,5,5,5,5,5,5,5,35,35,
5,5,5,5,5,5,5,5,5,5,5,5,5,5,35,35,
5,5,5,5,5,5,5,5,5,5,5,5,5,5,15,35,
5,5,5,5,5,5,5,5,5,5,5,5,5,5,15,35,
5,5,5,5,5,5,5,5,5,5,5,5,5,5,15,35,
5,5,5,5,5,5,5,5,5,5,5,5,5,5,15,15
</chunk>
   <chunk x="1360" y="704" width="16" height="16">
35,35,35,35,35,35,35,35,35,35,35,35,35,15,15,15,
35,35,35,35,35,35,35,35,35,35,35,35,35,15,15,15,
35,35,35,35,35,35,35,35,35,35,35,35,15,15,15,15,
35,35,35,35,35,35,35,35,35,35,35,15,15,15,15,15,
35,35,35,35,35,35,35,35,35,35,15,15,15,15,15,15,
35,35,35,35,35,35,35,35,35,15,15,15,15,15,15,15,
35,35,35,35,35,35,35,35,35,15,15,15,15,15,15,15,
35,35,35,35,35,35,35,35,35,15,15,15,15,15,15,15,
35,35,35,35,35,35,35,35,35,15,15,15,15,15,15,15,
35,35,35,35,35,35,35,35,35,15,15,15,15,15,15,15,
35,35,35,35,35,35,35,35,35,15,15,15,15,15,15,15,
35,35,35,35,35,35,35,35,35,15,15,15,15,15,15,15,
35,35,35,35,35,35,35,35,35,15,15,15,15,15,15,15,
35,35,35,35,35,35,35,35,35,15,15,15,15,15,15,15,
35,35,35,35,35,35,35,35,35,35,15,15,15,15,15,15,
35,35,35,35,35,35,35,35,35,35,15,15,15,15,15,15
</chunk>
   <chunk x="1376" y="704" width="16" height="16">
15,15,15,15,15,15,15,15,15,15,15,15,15,15,15,15,
15,15,15,15,15,15,15,15,15,15,15,15,15,15,15,15,
15,15,15,15,15,15,15,15,15,15,15,15,15,15,15,15,
15,15,15,15,15,15,15,15,15,15,15,15,15,15,15,15,
15,15,15,15,15,15,15,15,15,15,15,15,15,15,15,15,
15,15,15,15,15,15,15,15,15,15,15,15,15,15,15,15,
15,15,15,15,15,15,15,15,15,15,15,15,15,15,15,15,
15,15,15,15,15,15,15,15,15,15,15,15,15,15,15,15,
15,15,15,15,15,15,15,15,15,15,15,15,15,15,15,15,
15,15,15,15,15,15,15,15,15,15,15,15,15,15,15,15,
15,15,15,15,15,15,15,15,15,15,15,15,15,15,15,15,
15,15,15,15,15,15,15,15,15,15,15,15,15,15,15,15,
15,15,15,15,15,15,15,15,15,15,15,15,15,15,15,15,
15,15,15,15,15,15,15,15,15,15,15,15,15,15,15,15,
15,15,15,15,15,15,15,15,15,15,15,15,15,15,15,15,
15,15,15,15,15,15,15,15,15,15,15,15,15,15,15,15
</chunk>
   <chunk x="1392" y="704" width="16" height="16">
15,15,15,15,15,15,15,15,15,15,15,15,15,15,15,15,
15,15,15,15,15,15,15,15,15,15,15,15,15,15,15,15,
15,15,15,15,15,15,15,15,15,15,15,15,15,15,15,15,
15,15,15,15,15,15,15,15,15,15,15,15,15,15,15,15,
15,15,15,15,15,15,15,15,15,15,15,15,15,15,15,15,
15,15,15,15,15,15,15,15,15,15,15,15,15,15,15,15,
15,15,15,15,15,15,15,15,15,15,15,15,15,15,15,15,
15,15,15,15,15,15,15,15,15,15,15,15,15,15,15,15,
15,15,15,15,15,15,15,15,15,15,15,15,15,15,15,15,
15,15,15,15,15,15,15,15,15,15,15,15,15,15,15,15,
15,15,15,15,15,15,15,15,15,15,15,15,15,15,15,15,
15,15,15,15,15,15,15,15,15,15,15,15,15,15,15,15,
15,15,15,15,15,15,15,15,15,15,15,15,15,15,15,15,
15,15,15,15,15,15,15,15,15,15,15,15,15,15,15,15,
15,15,15,15,15,15,15,15,15,15,15,15,15,15,15,15,
15,15,15,15,15,15,15,15,15,15,15,15,15,15,15,15
</chunk>
   <chunk x="1408" y="704" width="16" height="16">
15,15,15,15,15,15,15,15,15,15,35,35,35,35,35,35,
15,15,15,15,15,15,15,15,15,15,35,35,35,35,35,35,
15,15,15,15,15,15,15,15,15,15,35,35,35,35,35,35,
15,15,15,15,15,15,15,15,15,35,35,35,35,35,35,35,
15,15,15,15,15,15,15,15,15,35,35,35,35,35,35,35,
15,15,15,15,15,15,15,15,35,35,35,35,35,35,35,35,
15,15,15,15,15,15,15,15,35,35,35,35,35,35,35,35,
15,15,15,15,15,15,15,15,35,35,35,35,35,35,35,35,
15,15,15,15,15,15,15,15,35,35,35,35,35,35,35,35,
15,15,15,15,15,15,15,15,35,35,35,35,35,35,35,35,
15,15,15,15,15,15,15,15,35,35,35,35,35,35,35,35,
15,15,15,15,15,15,15,35,35,35,35,35,35,35,35,35,
15,15,15,15,15,15,15,35,35,35,35,35,35,35,35,35,
15,15,15,15,15,15,35,35,35,35,35,35,35,35,35,35,
15,15,15,15,15,15,35,35,35,35,35,35,35,35,35,35,
15,15,15,15,15,15,35,35,35,35,35,35,35,35,35,35
</chunk>
   <chunk x="1424" y="704" width="16" height="16">
35,35,35,35,35,35,35,35,35,35,35,35,35,35,35,35,
35,35,35,35,35,35,35,35,35,35,35,35,35,35,35,35,
35,35,35,35,35,35,35,35,35,35,35,35,35,35,35,35,
35,35,35,35,35,35,35,35,35,35,35,35,35,35,35,35,
35,35,35,35,35,35,35,35,35,35,35,35,35,35,35,35,
35,35,35,35,35,35,35,35,35,35,35,35,35,35,35,35,
35,35,35,35,35,35,35,35,35,35,35,35,35,35,35,35,
35,35,35,35,35,35,35,35,35,35,35,35,35,35,35,35,
35,35,35,35,35,35,35,35,35,35,35,35,35,35,35,35,
35,35,35,35,35,35,35,35,35,35,35,35,35,35,35,35,
35,35,35,35,35,35,35,35,35,35,35,35,35,35,35,35,
35,35,35,35,35,35,35,35,35,35,35,35,35,35,35,35,
35,35,35,35,35,35,35,35,35,35,35,35,35,35,35,15,
35,35,35,35,35,35,35,35,35,35,35,35,35,35,15,15,
35,35,35,35,35,35,35,35,35,35,35,35,35,35,15,15,
35,35,35,35,35,35,35,35,35,35,35,35,15,15,15,15
</chunk>
   <chunk x="1440" y="704" width="16" height="16">
35,35,35,35,35,35,35,35,35,35,35,35,35,35,35,15,
35,35,35,35,35,35,35,35,35,35,35,35,35,35,15,15,
35,35,35,35,35,35,35,35,35,35,35,35,35,35,15,15,
35,35,35,35,35,35,35,35,35,35,35,35,15,15,15,15,
35,35,35,35,35,35,35,35,35,35,35,15,15,15,15,15,
35,35,35,35,35,35,35,35,35,35,15,15,15,15,15,15,
35,35,35,35,35,35,35,15,15,15,15,15,15,15,15,15,
35,35,35,35,35,35,15,15,15,15,15,15,15,15,15,15,
35,35,35,35,15,15,15,15,15,15,15,15,15,15,15,15,
35,35,35,15,15,15,15,15,15,15,15,15,15,15,15,15,
35,35,35,15,15,15,15,15,15,15,15,15,15,15,15,15,
15,15,15,15,15,15,15,15,15,15,15,15,15,15,15,15,
15,15,15,15,15,15,15,15,15,15,15,15,15,15,15,15,
15,15,15,15,15,15,15,15,15,15,15,15,15,15,15,15,
15,15,15,15,15,15,15,15,15,15,15,15,15,15,15,15,
15,15,15,15,15,15,15,15,15,15,15,15,15,15,15,15
</chunk>
   <chunk x="1456" y="704" width="16" height="16">
15,15,15,15,15,15,15,15,15,15,15,15,15,15,15,15,
15,15,15,15,15,15,15,15,15,15,15,15,15,15,15,15,
15,15,15,15,15,15,15,15,15,15,15,15,15,15,15,15,
15,15,15,15,15,15,15,15,15,15,15,15,15,15,15,15,
15,15,15,15,15,15,15,15,15,15,15,15,15,15,15,15,
15,15,15,15,15,15,15,15,15,15,15,15,15,15,15,15,
15,15,15,15,15,15,15,15,15,15,15,15,15,15,15,15,
15,15,15,15,15,15,15,15,15,15,15,15,15,15,15,15,
15,15,15,15,15,15,15,15,15,15,15,15,15,15,15,15,
15,15,15,15,15,15,15,15,15,15,15,15,15,15,15,15,
15,15,15,15,15,15,15,15,15,15,15,15,15,15,15,15,
15,15,15,15,15,15,15,15,15,15,15,15,15,15,15,15,
15,15,15,15,15,15,15,15,15,15,15,15,15,15,15,15,
15,15,15,15,15,15,15,15,15,15,15,15,15,15,15,15,
15,15,15,15,15,15,15,15,15,15,15,15,15,15,15,15,
15,15,15,15,15,15,15,15,15,15,15,15,15,15,15,15
</chunk>
   <chunk x="1472" y="704" width="16" height="16">
15,15,15,15,15,15,15,15,15,15,15,15,15,15,15,15,
15,15,15,15,15,15,15,15,15,15,15,15,15,15,15,15,
15,15,15,15,15,15,15,15,15,15,15,15,15,15,15,15,
15,15,15,15,15,15,15,15,15,15,15,15,15,15,15,15,
15,15,15,15,15,15,15,15,15,15,15,15,15,15,15,15,
15,15,15,15,15,15,15,15,15,15,15,15,15,15,15,15,
15,15,15,15,15,15,15,15,15,15,15,15,15,15,15,15,
15,15,15,15,15,15,15,15,15,15,15,15,15,15,15,15,
15,15,15,15,15,15,15,15,15,15,15,15,15,15,15,15,
15,15,15,15,15,15,15,15,15,15,15,15,15,15,15,15,
15,15,15,15,15,15,15,15,15,15,15,15,15,15,15,15,
15,15,15,15,15,15,15,15,15,15,15,15,15,15,15,15,
15,15,15,15,15,15,15,15,15,15,15,15,15,15,15,15,
15,15,15,15,15,15,15,15,15,15,15,15,15,15,15,15,
15,15,15,15,15,15,15,15,15,15,15,15,15,15,15,15,
15,15,15,15,15,15,15,15,15,15,15,15,15,15,15,15
</chunk>
   <chunk x="1488" y="704" width="16" height="16">
15,15,15,15,15,15,15,15,15,15,15,15,15,15,15,15,
15,15,15,15,15,15,15,15,15,15,15,15,15,15,15,15,
15,15,15,15,15,15,15,15,15,15,15,15,15,15,15,15,
15,15,15,15,15,15,15,15,15,15,15,15,15,15,15,15,
15,15,15,15,15,15,15,15,15,15,15,15,15,15,15,15,
15,15,15,15,15,15,15,15,15,15,15,15,15,15,15,15,
15,15,15,15,15,15,15,15,15,15,15,15,15,15,15,15,
15,15,15,15,15,15,15,15,15,15,15,15,15,15,15,15,
15,15,15,15,15,15,15,15,15,15,15,15,15,15,15,15,
15,15,15,15,15,15,15,15,15,15,15,15,15,15,15,15,
15,15,15,15,15,15,15,15,15,15,15,15,15,15,15,15,
15,15,15,15,15,15,15,15,15,15,15,15,15,15,15,15,
15,15,15,15,15,15,15,15,15,15,15,15,15,15,15,15,
15,15,15,15,15,15,15,15,15,15,15,15,15,15,15,15,
15,15,15,15,15,15,15,15,15,15,15,15,15,15,15,15,
15,15,15,15,15,15,15,15,15,15,15,15,15,15,15,15
</chunk>
   <chunk x="1504" y="704" width="16" height="16">
15,15,15,15,15,15,15,15,15,15,15,15,15,15,15,15,
15,15,15,15,15,15,15,15,15,15,15,15,15,15,15,15,
15,15,15,15,15,15,15,15,15,15,15,15,15,15,15,15,
15,15,15,15,15,15,15,15,15,15,15,15,15,15,15,15,
15,15,15,15,15,15,15,15,15,15,15,15,15,15,15,15,
15,15,15,15,15,15,15,15,15,15,15,15,15,15,15,15,
15,15,15,15,15,15,15,15,15,15,15,15,15,15,15,15,
15,15,15,15,15,15,15,15,15,15,15,15,15,15,15,15,
15,15,15,15,15,15,15,15,15,15,15,15,15,15,15,15,
15,15,15,15,15,15,15,15,15,15,15,15,15,15,15,15,
15,15,15,15,15,15,15,15,15,15,15,15,15,15,15,15,
15,15,15,15,15,15,15,15,15,15,15,15,15,15,15,15,
15,15,15,15,15,15,15,15,15,15,15,15,15,15,15,15,
15,15,15,15,15,15,15,15,15,15,15,15,15,15,15,15,
15,15,15,15,15,15,15,15,15,15,15,15,15,15,15,15,
15,15,15,15,15,15,15,15,15,15,15,15,15,15,15,15
</chunk>
   <chunk x="1520" y="704" width="16" height="16">
15,15,15,15,15,15,15,15,15,15,15,15,15,15,15,15,
15,15,15,15,15,15,15,15,15,15,15,15,15,15,15,15,
15,15,15,15,15,15,15,15,15,15,15,15,15,15,15,15,
15,15,15,15,15,15,15,15,15,15,15,15,15,15,15,15,
15,15,15,15,15,15,15,15,15,15,15,15,15,15,15,15,
15,15,15,15,15,15,15,15,15,15,15,15,15,15,15,15,
15,15,15,15,15,15,15,15,15,15,15,15,15,15,15,15,
15,15,15,15,15,15,15,15,15,15,15,15,15,15,15,15,
15,15,15,15,15,15,15,15,15,15,15,15,15,15,15,15,
15,15,15,15,15,15,15,15,15,15,15,15,15,15,15,15,
15,15,15,15,15,15,15,15,15,15,15,15,15,15,15,15,
15,15,15,15,15,15,15,15,15,15,15,15,15,15,15,15,
15,15,15,15,15,15,15,15,15,15,15,15,15,15,15,15,
15,15,15,15,15,15,15,15,15,15,15,15,15,15,15,15,
15,15,15,15,15,15,15,15,15,15,15,15,15,15,15,15,
15,15,15,15,15,15,15,15,15,15,15,15,15,15,15,15
</chunk>
   <chunk x="1536" y="704" width="16" height="16">
15,15,15,15,15,15,15,15,15,15,15,15,15,15,15,15,
15,15,15,15,15,15,15,15,15,15,15,15,15,15,15,15,
15,15,15,15,15,15,15,15,15,15,15,15,15,15,15,15,
15,15,15,15,15,15,15,15,15,15,15,15,15,15,15,15,
15,15,15,15,15,15,15,15,15,15,15,15,15,15,15,15,
15,15,15,15,15,15,15,15,15,15,15,15,15,15,15,15,
15,15,15,15,15,15,15,15,15,15,15,15,15,15,15,15,
15,15,15,15,15,15,15,15,15,15,15,15,15,15,15,15,
15,15,15,15,15,15,15,15,15,15,15,15,15,15,15,15,
15,15,15,15,15,15,15,15,15,15,15,15,15,15,15,15,
15,15,15,15,15,15,15,15,15,15,15,15,15,15,15,15,
15,15,15,15,15,15,15,15,15,15,15,15,15,15,15,15,
15,15,15,15,15,15,15,15,15,15,15,15,15,15,15,15,
15,15,15,15,15,15,15,15,15,15,15,15,15,15,15,15,
15,15,15,15,15,15,15,15,15,15,15,15,15,15,15,15,
15,15,15,15,15,15,15,15,15,15,15,15,15,15,15,15
</chunk>
   <chunk x="1552" y="704" width="16" height="16">
15,15,15,15,15,15,15,15,15,15,15,0,0,0,0,0,
15,15,15,15,15,15,15,15,15,15,15,0,0,0,0,0,
15,15,15,15,15,15,15,15,15,15,15,0,0,0,0,0,
15,15,15,15,15,15,15,15,15,15,15,0,0,0,0,0,
15,15,15,15,15,15,15,15,15,15,15,0,0,0,0,0,
15,15,15,15,15,15,15,15,15,15,15,0,0,0,0,0,
15,15,15,15,15,15,15,15,15,15,15,0,0,0,0,0,
15,15,15,15,15,15,15,15,15,15,15,0,0,0,0,0,
15,15,15,15,15,15,15,15,15,15,15,0,0,0,0,0,
15,15,15,15,15,15,15,15,15,15,15,0,0,0,0,0,
15,15,15,15,15,15,15,15,15,15,15,0,0,0,0,0,
15,15,15,15,15,15,15,15,15,15,15,0,0,0,0,0,
15,15,15,15,15,15,15,15,15,15,15,0,0,0,0,0,
15,15,15,15,15,15,15,15,15,15,15,0,0,0,0,0,
15,15,15,15,15,15,15,15,15,15,15,0,0,0,0,0,
15,15,15,15,15,15,15,15,15,15,15,0,0,0,0,0
</chunk>
   <chunk x="1232" y="720" width="16" height="16">
0,0,15,15,15,15,15,15,15,15,15,15,15,15,15,15,
0,0,15,15,15,15,15,15,15,15,15,15,15,15,15,15,
0,0,15,15,15,15,15,15,15,15,15,15,15,15,15,15,
0,0,15,15,15,15,15,15,15,15,15,15,15,15,15,15,
0,0,15,15,15,15,15,15,15,15,15,15,15,15,15,15,
0,0,15,15,15,15,15,15,15,15,15,15,15,15,15,15,
0,0,15,15,15,15,15,15,15,15,15,15,15,15,15,15,
0,0,15,15,15,15,15,15,15,15,15,15,15,15,15,15,
0,0,15,15,15,15,15,15,15,15,15,15,15,15,15,15,
0,0,15,15,15,15,15,15,15,15,15,15,15,15,15,15,
0,0,15,15,15,15,15,15,15,15,15,15,15,15,15,15,
0,0,15,15,15,15,15,15,15,15,15,15,15,15,15,15,
0,0,15,15,15,15,15,15,15,15,15,15,15,15,15,15,
0,0,15,15,15,15,15,15,15,15,15,15,15,15,15,15,
0,0,15,15,15,15,15,15,15,15,15,15,15,15,15,15,
0,0,15,15,15,15,15,15,15,15,15,15,15,15,15,15
</chunk>
   <chunk x="1248" y="720" width="16" height="16">
15,15,15,15,15,15,15,15,15,15,15,15,15,15,15,15,
15,15,15,15,15,15,15,15,15,15,15,15,15,15,15,15,
15,15,15,15,15,15,15,15,15,15,15,15,15,15,15,15,
15,15,15,15,15,15,15,15,15,15,15,15,15,15,15,15,
15,15,15,15,15,15,15,15,15,15,15,15,15,15,15,15,
15,15,15,15,15,15,15,15,15,15,15,15,15,15,15,15,
15,15,15,15,15,15,15,15,15,15,15,15,15,15,15,15,
15,15,15,15,15,15,15,15,15,15,15,15,15,15,15,15,
15,15,15,15,15,15,15,15,15,15,15,15,15,15,15,15,
15,15,15,15,15,15,15,15,15,15,15,15,15,15,15,15,
15,15,15,15,15,15,15,15,15,15,15,15,15,15,15,15,
15,15,15,15,15,15,15,15,15,15,15,15,15,15,15,15,
15,15,15,15,15,15,15,15,15,15,15,15,15,15,15,15,
15,15,15,15,15,15,15,15,15,15,15,15,15,15,15,15,
15,15,15,15,15,15,15,15,15,15,15,15,15,15,15,15,
15,15,15,15,15,15,15,15,15,15,15,15,15,15,15,15
</chunk>
   <chunk x="1264" y="720" width="16" height="16">
15,15,15,15,15,15,15,15,15,15,15,15,15,15,15,15,
15,15,15,15,15,15,15,15,15,15,15,15,15,15,15,15,
15,15,15,15,15,15,15,15,15,15,15,15,15,15,15,15,
15,15,15,15,15,15,15,15,15,15,15,15,15,15,15,15,
15,15,15,15,15,15,15,15,15,15,15,15,15,15,15,15,
15,15,15,15,15,15,15,15,15,15,15,15,15,15,15,15,
15,15,15,15,15,15,15,15,15,15,15,15,15,15,15,15,
15,15,15,15,15,15,15,15,15,15,15,15,15,15,15,15,
15,15,15,15,15,15,15,15,15,15,15,15,15,15,15,15,
15,15,15,15,15,15,15,15,15,15,15,15,15,15,15,15,
15,15,15,15,15,15,15,15,15,15,15,15,15,15,15,15,
15,15,15,15,15,15,15,15,15,15,15,15,15,15,15,15,
15,15,15,15,15,15,15,15,15,15,15,15,15,15,15,15,
15,15,15,15,15,15,15,15,15,15,15,15,15,15,15,15,
15,15,15,15,15,15,15,15,15,15,15,15,15,15,15,15,
15,15,15,15,15,15,15,15,15,15,15,15,15,15,15,15
</chunk>
   <chunk x="1280" y="720" width="16" height="16">
15,15,15,15,15,35,35,35,35,35,35,35,35,35,35,35,
15,15,15,15,15,15,35,35,35,35,35,35,35,35,35,35,
15,15,15,15,15,15,15,35,35,35,35,35,35,35,35,35,
15,15,15,15,15,15,15,15,35,35,35,35,35,35,35,35,
15,15,15,15,15,15,15,15,15,35,35,35,35,35,35,35,
15,15,15,15,15,15,15,15,15,15,35,35,35,35,35,35,
15,15,15,15,15,15,15,15,15,15,15,35,35,35,35,35,
15,15,15,15,15,15,15,15,15,15,15,15,35,35,35,35,
15,15,15,15,15,15,15,15,15,15,15,15,15,35,35,35,
15,15,15,15,15,15,15,15,15,15,15,15,15,15,35,35,
15,15,15,15,15,15,15,15,15,15,15,15,15,15,15,35,
15,15,15,15,15,15,15,15,15,15,15,15,15,15,15,15,
15,15,15,15,15,15,15,15,15,15,15,15,15,15,15,15,
15,15,15,15,15,15,15,15,15,15,15,15,15,15,15,15,
15,15,15,15,15,15,15,15,15,15,15,15,15,15,15,15,
15,15,15,15,15,15,15,15,15,15,15,15,15,15,15,15
</chunk>
   <chunk x="1296" y="720" width="16" height="16">
35,35,15,15,15,15,15,15,15,15,15,15,15,15,15,15,
35,35,35,35,15,15,15,15,15,15,15,15,15,15,15,15,
35,35,35,35,35,15,15,15,15,15,15,15,15,15,15,15,
35,35,35,35,35,15,15,15,15,15,15,15,15,15,15,15,
35,35,35,35,35,35,15,15,15,15,15,15,15,15,15,15,
35,35,35,35,35,35,35,15,15,15,15,15,15,15,15,15,
35,35,35,35,35,35,35,35,15,15,15,15,15,15,15,15,
35,35,35,35,35,35,35,35,15,15,15,15,15,15,15,15,
35,35,35,35,35,35,35,35,35,15,15,15,15,15,15,15,
35,35,35,35,35,35,35,35,35,35,15,15,15,15,15,15,
35,35,35,35,35,35,35,35,35,35,35,15,15,15,15,15,
35,35,35,35,35,35,35,35,35,35,35,15,15,15,15,15,
35,35,35,35,35,35,35,35,35,35,35,35,15,15,15,15,
15,35,35,35,35,35,35,35,35,35,35,35,15,15,15,15,
15,15,35,35,35,35,35,35,35,35,35,35,35,15,15,15,
15,15,15,35,35,35,35,35,35,35,35,35,35,35,35,35
</chunk>
   <chunk x="1312" y="720" width="16" height="16">
35,35,35,35,35,35,35,35,35,15,15,15,15,15,15,5,
15,35,35,35,35,35,35,35,35,15,15,15,15,15,15,5,
15,35,35,35,35,35,35,35,35,35,15,15,15,15,15,5,
15,15,35,35,35,35,35,35,35,35,15,15,15,15,15,15,
15,15,35,35,35,35,35,35,35,35,15,15,15,15,15,15,
15,15,15,35,35,35,35,35,35,35,15,15,15,15,15,15,
15,15,15,15,35,35,35,35,35,35,15,15,15,15,15,15,
15,15,15,15,35,35,35,35,35,35,35,15,15,15,15,15,
15,15,15,15,15,35,35,35,35,35,35,15,15,15,15,15,
15,15,15,15,15,35,35,35,35,35,35,35,15,15,15,15,
15,15,15,15,15,15,35,35,35,35,35,35,15,15,15,15,
15,15,15,15,15,15,15,35,35,35,35,35,15,15,15,15,
15,15,15,15,15,15,15,35,35,35,35,35,35,15,15,15,
15,15,15,15,15,15,15,15,35,35,35,35,35,15,15,15,
15,15,15,15,15,15,15,15,15,35,35,35,35,35,15,15,
35,15,15,15,15,15,15,15,15,35,35,35,35,35,15,15
</chunk>
   <chunk x="1328" y="720" width="16" height="16">
5,5,5,5,5,5,5,5,5,5,5,5,5,5,5,5,
5,5,5,5,5,5,5,5,5,5,5,5,5,5,5,5,
5,5,5,5,5,5,5,5,5,5,5,5,5,5,5,5,
5,5,5,5,5,5,5,5,5,5,5,5,5,5,5,5,
5,5,5,5,5,5,5,5,5,5,5,5,5,5,5,5,
5,5,5,5,5,5,5,5,5,5,5,5,5,5,5,5,
5,5,5,5,5,5,5,5,5,5,5,5,5,5,5,5,
5,5,5,5,5,5,5,5,5,5,5,5,5,5,5,5,
5,5,5,5,5,5,5,5,5,5,5,5,5,5,5,5,
15,5,5,5,5,5,5,5,5,5,5,5,5,5,5,5,
15,5,5,5,5,5,5,5,5,5,5,5,5,5,5,5,
5,5,5,5,5,5,5,5,5,5,5,5,5,5,5,5,
5,5,5,5,5,5,5,5,5,5,5,5,5,5,5,5,
5,5,5,5,5,5,5,5,5,5,5,5,5,5,5,5,
5,5,5,5,5,5,5,5,5,5,5,5,5,5,5,5,
5,5,5,5,5,5,5,5,5,5,5,5,5,5,5,5
</chunk>
   <chunk x="1344" y="720" width="16" height="16">
5,5,5,5,5,5,5,5,5,5,5,5,5,5,15,15,
5,5,5,5,5,5,5,5,5,5,5,5,5,5,15,15,
5,5,5,5,5,5,5,5,5,5,5,5,5,5,15,15,
5,5,5,5,5,5,5,5,5,5,5,5,5,5,15,15,
5,5,5,5,5,5,5,5,5,5,5,5,5,5,15,15,
5,5,5,5,5,5,5,5,5,5,5,5,5,5,15,15,
5,5,5,5,5,5,5,5,5,5,5,5,5,5,15,15,
5,5,5,5,5,5,5,5,5,5,5,5,5,5,35,35,
5,5,5,5,5,5,5,5,5,5,5,5,5,35,35,35,
5,5,5,5,5,5,5,5,5,5,5,5,5,35,35,35,
5,5,5,5,5,5,5,5,5,5,5,5,5,35,35,35,
5,5,5,5,5,5,5,5,5,5,5,5,5,35,35,35,
5,5,5,5,5,5,5,5,5,5,5,5,5,5,35,35,
5,5,5,5,5,5,5,5,5,5,5,5,5,35,35,35,
5,5,5,5,5,5,5,5,5,5,5,5,5,35,35,35,
5,5,5,5,5,5,5,5,5,5,5,5,5,35,35,35
</chunk>
   <chunk x="1360" y="720" width="16" height="16">
35,35,35,35,35,35,35,35,35,35,35,15,15,15,15,15,
15,35,35,35,35,35,35,35,35,35,35,15,15,15,15,15,
15,35,35,35,35,35,35,35,35,35,35,15,15,15,15,15,
15,15,35,35,35,35,35,35,35,35,35,35,15,15,15,15,
15,15,35,35,35,35,35,35,35,35,35,35,35,15,15,15,
15,15,15,35,35,35,35,35,35,35,35,35,35,35,35,35,
15,15,35,35,35,35,35,35,35,35,35,35,35,35,35,35,
35,35,35,35,35,35,35,35,35,35,35,35,35,35,35,35,
35,35,35,35,35,35,35,35,35,35,35,35,35,35,35,35,
35,35,35,35,35,35,35,35,35,35,35,35,35,35,35,35,
35,35,35,35,35,35,35,35,35,35,35,35,35,35,35,35,
35,35,35,35,35,35,35,35,35,35,35,35,35,35,35,35,
35,35,35,35,35,35,35,35,35,35,35,35,35,35,35,35,
35,35,35,35,35,35,35,35,35,35,35,35,35,35,35,35,
35,35,35,35,35,35,35,35,35,35,35,35,35,35,35,35,
35,35,35,35,35,35,35,35,35,35,35,35,35,35,35,35
</chunk>
   <chunk x="1376" y="720" width="16" height="16">
15,15,15,15,15,15,15,15,15,15,15,15,15,15,15,15,
15,15,15,15,15,15,15,15,15,15,15,15,15,15,15,15,
15,15,15,15,15,15,15,15,15,15,15,15,15,15,15,15,
15,15,15,15,15,15,15,15,15,15,15,15,15,15,15,15,
15,15,15,15,15,15,15,15,15,15,15,15,15,15,15,15,
35,35,35,35,35,15,15,15,15,15,15,15,15,15,15,15,
35,35,35,35,35,35,35,35,35,35,35,35,15,15,15,15,
35,35,35,35,35,35,35,35,35,35,35,35,35,35,35,15,
35,35,35,35,35,35,35,35,35,35,35,35,35,35,35,35,
35,35,35,35,35,35,35,35,35,35,35,35,35,35,35,35,
35,35,35,35,35,35,35,35,35,35,35,35,35,35,35,35,
35,35,35,35,35,35,35,35,35,35,35,35,35,35,35,35,
35,35,35,35,35,35,35,35,35,35,35,35,35,35,35,35,
35,35,35,35,35,35,35,35,35,35,35,35,35,35,35,35,
35,35,35,35,35,35,35,35,35,35,35,35,35,35,35,35,
35,35,35,35,35,35,35,35,35,35,35,35,35,35,35,35
</chunk>
   <chunk x="1392" y="720" width="16" height="16">
15,15,15,15,15,15,15,15,15,15,15,15,15,15,15,15,
15,15,15,15,15,15,15,15,15,15,15,15,15,15,15,15,
15,15,15,15,15,15,15,15,15,15,15,15,15,15,15,15,
15,15,15,15,15,15,15,15,15,15,15,15,15,15,15,15,
15,15,15,15,15,15,15,15,15,15,15,15,15,15,15,15,
15,15,15,15,15,15,15,15,15,15,15,15,15,15,15,15,
15,15,15,15,15,15,15,15,15,15,15,15,15,15,15,15,
15,15,15,15,15,15,15,15,15,15,15,15,15,15,15,15,
35,15,15,15,15,15,15,15,15,15,15,15,15,15,15,15,
35,35,35,15,15,15,15,15,15,15,15,15,15,15,15,15,
35,35,35,35,35,15,15,15,15,15,15,15,15,15,15,15,
35,35,35,35,35,35,35,15,15,15,15,15,15,15,15,15,
35,35,35,35,35,35,35,35,35,15,15,15,15,15,15,35,
35,35,35,35,35,35,35,35,35,35,35,15,15,15,15,35,
35,35,35,35,35,35,35,35,35,35,35,35,15,15,15,35,
35,35,35,35,35,35,35,35,35,35,35,35,35,35,35,35
</chunk>
   <chunk x="1408" y="720" width="16" height="16">
15,15,15,15,15,35,35,35,35,35,35,35,35,35,35,35,
15,15,15,15,15,35,35,35,35,35,35,35,35,35,35,35,
15,15,15,15,35,35,35,35,35,35,35,35,35,35,35,35,
15,15,15,35,35,35,35,35,35,35,35,35,35,35,35,35,
15,15,15,35,35,35,35,35,35,35,35,35,35,35,35,35,
15,15,15,35,35,35,35,35,35,35,35,35,35,35,35,35,
15,15,35,35,35,35,35,35,35,35,35,35,35,35,35,35,
15,15,35,35,35,35,35,35,35,35,35,35,35,35,35,35,
15,15,35,35,35,35,35,35,35,35,35,35,35,35,35,35,
15,35,35,35,35,35,35,35,35,35,35,35,35,35,35,35,
35,35,35,35,35,35,35,35,35,35,35,35,35,35,35,35,
35,35,35,35,35,35,35,35,35,35,35,35,35,35,35,35,
35,35,35,35,35,35,35,35,35,35,35,35,35,35,35,35,
35,35,35,35,35,35,35,35,35,35,35,35,35,35,35,35,
35,35,35,35,35,35,35,35,35,35,35,35,35,35,35,35,
35,35,35,35,35,35,35,35,35,35,35,35,35,35,35,35
</chunk>
   <chunk x="1424" y="720" width="16" height="16">
35,35,35,35,35,35,35,35,35,35,35,35,15,15,15,15,
35,35,35,35,35,35,35,35,35,35,35,15,15,15,15,15,
35,35,35,35,35,35,35,35,35,35,35,15,15,15,15,15,
35,35,35,35,35,35,35,35,35,15,15,15,15,15,15,15,
35,35,35,35,35,35,35,35,35,15,15,15,15,15,15,15,
35,35,35,35,35,35,35,35,15,15,15,15,15,15,15,15,
35,35,35,35,35,35,35,15,15,15,15,15,15,15,15,15,
35,35,35,35,35,35,35,15,15,15,15,15,15,15,15,15,
35,35,35,35,35,35,15,15,15,15,15,15,15,15,15,15,
35,35,35,35,35,15,15,15,15,15,15,15,15,15,15,15,
35,35,35,35,15,15,15,15,15,15,15,15,15,15,15,15,
35,35,35,35,15,15,15,15,15,15,15,15,15,15,15,15,
35,35,35,15,15,15,15,15,15,15,15,15,15,15,15,15,
35,35,35,15,15,15,15,15,15,15,15,15,15,15,15,15,
35,35,15,15,15,15,15,15,15,15,15,15,15,15,15,15,
15,15,15,15,15,15,15,15,15,15,15,15,15,15,15,15
</chunk>
   <chunk x="1440" y="720" width="16" height="16">
15,15,15,15,15,15,15,15,15,15,15,15,15,15,15,15,
15,15,15,15,15,15,15,15,15,15,15,15,15,15,15,15,
15,15,15,15,15,15,15,15,15,15,15,15,15,15,15,15,
15,15,15,15,15,15,15,15,15,15,15,15,15,15,15,15,
15,15,15,15,15,15,15,15,15,15,15,15,15,15,15,15,
15,15,15,15,15,15,15,15,15,15,15,15,15,15,15,15,
15,15,15,15,15,15,15,15,15,15,15,15,15,15,15,15,
15,15,15,15,15,15,15,15,15,15,15,15,15,15,15,15,
15,15,15,15,15,15,15,15,15,15,15,15,15,15,15,15,
15,15,15,15,15,15,15,15,15,15,15,15,15,15,15,15,
15,15,15,15,15,15,15,15,15,15,15,15,15,15,15,15,
15,15,15,15,15,15,15,15,15,15,15,15,15,15,15,15,
15,15,15,15,15,15,15,15,15,15,15,15,15,15,15,15,
15,15,15,15,15,15,15,15,15,15,15,15,15,15,15,15,
15,15,15,15,15,15,15,15,15,15,15,15,15,15,15,15,
15,15,15,15,15,15,15,15,15,15,15,15,15,15,15,15
</chunk>
   <chunk x="1456" y="720" width="16" height="16">
15,15,15,15,15,15,15,15,15,15,15,15,15,15,15,15,
15,15,15,15,15,15,15,15,15,15,15,15,15,15,15,15,
15,15,15,15,15,15,15,15,15,15,15,15,15,15,15,15,
15,15,15,15,15,15,15,15,15,15,15,15,15,15,15,15,
15,15,15,15,15,15,15,15,15,15,15,15,15,15,15,15,
15,15,15,15,15,15,15,15,15,15,15,15,15,15,15,15,
15,15,15,15,15,15,15,15,15,15,15,15,15,15,15,15,
15,15,15,15,15,15,15,15,15,15,15,15,15,15,15,15,
15,15,15,15,15,15,15,15,15,15,15,15,15,15,15,15,
15,15,15,15,15,15,15,15,15,15,15,15,15,15,15,15,
15,15,15,15,15,15,15,15,15,15,15,15,15,15,15,15,
15,15,15,15,15,15,15,15,15,15,15,15,15,15,15,15,
15,15,15,15,15,15,15,15,15,15,15,15,15,15,15,15,
15,15,15,15,15,15,15,15,15,15,15,15,15,15,15,15,
15,15,15,15,15,15,15,15,15,15,15,15,15,15,15,15,
15,15,15,15,15,15,15,15,15,15,15,15,15,15,15,15
</chunk>
   <chunk x="1472" y="720" width="16" height="16">
15,15,15,15,15,15,15,15,15,15,15,15,15,15,15,15,
15,15,15,15,15,15,15,15,15,15,15,15,15,15,15,15,
15,15,15,15,15,15,15,15,15,15,15,15,15,15,15,15,
15,15,15,15,15,15,15,15,15,15,15,15,15,15,15,15,
15,15,15,15,15,15,15,15,15,15,15,15,15,15,15,15,
15,15,15,15,15,15,15,15,15,15,15,15,15,15,15,15,
15,15,15,15,15,15,15,15,15,15,15,15,15,15,15,15,
15,15,15,15,15,15,15,15,15,15,15,15,15,15,15,15,
15,15,15,15,15,15,15,15,15,15,15,15,15,15,15,15,
15,15,15,15,15,15,15,15,15,15,15,15,15,15,15,15,
15,15,15,15,15,15,15,15,15,15,15,15,15,15,15,15,
15,15,15,15,15,15,15,15,15,15,15,15,15,15,15,15,
15,15,15,15,15,15,15,15,15,15,15,15,15,15,15,15,
15,15,15,15,15,15,15,15,15,15,15,15,15,15,15,15,
15,15,15,15,15,15,15,15,15,15,15,15,15,15,15,15,
15,15,15,15,15,15,15,15,15,15,15,15,15,15,15,15
</chunk>
   <chunk x="1488" y="720" width="16" height="16">
15,15,15,15,15,15,15,15,15,15,15,15,15,15,15,15,
15,15,15,15,15,15,15,15,15,15,15,15,15,15,15,15,
15,15,15,15,15,15,15,15,15,15,15,15,15,15,15,15,
15,15,15,15,15,15,15,15,15,15,15,15,15,15,15,15,
15,15,15,15,15,15,15,15,15,15,15,15,15,15,15,15,
15,15,15,15,15,15,15,15,15,15,15,15,15,15,15,15,
15,15,15,15,15,15,15,15,15,15,15,15,15,15,15,15,
15,15,15,15,15,15,15,15,15,15,15,15,15,15,15,15,
15,15,15,15,15,15,15,15,15,15,15,15,15,15,15,15,
15,15,15,15,15,15,15,15,15,15,15,15,15,15,15,15,
15,15,15,15,15,15,15,15,15,15,15,15,15,15,15,15,
15,15,15,15,15,15,15,15,15,15,15,15,15,15,15,15,
15,15,15,15,15,15,15,15,15,15,15,15,15,15,15,15,
15,15,15,15,15,15,15,15,15,15,15,15,15,15,15,15,
15,15,15,15,15,15,15,15,15,15,15,15,15,15,15,15,
15,15,15,15,15,15,15,15,15,15,15,15,15,15,15,15
</chunk>
   <chunk x="1504" y="720" width="16" height="16">
15,15,15,15,15,15,15,15,15,15,15,15,15,15,15,15,
15,15,15,15,15,15,15,15,15,15,15,15,15,15,15,15,
15,15,15,15,15,15,15,15,15,15,15,15,15,15,15,15,
15,15,15,15,15,15,15,15,15,15,15,15,15,15,15,15,
15,15,15,15,15,15,15,15,15,15,15,15,15,15,15,15,
15,15,15,15,15,15,15,15,15,15,15,15,15,15,15,15,
15,15,15,15,15,15,15,15,15,15,15,15,15,15,15,15,
15,15,15,15,15,15,15,15,15,15,15,15,15,15,15,15,
15,15,15,15,15,15,15,15,15,15,15,15,15,15,15,15,
15,15,15,15,15,15,15,15,15,15,15,15,15,15,15,15,
15,15,15,15,15,15,15,15,15,15,15,15,15,15,15,15,
15,15,15,15,15,15,15,15,15,15,15,15,15,15,15,15,
15,15,15,15,15,15,15,15,15,15,15,15,15,15,15,15,
15,15,15,15,15,15,15,15,15,15,15,15,15,15,15,15,
15,15,15,15,15,15,15,15,15,15,15,15,15,15,15,15,
15,15,15,15,15,15,15,15,15,15,15,15,15,15,15,15
</chunk>
   <chunk x="1520" y="720" width="16" height="16">
15,15,15,15,15,15,15,15,15,15,15,15,15,15,15,15,
15,15,15,15,15,15,15,15,15,15,15,15,15,15,15,15,
15,15,15,15,15,15,15,15,15,15,15,15,15,15,15,15,
15,15,15,15,15,15,15,15,15,15,15,15,15,15,15,15,
15,15,15,15,15,15,15,15,15,15,15,15,15,15,15,15,
15,15,15,15,15,15,15,15,15,15,15,15,15,15,15,15,
15,15,15,15,15,15,15,15,15,15,15,15,15,15,15,15,
15,15,15,15,15,15,15,15,15,15,15,15,15,15,15,15,
15,15,15,15,15,15,15,15,15,15,15,15,15,15,15,15,
15,15,15,15,15,15,15,15,15,15,15,15,15,15,15,15,
15,15,15,15,15,15,15,15,15,15,15,15,15,15,15,15,
15,15,15,15,15,15,15,15,15,15,15,15,15,15,15,15,
15,15,15,15,15,15,15,15,15,15,15,15,15,15,15,15,
15,15,15,15,15,15,15,15,15,15,15,15,15,15,15,15,
15,15,15,15,15,15,15,15,15,15,15,15,15,15,15,15,
15,15,15,15,15,15,15,15,15,15,15,15,15,15,15,15
</chunk>
   <chunk x="1536" y="720" width="16" height="16">
15,15,15,15,15,15,15,15,15,15,15,15,15,15,15,15,
15,15,15,15,15,15,15,15,15,15,15,15,15,15,15,15,
15,15,15,15,15,15,15,15,15,15,15,15,15,15,15,15,
15,15,15,15,15,15,15,15,15,15,15,15,15,15,15,15,
15,15,15,15,15,15,15,15,15,15,15,15,15,15,15,15,
15,15,15,15,15,15,15,15,15,15,15,15,15,15,15,15,
15,15,15,15,15,15,15,15,15,15,15,15,15,15,15,15,
15,15,15,15,15,15,15,15,15,15,15,15,15,15,15,15,
15,15,15,15,15,15,15,15,15,15,15,15,15,15,15,15,
15,15,15,15,15,15,15,15,15,15,15,15,15,15,15,15,
15,15,15,15,15,15,15,15,15,15,15,15,15,15,15,15,
15,15,15,15,15,15,15,15,15,15,15,15,15,15,15,15,
15,15,15,15,15,15,15,15,15,15,15,15,15,15,15,15,
15,15,15,15,15,15,15,15,15,15,15,15,15,15,15,15,
15,15,15,15,15,15,15,15,15,15,15,15,15,15,15,15,
15,15,15,15,15,15,15,15,15,15,15,15,15,15,15,15
</chunk>
   <chunk x="1552" y="720" width="16" height="16">
15,15,15,15,15,15,15,15,15,15,15,0,0,0,0,0,
15,15,15,15,15,15,15,15,15,15,15,0,0,0,0,0,
15,15,15,15,15,15,15,15,15,15,15,0,0,0,0,0,
15,15,15,15,15,15,15,15,15,15,15,0,0,0,0,0,
15,15,15,15,15,15,15,15,15,15,15,0,0,0,0,0,
15,15,15,15,15,15,15,15,15,15,15,0,0,0,0,0,
15,15,15,15,15,15,15,15,15,15,15,0,0,0,0,0,
15,15,15,15,15,15,15,15,15,15,15,0,0,0,0,0,
15,15,15,15,15,15,15,15,15,15,15,0,0,0,0,0,
15,15,15,15,15,15,15,15,15,15,15,0,0,0,0,0,
15,15,15,15,15,15,15,15,15,15,15,0,0,0,0,0,
15,15,15,15,15,15,15,15,15,15,15,0,0,0,0,0,
15,15,15,15,15,15,15,15,15,15,15,0,0,0,0,0,
15,15,15,15,15,15,15,15,15,15,15,0,0,0,0,0,
15,15,15,15,15,15,15,15,15,15,15,0,0,0,0,0,
15,15,15,15,15,15,15,15,15,15,15,0,0,0,0,0
</chunk>
   <chunk x="1232" y="736" width="16" height="16">
0,0,15,15,15,15,15,15,15,15,15,15,15,15,15,15,
0,0,15,15,15,15,15,15,15,15,15,15,15,15,15,15,
0,0,15,15,15,15,15,15,15,15,15,15,15,15,15,15,
0,0,15,15,15,15,15,15,15,15,15,15,15,15,15,15,
0,0,15,15,15,15,15,15,15,15,15,15,15,15,15,15,
0,0,15,15,15,15,15,15,15,15,15,15,15,15,15,15,
0,0,15,15,15,15,15,15,15,15,15,15,15,15,15,15,
0,0,15,15,15,15,15,15,15,15,15,15,15,15,15,15,
0,0,15,15,15,15,15,15,15,15,15,15,15,15,15,15,
0,0,15,15,15,15,15,15,15,15,15,15,15,15,15,15,
0,0,15,15,15,15,15,15,15,15,15,15,15,15,15,15,
0,0,15,15,15,15,15,15,15,15,15,15,15,15,15,15,
0,0,15,15,15,15,15,15,15,15,15,15,15,15,15,15,
0,0,15,15,15,15,15,15,15,15,15,15,15,15,15,15,
0,0,15,15,15,15,15,15,15,15,15,15,15,15,15,15,
0,0,15,15,15,15,15,15,15,15,15,15,15,15,15,15
</chunk>
   <chunk x="1248" y="736" width="16" height="16">
15,15,15,15,15,15,15,15,15,15,15,15,15,15,15,15,
15,15,15,15,15,15,15,15,15,15,15,15,15,15,15,15,
15,15,15,15,15,15,15,15,15,15,15,15,15,15,15,15,
15,15,15,15,15,15,15,15,15,15,15,15,15,15,15,15,
15,15,15,15,15,15,15,15,15,15,15,15,15,15,15,15,
15,15,15,15,15,15,15,15,15,15,15,15,15,15,15,15,
15,15,15,15,15,15,15,15,15,15,15,15,15,15,15,15,
15,15,15,15,15,15,15,15,15,15,15,15,15,15,15,15,
15,15,15,15,15,15,15,15,15,15,15,15,15,15,15,15,
15,15,15,15,15,15,15,15,15,15,15,15,15,15,15,15,
15,15,15,15,15,15,15,15,15,15,15,15,15,15,15,15,
15,15,15,15,15,15,15,15,15,15,15,15,15,15,15,15,
15,15,15,15,15,15,15,15,15,15,15,15,15,15,15,15,
15,15,15,15,15,15,15,15,15,15,15,15,15,15,15,15,
15,15,15,15,15,15,15,15,15,15,15,15,15,15,15,15,
15,15,15,15,15,15,15,15,15,15,15,15,15,15,15,15
</chunk>
   <chunk x="1264" y="736" width="16" height="16">
15,15,15,15,15,15,15,15,15,15,15,15,15,15,15,15,
15,15,15,15,15,15,15,15,15,15,15,15,15,15,15,15,
15,15,15,15,15,15,15,15,15,15,15,15,15,15,15,15,
15,15,15,15,15,15,15,15,15,15,15,15,15,15,15,15,
15,15,15,15,15,15,15,15,15,15,15,15,15,15,15,15,
15,15,15,15,15,15,15,15,15,15,15,15,15,15,15,15,
15,15,15,15,15,15,15,15,15,15,15,15,15,15,15,15,
15,15,15,15,15,15,15,15,15,15,15,15,15,15,15,15,
15,15,15,15,15,15,15,15,15,15,15,15,15,15,15,15,
15,15,15,15,15,15,15,15,15,15,15,15,15,15,15,15,
15,15,15,15,15,15,15,15,15,15,15,15,15,15,15,15,
15,15,15,15,15,15,15,15,15,15,15,15,15,15,15,15,
15,15,15,15,15,15,15,15,15,15,15,15,15,15,15,15,
15,15,15,15,15,15,15,15,15,15,15,15,15,15,15,15,
15,15,15,15,15,15,15,15,15,15,15,15,15,15,15,15,
15,15,15,15,15,15,15,15,15,15,15,15,15,15,15,15
</chunk>
   <chunk x="1280" y="736" width="16" height="16">
15,15,15,15,15,15,15,15,15,15,15,15,15,15,15,15,
15,15,15,15,15,15,15,15,15,15,15,15,15,15,15,15,
15,15,15,15,15,15,15,15,15,15,15,15,15,15,15,15,
15,15,15,15,15,15,15,15,15,15,15,15,15,15,15,15,
15,15,15,15,15,15,15,15,15,15,15,15,15,15,15,15,
15,15,15,15,15,15,15,15,15,15,15,15,15,15,15,15,
15,15,15,15,15,15,15,15,15,15,15,15,15,15,15,15,
15,15,15,15,15,15,15,15,15,15,15,15,15,15,15,15,
15,15,15,15,15,15,15,15,15,15,15,15,15,15,15,15,
15,15,15,15,15,15,15,15,15,15,15,15,15,15,15,15,
15,15,15,15,15,15,15,15,15,15,15,15,15,15,15,15,
15,15,15,15,15,15,15,15,15,15,15,15,15,15,15,15,
15,15,15,15,15,15,15,15,15,15,15,15,15,15,15,15,
15,15,15,15,15,15,15,15,15,15,15,15,15,15,15,15,
15,15,15,15,15,15,15,15,15,15,15,15,15,15,15,15,
15,15,15,15,15,15,15,15,15,15,15,15,15,15,15,15
</chunk>
   <chunk x="1296" y="736" width="16" height="16">
15,15,15,35,35,35,35,35,35,35,35,35,35,35,35,35,
15,15,15,15,35,35,35,35,35,35,35,35,35,35,35,35,
15,15,15,15,35,35,35,35,35,35,35,35,35,35,35,35,
15,15,15,15,15,35,35,35,35,35,35,35,35,35,35,35,
15,15,15,15,15,15,35,35,35,35,35,35,35,35,35,35,
15,15,15,15,15,15,15,35,35,35,35,35,35,35,35,35,
15,15,15,15,15,15,15,35,35,35,35,35,35,35,35,35,
15,15,15,15,15,15,15,15,35,35,35,35,35,35,35,35,
15,15,15,15,15,15,15,15,35,35,35,35,35,35,35,35,
15,15,15,15,15,15,15,15,15,35,35,35,35,35,35,35,
15,15,15,15,15,15,15,15,15,35,35,35,35,35,35,35,
15,15,15,15,15,15,15,15,15,15,35,35,35,35,35,35,
15,15,15,15,15,15,15,15,15,15,35,35,35,35,35,35,
15,15,15,15,15,15,15,15,15,15,15,35,35,35,35,35,
15,15,15,15,15,15,15,15,15,15,15,35,35,35,35,35,
15,15,15,15,15,15,15,15,15,15,15,15,35,35,35,35
</chunk>
   <chunk x="1312" y="736" width="16" height="16">
35,35,35,35,35,35,15,15,15,15,35,35,35,35,35,15,
35,35,35,35,35,35,35,35,35,35,35,35,35,35,35,35,
35,35,35,35,35,35,35,35,35,35,35,35,35,35,35,35,
35,35,35,35,35,35,35,35,35,35,35,35,35,35,35,35,
35,35,35,35,35,35,35,35,35,35,35,35,35,35,35,35,
35,35,35,35,35,35,35,35,35,35,35,35,35,35,35,35,
35,35,35,35,35,35,35,35,35,35,35,35,35,35,35,35,
35,35,35,35,35,35,35,35,35,35,35,35,35,35,35,35,
35,35,35,35,35,35,35,35,35,35,35,35,35,35,35,35,
35,35,35,35,35,35,35,35,35,35,35,35,35,35,35,35,
35,35,35,35,35,35,35,35,35,35,35,35,35,35,35,35,
35,35,35,35,35,35,35,35,35,35,35,35,35,35,35,35,
35,35,35,35,35,35,35,35,35,35,35,35,35,35,35,35,
35,35,35,35,15,15,35,35,35,35,35,35,35,35,35,35,
35,35,35,35,15,15,15,15,15,35,35,35,35,35,35,35,
35,35,35,35,35,15,15,15,15,15,15,15,35,35,35,35
</chunk>
   <chunk x="1328" y="736" width="16" height="16">
5,5,5,5,5,5,5,5,5,5,5,5,5,5,5,5,
5,5,5,5,5,5,5,5,5,5,5,5,5,5,5,5,
5,5,5,5,5,5,5,5,5,5,5,5,5,5,5,5,
5,5,5,5,5,5,5,5,5,5,5,5,5,5,5,5,
5,5,5,5,5,5,5,5,5,5,5,5,5,5,5,5,
5,5,5,5,5,5,5,5,5,5,5,5,5,5,5,5,
5,5,5,5,5,5,5,5,5,5,5,5,5,5,5,5,
35,5,5,5,5,5,5,5,5,5,5,5,5,5,5,5,
35,5,5,5,5,5,5,5,5,5,5,5,5,5,5,5,
35,35,5,5,5,5,5,5,5,5,5,5,5,5,5,5,
35,35,5,5,5,5,5,5,5,5,5,5,5,5,5,5,
35,35,35,5,5,5,5,5,5,5,5,5,5,5,5,5,
35,35,35,35,5,5,5,5,5,5,5,5,5,5,5,5,
35,35,35,35,5,5,5,5,5,5,5,5,5,5,5,5,
35,35,35,35,35,5,5,5,5,5,5,5,5,5,5,5,
35,35,35,35,35,5,5,5,5,5,5,5,5,5,5,5
</chunk>
   <chunk x="1344" y="736" width="16" height="16">
5,5,5,5,5,5,5,5,5,5,5,5,5,35,35,35,
5,5,5,5,5,5,5,5,5,5,5,5,5,35,35,35,
5,5,5,5,5,5,5,5,5,5,5,5,5,5,35,35,
5,5,5,5,5,5,5,5,5,5,5,5,5,35,35,35,
5,5,5,5,5,5,5,5,5,5,5,5,5,5,35,35,
5,5,5,5,5,5,5,5,5,5,5,5,5,5,35,35,
5,5,5,5,5,5,5,5,5,5,5,5,5,5,35,35,
5,5,5,5,5,5,5,5,5,5,5,5,5,5,5,35,
5,5,5,5,5,5,5,5,5,5,5,5,5,5,5,35,
5,5,5,5,5,5,5,5,5,5,5,5,5,5,5,35,
5,5,5,5,5,5,5,5,5,5,5,5,5,5,5,5,
5,5,5,5,5,5,5,5,5,5,5,5,5,5,5,5,
5,5,5,5,5,5,5,5,5,5,5,5,5,5,5,5,
5,5,5,5,5,5,5,5,5,5,5,5,5,5,5,5,
5,5,5,5,5,5,5,5,5,5,5,5,5,5,5,5,
5,5,5,5,5,5,5,5,5,5,5,5,5,5,5,5
</chunk>
   <chunk x="1360" y="736" width="16" height="16">
35,35,35,35,35,35,35,35,35,35,35,35,35,35,35,35,
35,35,35,35,35,35,35,35,35,35,35,35,35,35,35,35,
35,35,35,35,35,35,35,35,35,35,35,35,35,35,35,35,
35,35,35,35,35,35,35,35,35,35,35,35,35,35,35,35,
35,35,35,35,35,35,35,35,35,35,35,35,35,35,35,35,
35,35,35,35,35,35,35,35,35,35,35,35,35,35,35,35,
35,35,35,35,35,35,35,35,35,35,35,35,35,35,35,15,
35,35,35,35,35,35,35,35,35,35,35,35,35,35,35,15,
35,35,35,35,35,35,35,35,35,35,35,35,35,35,15,15,
35,35,35,35,35,35,35,35,35,35,35,35,35,15,15,15,
35,35,35,35,35,35,35,35,35,35,35,15,15,15,15,15,
5,35,35,35,35,35,35,35,35,35,35,15,15,15,15,15,
35,35,35,35,35,35,35,35,15,15,15,15,15,15,15,15,
5,35,35,35,35,35,35,15,15,15,15,15,15,15,15,15,
5,5,35,35,35,35,35,15,15,15,15,15,15,15,15,15,
5,5,35,35,15,15,15,15,15,15,15,15,15,15,15,15
</chunk>
   <chunk x="1376" y="736" width="16" height="16">
35,35,35,35,35,35,35,35,35,35,35,35,35,35,35,35,
35,35,35,35,35,35,35,35,15,15,15,15,15,15,15,15,
35,35,35,35,15,15,15,15,15,15,15,15,15,15,15,15,
35,35,35,15,15,15,15,15,15,15,15,15,15,15,15,15,
35,35,15,15,15,15,15,15,15,15,15,15,15,15,15,15,
35,15,15,15,15,15,15,15,15,15,15,15,15,15,15,15,
15,15,15,15,15,15,15,15,15,15,15,15,15,15,15,15,
15,15,15,15,15,15,15,15,15,15,15,15,15,15,15,15,
15,15,15,15,15,15,15,15,15,15,15,15,15,15,15,15,
15,15,15,15,15,15,15,15,15,15,15,15,15,15,15,15,
15,15,15,15,15,15,15,15,15,15,15,15,15,15,15,15,
15,15,15,15,15,15,15,15,15,15,15,15,15,15,15,15,
15,15,15,15,15,15,15,15,15,15,15,15,15,15,15,15,
15,15,15,15,15,15,15,15,15,15,15,15,15,15,15,15,
15,15,15,15,15,15,15,15,15,15,15,15,15,15,15,15,
15,15,15,15,15,15,15,15,15,15,15,15,15,15,15,15
</chunk>
   <chunk x="1392" y="736" width="16" height="16">
35,35,35,35,35,35,35,35,35,35,35,35,35,35,35,35,
15,15,35,35,35,35,35,35,35,35,35,35,35,35,35,35,
15,15,15,35,35,35,35,35,35,35,35,35,35,35,35,35,
15,15,15,15,15,35,35,35,35,35,35,35,35,35,35,35,
15,15,15,15,15,15,15,35,35,35,35,35,35,35,35,35,
15,15,15,15,15,15,15,15,15,35,35,35,35,35,35,35,
15,15,15,15,15,15,15,15,15,15,35,35,35,35,35,35,
15,15,15,15,15,15,15,15,15,15,15,15,35,35,35,35,
15,15,15,15,15,15,15,15,15,15,15,15,15,35,35,35,
15,15,15,15,15,15,15,15,15,15,15,15,15,15,15,35,
15,15,15,15,15,15,15,15,15,15,15,15,15,15,15,15,
15,15,15,15,15,15,15,15,15,15,15,15,15,15,15,15,
15,15,15,15,15,15,15,15,15,15,15,15,15,15,15,15,
15,15,15,15,15,15,15,15,15,15,15,15,15,15,15,15,
15,15,15,15,15,15,15,15,15,15,15,15,15,15,15,15,
15,15,15,15,15,15,15,15,15,15,15,15,15,15,15,15
</chunk>
   <chunk x="1408" y="736" width="16" height="16">
35,35,35,35,35,35,35,35,35,35,35,35,35,35,35,35,
35,35,35,35,35,35,35,35,35,35,35,35,35,35,35,15,
35,35,35,35,35,35,35,35,35,35,35,35,35,35,15,15,
35,35,35,35,35,35,35,35,35,35,35,35,35,15,15,15,
35,35,35,35,35,35,35,35,35,35,35,35,35,15,15,15,
35,35,35,35,35,35,35,35,35,35,35,35,15,15,15,15,
35,35,35,35,35,35,35,35,35,35,35,35,15,15,15,15,
35,35,35,35,35,35,35,35,35,35,35,15,15,15,15,15,
35,35,35,35,35,35,35,35,35,35,15,15,15,15,15,15,
35,35,35,35,35,35,35,35,35,35,35,15,15,15,15,15,
35,35,35,35,35,35,35,35,35,35,35,35,15,15,15,15,
15,35,35,35,35,35,35,35,35,35,35,35,15,15,15,15,
15,15,35,35,35,35,35,35,35,35,35,35,35,35,15,15,
15,15,15,35,35,35,35,35,35,35,35,35,35,35,35,15,
15,15,15,15,35,35,35,35,35,35,35,35,35,35,35,35,
15,15,15,15,15,35,35,35,35,35,35,35,35,35,35,35
</chunk>
   <chunk x="1424" y="736" width="16" height="16">
15,15,15,15,15,15,15,15,15,15,15,15,15,15,15,15,
15,15,15,15,15,15,15,15,15,15,15,15,15,15,15,15,
15,15,15,15,15,15,15,15,15,15,15,15,15,15,15,15,
15,15,15,15,15,15,15,15,15,15,15,15,15,15,15,15,
15,15,15,15,15,15,15,15,15,15,15,15,15,15,15,15,
15,15,15,15,15,15,15,15,15,15,15,15,15,15,15,15,
15,15,15,15,15,15,15,15,15,15,15,15,15,15,15,15,
15,15,15,15,15,15,15,15,15,15,15,15,15,15,15,15,
15,15,15,15,15,15,15,15,15,15,15,15,15,15,15,15,
15,15,15,15,15,15,15,15,15,15,15,15,15,15,15,15,
15,15,15,15,15,15,15,15,15,15,15,15,15,15,15,15,
15,15,15,15,15,15,15,15,15,15,15,15,15,15,15,15,
15,15,15,15,15,15,15,15,15,15,15,15,15,15,15,15,
15,15,15,15,15,15,15,15,15,15,15,15,15,15,15,15,
15,15,15,15,15,15,15,15,15,15,15,15,15,15,15,15,
35,15,15,15,15,15,15,15,15,15,15,15,15,15,15,15
</chunk>
   <chunk x="1440" y="736" width="16" height="16">
15,15,15,15,15,15,15,15,15,15,15,15,15,15,15,15,
15,15,15,15,15,15,15,15,15,15,15,15,15,15,15,35,
15,15,15,15,15,15,15,15,15,15,15,15,15,35,35,35,
15,15,15,15,15,15,15,15,15,15,15,35,35,35,35,35,
15,15,15,15,15,15,15,15,15,15,15,35,35,35,35,35,
15,15,15,15,15,15,15,15,15,15,35,35,35,35,35,35,
15,15,15,15,15,15,15,15,15,35,35,35,35,35,35,35,
15,15,15,15,15,15,15,15,35,35,35,35,35,35,35,35,
15,15,15,15,15,15,35,35,35,35,35,35,35,35,35,35,
15,15,15,15,15,35,35,35,35,35,35,35,35,35,35,35,
15,15,15,15,35,35,35,35,35,35,35,35,35,35,35,35,
15,15,15,35,35,35,35,35,35,35,35,35,35,35,35,35,
15,15,15,35,35,35,35,35,35,35,35,35,35,35,35,35,
15,15,35,35,35,35,35,35,35,35,35,35,35,35,35,35,
15,35,35,35,35,35,35,35,35,35,35,35,35,35,35,35,
35,35,35,35,35,35,35,35,35,35,35,35,35,35,35,35
</chunk>
   <chunk x="1456" y="736" width="16" height="16">
15,15,15,15,15,15,15,15,15,15,15,15,15,15,15,15,
35,35,35,35,35,15,15,15,15,15,15,15,15,15,15,15,
35,35,35,35,35,35,35,35,35,15,15,15,15,15,15,15,
35,35,35,35,35,35,35,35,35,35,35,15,15,15,15,15,
35,35,35,35,35,35,35,35,35,35,35,35,35,35,15,15,
35,35,35,35,35,35,35,35,35,35,35,35,35,35,35,15,
35,35,35,35,35,35,35,35,35,35,35,35,35,35,35,35,
35,35,35,35,35,35,35,35,35,35,35,35,35,35,35,35,
35,35,35,35,35,35,35,35,35,35,35,35,35,35,35,35,
35,35,35,35,35,35,35,35,35,35,35,35,35,35,35,35,
35,35,35,35,35,35,35,35,35,35,35,35,35,35,35,35,
35,35,35,35,35,35,35,35,35,35,35,35,35,35,35,35,
35,35,35,35,35,35,35,35,35,35,35,35,35,35,35,35,
35,35,35,35,35,35,35,35,35,35,35,35,35,35,35,35,
35,35,35,35,35,35,35,35,35,35,35,35,35,35,35,35,
35,35,35,35,35,35,35,35,35,35,35,35,35,35,35,35
</chunk>
   <chunk x="1472" y="736" width="16" height="16">
15,15,15,15,15,15,15,15,15,15,15,15,15,15,15,15,
15,15,15,15,15,15,15,15,15,15,15,15,15,15,15,15,
15,15,15,15,15,15,15,15,15,15,15,15,15,15,15,15,
15,15,15,15,15,15,15,15,15,15,15,15,15,15,15,15,
15,15,15,15,15,15,15,15,15,15,15,15,15,15,15,15,
15,15,15,15,15,15,15,15,15,15,15,15,15,15,15,15,
35,35,15,15,15,15,15,15,15,15,15,15,15,15,15,15,
35,35,35,35,35,15,15,15,15,15,15,15,15,15,15,15,
35,35,35,35,35,35,35,15,15,15,15,15,15,15,15,15,
35,35,35,35,35,35,35,35,35,15,15,15,15,15,15,15,
35,35,35,35,35,35,35,35,35,35,35,15,15,15,15,15,
35,35,35,35,35,35,35,35,35,35,35,35,35,35,15,15,
35,35,35,35,35,35,35,35,35,35,35,35,35,35,35,35,
35,35,35,35,35,35,35,35,35,35,35,35,35,35,35,35,
35,35,35,35,35,35,35,35,35,35,35,35,35,35,35,35,
35,35,35,35,35,35,35,35,35,35,35,35,35,35,35,35
</chunk>
   <chunk x="1488" y="736" width="16" height="16">
15,15,15,15,15,15,15,15,15,15,15,15,15,15,15,15,
15,15,15,15,15,15,15,15,15,15,15,15,15,15,15,15,
15,15,15,15,15,15,15,15,15,15,15,15,15,15,15,15,
15,15,15,15,15,15,15,15,15,15,15,15,15,15,15,15,
15,15,15,15,15,15,15,15,15,15,15,15,15,15,15,15,
15,15,15,15,15,15,15,15,15,15,15,15,15,15,15,15,
15,15,15,15,15,15,15,15,15,15,15,15,15,15,15,15,
15,15,15,15,15,15,15,15,15,15,15,15,15,15,15,15,
15,15,15,15,15,15,15,15,15,15,15,15,15,15,15,15,
15,15,15,15,15,15,15,15,15,15,15,15,15,15,15,15,
15,15,15,15,15,15,15,15,15,15,15,15,15,15,15,15,
15,15,15,15,15,15,15,15,15,15,15,15,15,15,15,15,
35,15,15,15,15,15,15,15,15,15,15,15,15,15,15,15,
35,35,35,35,35,35,35,35,15,15,15,35,35,35,35,35,
35,35,35,35,35,35,35,35,35,35,35,35,35,35,35,35,
35,35,35,35,35,35,35,35,35,35,35,35,35,35,35,35
</chunk>
   <chunk x="1504" y="736" width="16" height="16">
15,15,15,15,15,15,15,15,15,15,15,15,15,15,15,15,
15,15,15,15,15,15,15,15,15,15,15,15,15,15,15,15,
15,15,15,15,15,15,15,15,15,15,15,15,15,15,15,15,
15,15,15,15,15,15,15,15,15,15,15,15,15,15,15,15,
15,15,15,15,15,15,15,15,15,15,15,15,15,15,15,15,
15,15,15,15,15,15,15,15,15,15,15,15,15,15,15,15,
15,15,15,15,15,15,15,15,15,15,15,15,15,15,15,15,
15,15,15,15,15,15,15,15,15,15,15,35,35,35,35,35,
15,15,15,15,15,15,15,15,35,35,35,35,35,35,35,35,
15,15,15,15,15,15,35,35,35,35,35,35,35,35,35,35,
15,15,15,15,35,35,35,35,35,35,35,35,35,35,35,35,
15,15,35,35,35,35,35,35,35,35,35,35,35,35,35,35,
35,35,35,35,35,35,35,35,35,35,35,35,35,35,35,35,
35,35,35,35,35,35,35,35,35,35,35,35,35,35,35,35,
35,35,35,35,35,35,35,35,35,35,35,35,35,35,35,35,
35,35,35,35,35,35,35,35,35,35,35,35,35,35,35,35
</chunk>
   <chunk x="1520" y="736" width="16" height="16">
15,15,15,15,15,15,15,15,15,15,15,15,15,15,15,15,
15,15,15,15,15,15,15,15,15,15,15,15,15,15,15,15,
15,15,15,15,15,15,15,15,15,15,15,15,15,15,15,15,
15,15,15,15,15,15,15,15,15,15,15,15,15,15,15,15,
15,15,15,15,15,15,15,15,15,15,15,15,15,15,15,15,
15,15,15,15,15,15,15,15,15,15,15,15,15,15,15,15,
15,15,15,15,15,15,15,15,15,15,15,15,15,15,15,15,
35,35,35,35,35,15,15,15,15,15,15,15,15,15,15,15,
35,35,35,35,35,35,35,35,35,35,15,15,15,15,15,15,
35,35,35,35,35,35,35,35,35,35,35,35,35,35,15,15,
35,35,35,35,35,35,35,35,35,35,35,35,35,35,35,35,
35,35,35,35,35,35,35,35,35,35,35,35,35,35,35,35,
35,35,35,35,35,35,35,35,35,35,35,35,35,35,35,35,
35,35,35,35,35,35,35,35,35,35,35,35,35,35,35,35,
35,35,35,35,35,35,35,35,35,35,35,35,35,35,35,35,
35,35,35,35,35,35,35,35,35,35,35,35,35,35,35,35
</chunk>
   <chunk x="1536" y="736" width="16" height="16">
15,15,15,15,15,15,15,15,15,15,15,15,15,15,15,15,
15,15,15,15,15,15,15,15,15,15,15,15,15,15,15,15,
15,15,15,15,15,15,15,15,15,15,15,15,15,15,15,15,
15,15,15,15,15,15,15,15,15,15,15,15,15,15,15,15,
15,15,15,15,15,15,15,15,15,15,15,15,15,15,15,15,
15,15,15,15,15,15,15,15,15,15,15,15,15,15,15,15,
15,15,15,15,15,15,15,15,15,15,15,15,15,15,15,15,
15,15,15,15,15,15,15,15,15,15,15,15,15,15,15,15,
15,15,15,15,15,15,15,15,15,15,15,15,15,15,15,15,
15,15,15,15,15,15,15,15,15,15,15,15,15,15,15,15,
35,15,15,15,15,15,15,15,15,15,15,15,15,15,15,15,
35,35,35,35,15,15,15,15,15,15,15,15,15,15,15,15,
35,35,35,35,35,35,15,15,15,15,15,15,15,15,15,15,
35,35,35,35,35,35,35,15,15,15,15,15,15,15,15,15,
35,35,35,35,35,35,35,35,35,15,15,15,15,15,15,15,
35,35,35,35,35,35,35,35,35,35,35,35,15,15,15,15
</chunk>
   <chunk x="1552" y="736" width="16" height="16">
15,15,15,15,15,15,15,15,15,15,15,0,0,0,0,0,
15,15,15,15,15,15,15,15,15,15,15,0,0,0,0,0,
15,15,15,15,15,15,15,15,15,15,15,0,0,0,0,0,
15,15,15,15,15,15,15,15,15,15,15,0,0,0,0,0,
15,15,15,15,15,15,15,15,15,15,15,0,0,0,0,0,
15,15,15,15,15,15,15,15,15,15,15,0,0,0,0,0,
15,15,15,15,15,15,15,15,15,15,15,0,0,0,0,0,
15,15,15,15,15,15,15,15,15,15,15,0,0,0,0,0,
15,15,15,15,15,15,15,15,15,15,15,0,0,0,0,0,
15,15,15,15,15,15,15,15,15,15,15,0,0,0,0,0,
15,15,15,15,15,15,15,15,15,15,15,0,0,0,0,0,
15,15,15,15,15,15,15,15,15,15,15,0,0,0,0,0,
15,15,15,15,15,15,15,15,15,15,15,0,0,0,0,0,
15,15,15,15,15,15,15,15,15,15,15,0,0,0,0,0,
15,15,15,15,15,15,15,15,15,15,15,0,0,0,0,0,
15,15,15,15,15,15,15,15,15,15,15,0,0,0,0,0
</chunk>
   <chunk x="1232" y="752" width="16" height="16">
0,0,15,15,15,15,15,15,15,15,15,15,15,15,15,15,
0,0,15,15,15,15,15,15,15,15,15,15,15,15,15,15,
0,0,15,15,15,15,15,15,15,15,15,15,15,15,15,15,
0,0,15,15,15,15,15,15,15,15,15,15,15,15,15,15,
0,0,15,15,15,15,15,15,15,15,15,15,15,15,15,15,
0,0,15,15,15,15,15,15,15,15,15,15,15,15,15,15,
0,0,15,15,15,15,15,15,15,15,15,15,15,15,15,15,
0,0,15,15,15,15,15,15,15,15,15,15,15,15,15,15,
0,0,15,15,15,15,15,15,15,15,15,15,15,15,15,15,
0,0,15,15,15,15,15,15,15,15,15,15,15,15,15,15,
0,0,15,15,15,15,15,15,15,15,15,15,15,15,15,15,
0,0,15,15,15,15,15,15,15,15,15,15,15,15,15,15,
0,0,15,15,15,15,15,15,15,15,15,15,15,15,15,15,
0,0,15,15,15,15,15,15,15,15,15,15,15,15,15,15,
0,0,15,15,15,15,15,15,15,15,15,15,15,15,15,15,
0,0,15,15,15,15,15,15,15,15,15,15,15,15,15,15
</chunk>
   <chunk x="1248" y="752" width="16" height="16">
15,15,15,15,15,15,15,15,15,15,15,15,15,15,15,15,
15,15,15,15,15,15,15,15,15,15,15,15,15,15,15,15,
15,15,15,15,15,15,15,15,15,15,15,15,15,15,15,15,
15,15,15,15,15,15,15,15,15,15,15,15,15,15,15,15,
15,15,15,15,15,15,15,15,15,15,15,15,15,15,15,15,
15,15,15,15,15,15,15,15,15,15,15,15,15,15,15,15,
15,15,15,15,15,15,15,15,15,15,15,15,15,15,15,15,
15,15,15,15,15,15,15,15,15,15,15,15,15,15,15,15,
15,15,15,15,15,15,15,15,15,15,15,15,15,15,15,15,
15,15,15,15,15,15,15,15,15,15,15,15,15,15,15,15,
15,15,15,15,15,15,15,15,15,15,15,15,15,15,15,15,
15,15,15,15,15,15,15,15,15,15,15,15,15,15,15,15,
15,15,15,15,15,15,15,15,15,15,15,15,15,15,15,15,
15,15,15,15,15,15,15,15,15,15,15,15,15,15,15,15,
15,15,15,15,15,15,15,15,15,15,15,15,15,15,15,15,
15,15,15,15,15,15,15,15,15,15,15,15,15,15,15,15
</chunk>
   <chunk x="1264" y="752" width="16" height="16">
15,15,15,15,15,15,15,15,15,15,15,15,15,15,15,15,
15,15,15,15,15,15,15,15,15,15,15,15,15,15,15,15,
15,15,15,15,15,15,15,15,15,15,15,15,15,15,15,15,
15,15,15,15,15,15,15,15,15,15,15,15,15,15,15,15,
15,15,15,15,15,15,15,15,15,15,15,15,15,15,15,15,
15,15,15,15,15,15,15,15,15,15,15,15,15,15,15,15,
15,15,15,15,15,15,15,15,15,15,15,15,15,15,15,15,
15,15,15,15,15,15,15,15,15,15,15,15,15,15,15,15,
15,15,15,15,15,15,15,15,15,15,15,15,15,15,15,15,
15,15,15,15,15,15,15,15,15,15,15,15,15,15,15,15,
15,15,15,15,15,15,15,15,15,15,15,15,15,15,15,15,
15,15,15,15,15,15,15,15,15,15,15,15,15,15,15,15,
15,15,15,15,15,15,15,15,15,15,15,15,15,15,15,15,
15,15,15,15,15,15,15,15,15,15,15,15,15,15,15,15,
15,15,15,15,15,15,15,15,15,15,15,15,15,15,15,15,
15,15,15,15,15,15,15,15,15,15,15,15,15,15,15,15
</chunk>
   <chunk x="1280" y="752" width="16" height="16">
15,15,15,15,15,15,15,15,15,15,15,15,15,15,15,15,
15,15,15,15,15,15,15,15,15,15,15,15,15,15,15,15,
15,15,15,15,15,15,15,15,15,15,15,15,15,15,15,15,
15,15,15,15,15,15,15,15,15,15,15,15,15,15,15,15,
15,15,15,15,15,15,15,15,15,15,15,15,15,15,15,15,
15,15,15,15,15,15,15,15,15,15,15,15,15,15,15,15,
15,15,15,15,15,15,15,15,15,15,15,15,15,15,15,15,
15,15,15,15,15,15,15,15,15,15,15,15,15,15,15,15,
15,15,15,15,15,15,15,15,15,15,15,15,15,15,15,15,
15,15,15,15,15,15,15,15,15,15,15,15,15,15,15,15,
15,15,15,15,15,15,15,15,15,15,15,15,15,15,15,15,
15,15,15,15,15,15,15,15,15,15,15,15,15,15,15,15,
15,15,15,15,15,15,15,15,15,15,15,15,15,15,15,15,
15,15,15,15,15,15,15,15,15,15,15,15,15,15,15,15,
15,15,15,15,15,15,15,15,15,15,15,15,15,15,15,15,
15,15,15,15,15,15,15,15,15,15,15,15,15,15,15,15
</chunk>
   <chunk x="1296" y="752" width="16" height="16">
15,15,15,15,15,15,15,15,15,15,15,15,35,35,35,35,
15,15,15,15,15,15,15,15,15,15,15,15,35,35,35,35,
15,15,15,15,15,15,15,15,15,15,15,15,15,35,35,35,
15,15,15,15,15,15,15,15,15,15,15,15,15,35,35,35,
15,15,15,15,15,15,15,15,15,15,15,15,15,35,35,35,
15,15,15,15,15,15,15,15,15,15,15,15,15,15,35,35,
15,15,15,15,15,15,15,15,15,15,15,15,15,15,35,35,
15,15,15,15,15,15,15,15,15,15,15,15,15,15,35,35,
15,15,15,15,15,15,15,15,15,15,15,15,15,15,35,35,
15,15,15,15,15,15,15,15,15,15,15,15,15,15,35,35,
15,15,15,15,15,15,15,15,15,15,15,15,15,15,35,35,
15,15,15,15,15,15,15,15,15,15,15,15,15,15,35,35,
15,15,15,15,15,15,15,15,15,15,15,15,15,15,35,35,
15,15,15,15,15,15,15,15,15,15,15,15,15,15,35,35,
15,15,15,15,15,15,15,15,15,15,15,15,15,35,35,35,
15,15,15,15,15,15,15,15,15,15,35,35,35,35,35,35
</chunk>
   <chunk x="1312" y="752" width="16" height="16">
35,35,35,35,35,15,15,15,15,15,15,15,15,15,15,35,
35,35,35,35,35,35,15,15,15,15,15,15,15,15,15,15,
35,35,35,35,35,35,15,15,15,15,15,15,15,15,15,15,
35,35,35,35,35,35,15,15,15,15,15,15,15,15,15,15,
35,35,35,35,35,35,15,15,15,15,15,15,15,15,15,15,
35,35,35,35,35,35,35,15,15,15,15,15,15,15,15,15,
35,35,35,35,35,35,35,15,15,15,15,15,15,15,15,15,
35,35,35,35,35,35,35,15,15,15,15,15,15,15,15,15,
35,35,35,35,35,35,35,15,15,15,15,15,15,15,15,15,
35,35,35,35,35,35,35,35,15,15,15,15,15,15,15,15,
35,35,35,35,35,35,35,35,15,15,15,15,15,15,15,15,
35,35,35,35,35,35,35,35,15,15,15,15,15,15,15,15,
35,35,35,35,35,35,35,35,15,15,15,15,15,15,15,15,
35,35,35,35,35,35,35,35,15,15,15,15,15,15,15,15,
35,35,35,35,35,35,35,35,35,15,15,15,15,15,15,15,
35,35,35,35,35,35,35,35,15,15,15,15,15,15,15,15
</chunk>
   <chunk x="1328" y="752" width="16" height="16">
35,35,35,35,35,35,5,5,5,5,5,5,5,5,5,5,
15,15,15,35,35,35,5,5,5,5,5,5,5,5,5,5,
15,15,15,15,15,15,15,5,5,5,5,5,5,5,5,5,
15,15,15,15,15,15,15,15,5,5,5,5,5,5,5,5,
15,15,15,15,15,15,15,15,5,5,5,5,5,5,5,5,
15,15,15,15,15,15,15,15,15,5,5,5,5,5,5,5,
15,15,15,15,15,15,15,15,15,15,5,5,5,5,5,5,
15,15,15,15,15,15,15,15,15,15,15,5,5,5,5,5,
15,15,15,15,15,15,15,15,15,15,15,15,5,5,5,5,
15,15,15,15,15,15,15,15,15,15,15,15,5,5,5,5,
15,15,15,15,15,15,15,15,15,15,15,15,15,5,5,5,
15,15,15,15,15,15,15,15,15,15,15,15,15,15,5,5,
15,15,15,15,15,15,15,15,15,15,15,15,15,15,15,5,
15,15,15,15,15,15,15,15,15,15,15,15,15,15,15,15,
15,15,15,15,15,15,15,15,15,15,15,15,15,15,15,15,
15,15,15,15,15,15,15,15,15,15,15,15,15,15,15,15
</chunk>
   <chunk x="1344" y="752" width="16" height="16">
5,5,5,5,5,5,5,5,5,5,5,5,5,5,5,5,
5,5,5,5,5,5,5,5,5,5,5,5,5,5,5,5,
5,5,5,5,5,5,5,5,5,5,5,5,5,5,5,5,
5,5,5,5,5,5,5,5,5,5,5,5,5,5,5,5,
5,5,5,5,5,5,5,5,5,5,5,5,5,5,5,5,
5,5,5,5,5,5,5,5,5,5,5,5,5,5,5,5,
5,5,5,5,5,5,5,5,5,5,5,5,5,5,5,5,
5,5,5,5,5,5,5,5,5,5,5,5,5,5,5,5,
5,5,5,5,5,5,5,5,5,5,5,5,5,5,5,5,
5,5,5,5,5,5,5,5,5,5,5,5,5,5,5,5,
5,5,5,5,5,5,5,5,5,5,5,5,5,5,5,5,
5,5,5,5,5,5,5,5,5,5,5,5,5,5,5,5,
5,5,5,5,5,5,5,5,5,5,5,5,5,5,5,5,
5,5,5,5,5,5,5,5,5,5,5,5,5,5,5,5,
15,5,5,5,5,5,5,5,5,5,5,5,5,5,5,5,
15,15,5,5,5,5,5,5,5,5,5,5,5,5,5,5
</chunk>
   <chunk x="1360" y="752" width="16" height="16">
5,5,15,15,15,15,15,15,15,15,15,15,15,15,15,15,
5,5,5,15,15,15,15,15,15,15,15,15,15,15,15,15,
5,5,5,5,15,15,15,15,15,15,15,15,15,15,15,15,
5,5,5,5,5,15,15,15,15,15,15,15,15,15,15,15,
5,5,5,5,5,15,15,15,15,15,15,15,15,15,15,15,
5,5,5,5,5,15,15,15,15,15,15,15,15,15,15,15,
5,5,5,5,5,5,15,15,15,15,15,15,15,15,15,15,
5,5,5,5,5,5,5,15,15,15,15,15,15,15,15,15,
5,5,5,5,5,5,5,15,15,15,15,15,15,15,15,15,
5,5,5,5,5,5,5,5,15,15,15,15,15,15,15,15,
5,5,5,5,5,5,5,5,15,15,15,15,15,15,15,15,
5,5,5,5,5,5,5,5,5,15,15,15,15,15,15,15,
5,5,5,5,5,5,5,5,5,5,15,15,15,15,15,15,
5,5,5,5,5,5,5,5,5,5,15,15,15,15,15,15,
5,5,5,5,5,5,5,5,5,5,15,15,15,15,15,15,
5,5,5,5,5,5,5,5,5,5,5,15,15,15,15,15
</chunk>
   <chunk x="1376" y="752" width="16" height="16">
15,15,15,15,15,15,15,15,15,15,15,15,15,15,15,15,
15,15,15,15,15,15,15,15,15,15,15,15,15,15,15,15,
15,15,15,15,15,15,15,15,15,15,15,15,15,15,15,15,
15,15,15,15,15,15,15,15,15,15,15,15,15,15,15,15,
15,15,15,15,15,15,15,15,15,15,15,15,15,15,15,15,
15,15,15,15,15,15,15,15,15,15,15,15,15,15,15,15,
15,15,15,15,15,15,15,15,15,15,15,15,15,15,15,15,
15,15,15,15,15,15,15,15,15,15,15,15,15,15,15,15,
15,15,15,15,15,15,15,15,15,15,15,15,15,15,15,15,
15,15,15,15,15,15,15,15,15,15,15,15,15,15,15,15,
15,15,15,15,15,15,15,15,15,15,15,15,15,15,15,15,
15,15,15,15,15,15,15,15,15,15,15,15,15,15,15,15,
15,15,15,15,15,15,15,15,15,15,15,15,15,15,15,15,
15,15,15,15,15,15,15,15,15,15,15,15,15,15,15,15,
15,15,15,15,15,15,15,15,15,15,15,15,15,15,15,15,
15,15,15,15,15,15,15,15,15,15,15,15,15,15,15,15
</chunk>
   <chunk x="1392" y="752" width="16" height="16">
15,15,15,15,15,15,15,15,15,15,15,15,15,15,15,15,
15,15,15,15,15,15,15,15,15,15,15,15,15,15,15,15,
15,15,15,15,15,15,15,15,15,15,15,15,15,15,15,15,
15,15,15,15,15,15,15,15,15,15,15,15,15,15,15,15,
15,15,15,15,15,15,15,15,15,15,15,15,15,15,15,15,
15,15,15,15,15,15,15,15,15,15,15,15,15,15,15,15,
15,15,15,15,15,15,15,15,15,15,15,15,15,15,15,15,
15,15,15,15,15,15,15,15,15,15,15,15,15,15,15,15,
15,15,15,15,15,15,15,15,15,15,15,15,15,15,15,15,
15,15,15,15,15,15,15,15,15,15,15,15,15,15,15,15,
15,15,15,15,15,15,15,15,15,15,15,15,15,15,15,15,
15,15,15,15,15,15,15,15,15,15,15,15,15,15,15,15,
15,15,15,15,15,15,15,15,15,15,15,15,15,15,15,15,
15,15,15,15,15,15,15,15,15,15,15,15,15,15,15,15,
15,15,15,15,15,15,15,15,15,15,15,15,15,15,15,15,
15,15,15,15,15,15,15,15,15,15,15,15,15,15,15,15
</chunk>
   <chunk x="1408" y="752" width="16" height="16">
15,15,15,15,15,15,35,35,35,35,35,35,35,35,35,35,
15,15,15,15,15,15,15,35,35,35,35,35,35,35,35,35,
15,15,15,15,15,15,15,15,35,35,35,35,35,35,35,35,
15,15,15,15,15,15,15,15,35,35,35,35,35,35,35,35,
15,15,15,15,15,15,15,15,15,35,35,35,35,35,35,35,
15,15,15,15,15,15,15,15,15,15,35,35,35,35,35,35,
15,15,15,15,15,15,15,15,15,15,35,35,35,35,35,35,
15,15,15,15,15,15,15,15,15,15,15,35,35,35,35,35,
15,15,15,15,15,15,15,15,15,15,15,35,35,35,35,35,
15,15,15,15,15,15,15,15,15,15,15,35,35,35,35,35,
15,15,15,15,15,15,15,15,15,15,15,35,35,35,35,35,
15,15,15,15,15,15,15,15,15,15,15,35,35,35,35,35,
15,15,15,15,15,15,15,15,15,15,15,35,35,35,35,35,
15,15,15,15,15,15,15,15,15,15,15,15,35,35,35,35,
15,15,15,15,15,15,15,15,15,15,15,15,35,35,35,35,
15,15,15,15,15,15,15,15,15,15,15,15,35,35,35,35
</chunk>
   <chunk x="1424" y="752" width="16" height="16">
35,35,15,15,15,15,15,15,15,15,15,15,15,15,35,35,
35,35,35,15,15,15,15,15,15,15,15,15,15,35,35,35,
35,35,35,35,15,15,15,15,15,15,15,15,35,35,35,35,
35,35,35,35,35,15,15,15,15,15,15,35,35,35,35,35,
35,35,35,35,35,15,15,15,15,15,35,35,35,35,35,35,
35,35,35,35,35,35,15,15,15,15,35,35,35,35,35,35,
35,35,35,35,35,35,35,15,15,35,35,35,35,35,35,35,
35,35,35,35,35,35,35,35,35,35,35,35,35,35,35,35,
35,35,35,35,35,35,35,35,35,35,35,35,35,35,35,35,
35,35,35,35,35,35,35,35,35,35,35,35,35,35,35,35,
35,35,35,35,35,35,35,35,35,35,35,35,35,35,35,35,
35,35,35,35,35,35,35,35,35,35,35,35,35,35,35,35,
35,35,35,35,35,35,35,35,35,35,35,35,35,35,35,35,
35,35,35,35,35,35,35,35,35,35,35,35,35,35,35,35,
35,35,35,35,35,35,35,35,35,35,35,35,35,35,35,35,
35,35,35,35,35,35,35,35,35,35,35,35,35,35,35,35
</chunk>
   <chunk x="1440" y="752" width="16" height="16">
35,35,35,35,35,35,35,35,35,35,35,35,35,35,35,35,
35,35,35,35,35,35,35,35,35,35,35,35,35,35,35,35,
35,35,35,35,35,35,35,35,35,35,35,35,35,35,35,35,
35,35,35,35,35,35,35,35,35,35,35,35,35,35,35,35,
35,35,35,35,35,35,35,35,35,35,35,35,35,35,35,35,
35,35,35,35,35,35,35,35,35,35,35,35,35,35,35,35,
35,35,35,35,35,35,35,35,35,35,35,35,35,35,35,35,
35,35,35,35,35,35,35,35,35,35,35,35,35,35,35,35,
35,35,35,35,35,35,35,35,35,35,35,35,35,35,35,35,
35,35,35,35,35,35,35,35,35,35,35,35,35,35,35,35,
35,35,35,35,35,35,35,35,35,35,35,35,35,35,35,35,
35,35,35,35,35,35,35,35,35,35,35,35,35,35,35,35,
35,35,35,35,35,35,35,35,35,35,35,35,35,35,35,35,
35,35,35,35,35,35,35,35,35,35,35,35,35,35,35,35,
35,35,35,35,35,35,35,35,35,35,35,35,35,35,35,35,
35,35,35,35,35,35,35,35,35,35,35,35,35,35,35,35
</chunk>
   <chunk x="1456" y="752" width="16" height="16">
35,35,35,35,35,35,35,35,35,35,35,35,35,35,35,35,
35,35,35,35,35,35,35,35,35,35,35,35,35,35,35,35,
35,35,35,35,35,35,35,35,35,35,35,35,35,35,35,35,
35,35,35,35,35,35,35,35,35,35,35,35,35,35,35,35,
35,35,35,35,35,35,35,35,35,35,35,35,35,35,35,35,
35,35,35,35,35,35,35,35,35,35,35,35,35,35,35,35,
35,35,35,35,35,35,35,35,35,35,35,35,35,35,35,35,
35,35,35,35,35,35,35,35,35,35,35,35,35,35,35,35,
35,35,35,35,35,35,35,35,35,35,35,35,35,35,35,35,
35,35,35,35,35,35,35,35,35,35,35,35,35,35,35,35,
35,35,35,35,35,35,35,35,35,35,35,35,35,35,35,35,
35,35,35,35,35,35,35,35,35,35,35,35,35,35,35,35,
35,35,35,35,35,35,35,35,35,35,35,35,35,35,35,35,
35,35,35,35,35,35,35,35,35,35,35,35,35,35,35,35,
35,35,35,35,35,35,35,35,35,35,35,35,35,35,35,35,
35,35,35,35,35,35,35,35,35,35,35,35,35,35,35,35
</chunk>
   <chunk x="1472" y="752" width="16" height="16">
35,35,35,35,35,35,35,35,35,35,35,35,35,35,35,35,
35,35,35,35,35,35,35,35,35,35,35,35,35,35,35,35,
35,35,35,35,35,35,35,35,35,35,35,35,35,35,35,35,
35,35,35,35,35,35,35,35,35,35,35,35,35,35,35,35,
35,35,35,35,35,35,35,35,35,35,35,35,35,35,35,35,
35,35,35,35,35,35,35,35,35,35,35,35,35,35,35,35,
35,35,35,35,35,35,35,35,35,35,35,35,35,35,35,35,
35,35,35,35,35,35,35,35,35,35,35,35,35,35,35,35,
35,35,35,35,35,35,35,35,35,35,35,35,35,35,35,35,
35,35,35,35,35,35,35,35,35,35,35,35,35,35,35,35,
35,35,35,35,35,35,35,35,35,35,35,35,35,35,35,35,
35,35,35,35,35,35,35,35,35,35,35,35,35,35,35,35,
35,35,35,35,35,35,35,35,35,35,35,35,35,35,35,15,
35,35,35,35,35,35,35,35,35,35,35,35,35,15,15,15,
35,35,35,35,35,35,35,35,35,35,35,35,35,15,15,15,
35,35,35,35,35,35,35,35,35,35,35,15,15,15,15,15
</chunk>
   <chunk x="1488" y="752" width="16" height="16">
35,35,35,35,35,35,35,35,35,35,35,35,35,35,35,35,
35,35,35,35,35,35,35,35,35,35,35,35,35,35,35,35,
35,35,35,35,35,35,35,35,35,35,35,35,35,35,35,35,
35,35,35,35,35,35,35,35,35,35,35,35,35,35,35,35,
35,35,35,35,35,35,35,35,35,35,35,35,35,35,35,35,
35,35,35,35,35,35,35,35,35,35,35,35,35,35,35,35,
35,35,35,35,35,35,35,35,35,35,35,35,35,35,35,35,
35,35,35,35,35,35,35,35,35,35,35,35,35,35,35,35,
35,35,35,35,35,35,35,15,15,15,15,15,15,15,15,15,
35,35,35,15,15,15,15,15,15,15,15,15,15,15,15,15,
15,15,15,15,15,15,15,15,15,15,15,15,15,15,15,15,
15,15,15,15,15,15,15,15,15,15,15,15,15,15,15,15,
15,15,15,15,15,15,15,15,15,15,15,15,15,15,15,15,
15,15,15,15,15,15,15,15,15,15,15,15,15,15,15,15,
15,15,15,15,15,15,15,15,15,15,15,15,15,15,15,15,
15,15,15,15,15,15,15,15,15,15,15,15,15,15,15,15
</chunk>
   <chunk x="1504" y="752" width="16" height="16">
35,35,35,35,35,35,35,35,35,35,35,35,35,35,35,35,
35,35,35,35,35,35,35,35,35,35,35,35,35,35,35,35,
35,35,35,35,35,35,35,35,35,35,35,35,35,35,35,35,
35,35,35,35,35,35,35,35,35,35,35,35,35,35,35,35,
35,35,35,35,35,35,35,35,35,35,35,35,35,35,35,35,
35,35,35,35,35,35,35,35,35,35,35,35,35,35,35,35,
35,35,35,35,35,35,35,35,35,35,35,35,35,35,35,35,
35,35,35,35,35,35,35,35,35,35,35,35,35,35,35,35,
15,15,35,15,35,35,35,35,35,35,35,35,35,35,35,35,
15,15,15,15,15,15,15,15,35,35,35,35,35,35,35,35,
15,15,15,15,15,15,15,15,15,15,15,35,35,35,35,35,
15,15,15,15,15,15,15,15,15,15,15,15,15,15,35,35,
15,15,15,15,15,15,15,15,15,15,15,15,15,15,15,15,
15,15,15,15,15,15,15,15,15,15,15,15,15,15,15,15,
15,15,15,15,15,15,15,15,15,15,15,15,15,15,15,15,
15,15,15,15,15,15,15,15,15,15,15,15,15,15,15,15
</chunk>
   <chunk x="1520" y="752" width="16" height="16">
35,35,35,35,35,35,35,35,35,35,35,35,35,35,35,35,
35,35,35,35,35,35,35,35,35,35,35,35,35,35,35,35,
35,35,35,35,35,35,35,35,35,35,35,35,35,35,35,35,
35,35,35,35,35,35,35,35,35,35,35,35,35,35,35,35,
35,35,35,35,35,35,35,35,35,35,35,35,35,35,35,35,
35,35,35,35,35,35,35,35,35,35,35,35,35,35,35,35,
35,35,35,35,35,35,35,35,35,35,35,35,35,35,35,35,
35,35,35,35,35,35,35,35,35,35,35,35,35,35,35,35,
35,35,35,35,35,35,35,35,35,35,35,35,35,35,35,35,
35,35,35,35,35,35,35,35,35,35,35,35,35,35,35,35,
35,35,35,35,35,35,35,35,35,35,35,35,35,35,35,35,
35,35,35,35,35,35,35,35,35,35,35,35,35,35,35,35,
15,15,15,35,35,35,35,35,35,35,35,35,35,35,35,35,
15,15,15,15,15,35,35,35,35,35,35,35,35,35,35,35,
15,15,15,15,15,15,15,35,35,35,35,35,35,35,35,35,
15,15,15,15,15,15,15,15,15,35,35,35,35,35,35,35
</chunk>
   <chunk x="1536" y="752" width="16" height="16">
35,35,35,35,35,35,35,35,35,35,35,35,35,35,15,15,
35,35,35,35,35,35,35,35,35,35,35,35,35,35,35,15,
35,35,35,35,35,35,35,35,35,35,35,35,35,35,35,35,
35,35,35,35,35,35,35,35,35,35,35,35,35,35,35,35,
35,35,35,35,35,35,35,35,35,35,35,35,35,35,35,35,
35,35,35,35,35,35,35,35,35,35,35,35,35,35,35,35,
35,35,35,35,35,35,35,35,35,35,35,35,35,35,35,35,
35,35,35,35,35,35,35,35,35,35,35,35,35,35,35,35,
35,35,35,35,35,35,35,35,35,35,35,35,35,35,35,35,
35,35,35,35,35,35,35,35,35,35,35,35,35,35,35,35,
35,35,35,35,35,35,35,35,35,35,35,35,35,35,35,35,
35,35,35,35,35,35,35,35,35,35,35,35,35,35,35,35,
35,35,35,35,35,35,35,35,35,35,35,35,35,35,35,35,
35,35,35,35,35,35,35,35,35,35,35,35,35,35,35,35,
35,35,35,35,35,35,35,35,35,35,35,35,35,35,35,35,
35,35,35,35,35,35,35,35,35,35,35,35,35,35,35,35
</chunk>
   <chunk x="1552" y="752" width="16" height="16">
15,15,15,15,15,15,15,15,15,15,15,0,0,0,0,0,
15,15,15,15,15,15,15,15,15,15,15,0,0,0,0,0,
15,15,15,15,15,15,15,15,15,15,15,0,0,0,0,0,
35,35,15,15,15,15,15,15,15,15,15,0,0,0,0,0,
35,35,35,15,15,15,15,15,15,15,15,0,0,0,0,0,
35,35,35,35,35,15,15,15,15,15,15,0,0,0,0,0,
35,35,35,35,35,35,35,15,15,15,15,0,0,0,0,0,
35,35,35,35,35,35,35,35,35,15,15,0,0,0,0,0,
35,35,35,35,35,35,35,35,35,35,15,0,0,0,0,0,
35,35,35,35,35,35,35,35,35,35,35,0,0,0,0,0,
35,35,35,35,35,35,35,35,35,35,35,0,0,0,0,0,
35,35,35,35,35,35,35,35,35,35,35,0,0,0,0,0,
35,35,35,35,35,35,35,35,35,35,35,0,0,0,0,0,
35,35,35,35,35,35,35,35,35,35,35,0,0,0,0,0,
35,35,35,35,35,35,35,35,35,35,35,0,0,0,0,0,
35,35,35,35,35,35,35,35,35,35,35,0,0,0,0,0
</chunk>
   <chunk x="1232" y="768" width="16" height="16">
0,0,15,15,15,15,15,15,15,15,15,15,15,15,15,15,
0,0,15,15,15,15,15,15,15,15,15,15,15,15,15,15,
0,0,15,15,15,15,15,15,15,15,15,15,15,15,15,15,
0,0,15,15,15,15,15,15,15,15,15,15,15,15,15,15,
0,0,15,15,15,15,15,15,15,15,15,15,15,15,15,15,
0,0,15,15,15,15,15,15,15,15,15,15,15,15,15,15,
0,0,15,15,15,15,15,15,15,15,15,15,15,15,15,15,
0,0,15,15,15,15,15,15,15,15,15,15,15,15,15,15,
0,0,15,15,15,15,15,15,15,15,15,15,15,15,15,15,
0,0,15,15,15,15,15,15,15,15,15,15,15,15,15,15,
0,0,15,15,15,15,15,15,15,15,15,15,15,15,15,15,
0,0,15,15,15,15,15,15,15,15,15,15,15,15,15,15,
0,0,15,15,15,15,15,15,15,15,15,15,15,15,15,15,
0,0,15,15,15,15,15,15,15,15,15,15,15,15,15,15,
0,0,15,15,15,15,15,15,15,15,15,15,15,15,15,15,
0,0,15,15,15,15,15,15,15,15,15,15,15,15,15,15
</chunk>
   <chunk x="1248" y="768" width="16" height="16">
15,15,15,15,15,15,15,15,15,15,15,15,15,15,15,15,
15,15,15,15,15,15,15,15,15,15,15,15,15,15,15,15,
15,15,15,15,15,15,15,15,15,15,15,15,15,15,15,15,
15,15,15,15,15,15,15,15,15,15,15,15,15,15,15,15,
15,15,15,15,15,15,15,15,15,15,15,15,15,15,15,15,
15,15,15,15,15,15,15,15,15,15,15,15,15,15,15,15,
15,15,15,15,15,15,15,15,15,15,15,15,15,15,15,15,
15,15,15,15,15,15,15,15,15,15,15,15,15,15,15,15,
15,15,15,15,15,15,15,15,15,15,15,15,15,15,15,15,
15,15,15,15,15,15,15,15,15,15,15,15,15,15,15,15,
15,15,15,15,15,15,15,15,15,15,15,15,15,15,15,15,
15,15,15,15,15,15,15,15,15,15,15,15,15,15,15,15,
15,15,15,15,15,15,15,15,15,15,15,15,15,15,15,15,
15,15,15,15,15,15,15,15,15,15,15,15,15,15,15,15,
15,15,15,15,15,15,15,15,15,15,15,15,15,15,15,15,
15,15,15,15,15,15,15,15,15,15,15,15,15,15,15,15
</chunk>
   <chunk x="1264" y="768" width="16" height="16">
15,15,15,15,15,15,15,15,15,15,15,15,15,15,15,15,
15,15,15,15,15,15,15,15,15,15,15,15,15,15,15,15,
15,15,15,15,15,15,15,15,15,15,15,15,15,15,15,15,
15,15,15,15,15,15,15,15,15,15,15,15,15,15,15,15,
15,15,15,15,15,15,15,15,15,15,15,15,15,15,15,15,
15,15,15,15,15,15,15,15,15,15,15,15,15,15,15,15,
15,15,15,15,15,15,15,15,15,15,15,15,15,15,15,15,
15,15,15,15,15,15,15,15,15,15,15,15,15,15,15,15,
15,15,15,15,15,15,15,15,15,15,15,15,15,15,15,15,
15,15,15,15,15,15,15,15,15,15,15,15,15,15,15,15,
15,15,15,15,15,15,15,15,15,15,15,15,15,15,15,15,
15,15,15,15,15,15,15,15,15,15,15,15,15,15,15,15,
15,15,15,15,15,15,15,15,15,15,15,15,15,15,15,15,
15,15,15,15,15,15,15,15,15,15,15,15,15,15,15,15,
15,15,15,15,15,15,15,15,15,15,15,15,15,15,15,15,
15,15,15,15,15,15,15,15,15,15,15,15,15,15,15,15
</chunk>
   <chunk x="1280" y="768" width="16" height="16">
15,15,15,15,15,15,15,15,15,15,15,15,15,15,15,15,
15,15,15,15,15,15,15,15,15,15,15,15,15,15,15,15,
15,15,15,15,15,15,15,15,15,15,15,15,15,15,15,15,
15,15,15,15,15,15,15,15,15,15,15,15,15,15,15,35,
15,15,15,15,15,15,15,15,15,15,15,15,15,15,35,35,
15,15,15,15,15,15,15,15,15,15,15,15,15,35,35,35,
15,15,15,15,15,15,15,15,15,15,15,15,15,35,35,35,
15,15,15,15,15,15,15,15,15,15,15,15,15,35,35,35,
15,15,15,15,15,15,15,15,15,15,15,15,15,35,35,35,
15,15,15,15,15,15,15,15,15,15,15,15,15,35,35,35,
15,15,15,15,15,15,15,15,15,15,15,15,15,35,35,35,
15,15,15,15,15,15,15,15,15,15,15,15,15,35,35,35,
15,15,15,15,15,15,15,15,15,15,15,15,15,15,35,35,
15,15,15,15,15,15,15,15,15,15,15,15,15,15,35,35,
15,15,15,15,15,15,15,15,15,15,15,15,15,15,15,35,
15,15,15,15,15,15,15,15,15,15,15,15,15,15,15,15
</chunk>
   <chunk x="1296" y="768" width="16" height="16">
15,15,15,15,15,15,35,35,35,35,35,35,35,35,35,35,
15,15,15,35,35,35,35,35,35,35,35,35,35,35,35,35,
15,35,35,35,35,35,35,35,35,35,35,35,35,35,35,35,
35,35,35,35,35,35,35,35,35,35,35,35,35,35,35,35,
35,35,35,35,35,35,35,35,35,35,35,35,35,35,35,35,
35,35,35,35,35,35,35,35,35,35,35,35,35,35,35,35,
35,35,35,35,35,35,35,35,35,35,35,35,35,35,35,35,
35,35,35,35,35,35,35,35,35,35,35,35,35,35,35,35,
35,35,35,35,35,35,35,35,35,35,35,35,35,35,35,35,
35,35,35,35,35,35,35,35,35,35,35,35,35,35,35,35,
35,35,35,35,35,35,35,35,35,35,35,35,35,35,35,35,
35,35,35,35,35,35,35,35,35,35,35,35,35,35,35,35,
35,35,35,35,35,35,35,35,35,35,35,35,35,35,35,35,
35,35,35,35,35,35,35,35,35,35,35,35,35,35,15,15,
35,35,35,35,35,35,35,35,35,35,35,35,35,15,15,15,
35,35,35,35,35,35,35,35,35,35,35,35,35,15,15,15
</chunk>
   <chunk x="1312" y="768" width="16" height="16">
35,35,35,35,35,35,35,35,15,15,15,15,15,15,15,15,
35,35,35,35,35,35,35,35,15,15,15,15,15,15,15,15,
35,35,35,35,35,35,35,35,15,15,15,15,15,15,15,15,
35,35,35,35,35,35,35,15,15,15,15,15,15,15,15,15,
35,35,35,35,35,35,35,15,15,15,15,15,15,15,15,15,
35,35,35,35,35,35,15,15,15,15,15,15,15,15,15,15,
35,35,35,35,35,15,15,15,15,15,15,15,15,15,15,15,
35,35,35,35,15,15,15,15,15,15,15,15,15,15,15,15,
35,35,35,15,15,15,15,15,15,15,15,15,15,15,15,15,
35,35,35,15,15,15,15,15,15,15,15,15,15,15,15,15,
35,35,15,15,15,15,15,15,15,15,15,15,15,15,15,15,
15,15,15,15,15,15,15,15,15,15,15,15,15,15,15,15,
15,15,15,15,15,15,15,15,15,15,15,15,15,15,15,15,
15,15,15,15,15,15,15,15,15,15,15,15,15,15,15,15,
15,15,15,15,15,15,15,15,15,15,15,15,15,15,15,15,
15,15,15,15,15,15,15,15,15,15,15,15,15,15,15,15
</chunk>
   <chunk x="1328" y="768" width="16" height="16">
15,15,15,15,15,15,15,15,15,15,15,15,15,15,15,15,
15,15,15,15,15,15,15,15,15,15,15,15,15,15,15,15,
15,15,15,15,15,15,15,15,15,15,15,15,15,15,15,15,
15,15,15,15,15,15,15,15,15,15,15,15,15,15,15,15,
15,15,15,15,15,15,15,15,15,15,15,15,15,15,15,15,
15,15,15,15,15,15,15,15,15,15,15,15,15,15,15,15,
15,15,15,15,15,15,15,15,15,15,15,15,15,15,15,15,
15,15,15,15,15,15,15,15,15,15,15,15,15,15,15,15,
15,15,15,15,15,15,15,15,15,15,15,15,15,15,15,15,
15,15,15,15,15,15,15,15,15,15,15,15,15,15,15,15,
15,15,15,15,15,15,15,15,15,15,15,15,15,15,15,15,
15,15,15,15,15,15,15,15,15,15,15,15,15,15,15,15,
15,15,15,15,15,15,15,15,15,15,15,15,15,15,15,15,
15,15,15,15,15,15,15,15,15,15,15,15,15,15,15,15,
15,15,15,15,15,15,15,15,15,15,15,15,15,15,15,15,
15,15,15,15,15,15,15,15,15,15,15,15,15,15,15,15
</chunk>
   <chunk x="1344" y="768" width="16" height="16">
15,15,15,5,5,5,5,5,5,5,5,5,5,5,5,5,
15,15,15,5,5,5,5,5,5,5,5,5,5,5,5,5,
15,15,15,15,5,5,5,5,5,5,5,5,5,5,5,5,
15,15,15,15,15,5,5,5,5,5,5,5,5,5,5,5,
15,15,15,15,15,15,5,5,5,5,5,5,5,5,5,5,
15,15,15,15,15,15,5,5,5,5,5,5,5,5,5,5,
15,15,15,15,15,15,15,5,5,5,5,5,5,5,5,5,
15,15,15,15,15,15,15,5,5,5,5,5,5,5,5,5,
15,15,15,15,15,15,15,15,5,5,5,5,5,5,5,5,
15,15,15,15,15,15,15,15,5,5,5,5,5,5,5,5,
15,15,15,15,15,15,15,15,5,5,5,5,5,5,5,5,
15,15,15,15,15,15,15,15,15,5,5,5,5,5,5,5,
15,15,15,15,15,15,15,15,15,5,5,5,5,5,5,5,
15,15,15,15,15,15,15,15,15,5,5,5,5,5,5,5,
15,15,15,15,15,15,15,15,5,5,5,5,5,5,5,5,
15,15,15,15,15,15,15,15,5,5,5,5,5,5,5,5
</chunk>
   <chunk x="1360" y="768" width="16" height="16">
5,5,5,5,5,5,5,5,5,5,5,15,15,15,15,15,
5,5,5,5,5,5,5,5,5,5,5,5,15,15,15,15,
5,5,5,5,5,5,5,5,5,5,5,5,15,15,15,15,
5,5,5,5,5,5,5,5,5,5,5,5,5,15,15,15,
5,5,5,5,5,5,5,5,5,5,5,5,5,15,15,15,
5,5,5,5,5,5,5,5,5,5,5,5,5,15,15,15,
5,5,5,5,5,5,5,5,5,5,5,5,5,5,15,15,
5,5,5,5,5,5,5,5,5,5,5,5,5,5,15,15,
5,5,5,5,5,5,5,5,5,5,5,5,5,5,5,15,
5,5,5,5,5,5,5,5,5,5,5,5,5,5,5,15,
5,5,5,5,5,5,5,5,5,5,5,5,5,5,5,5,
5,5,5,5,5,5,5,5,5,5,5,5,5,5,5,5,
5,5,5,5,5,5,5,5,5,5,5,5,5,5,5,5,
5,5,5,5,5,5,5,5,5,5,5,5,5,5,5,5,
5,5,5,5,5,5,5,5,5,5,5,5,5,5,5,5,
5,5,5,5,5,5,5,5,5,5,5,5,5,5,5,5
</chunk>
   <chunk x="1376" y="768" width="16" height="16">
15,15,15,15,15,15,15,15,15,15,15,15,15,15,15,15,
15,15,15,15,15,15,15,15,15,15,15,15,15,15,15,15,
15,15,15,15,15,15,15,15,15,15,15,15,15,15,15,15,
15,15,15,15,15,15,15,15,15,15,15,15,15,15,15,15,
15,15,15,15,15,15,15,15,15,15,15,15,15,15,15,15,
15,15,15,15,15,15,15,15,15,15,15,15,15,15,15,15,
15,15,15,15,15,15,15,15,15,15,15,15,15,15,15,15,
15,15,15,15,15,15,15,15,15,15,15,15,15,15,15,15,
15,15,15,15,15,15,15,15,15,15,15,15,15,15,15,15,
15,15,15,15,15,15,15,15,15,15,15,15,15,15,15,15,
15,15,15,15,15,15,15,15,15,15,15,15,15,15,15,15,
15,15,15,15,15,15,15,15,15,15,15,15,15,15,15,15,
5,15,15,15,15,15,15,15,15,15,15,15,15,15,15,15,
5,15,15,15,15,15,15,15,15,15,15,15,15,15,15,15,
5,5,15,15,15,15,15,15,15,15,15,15,15,15,15,15,
5,5,15,15,15,15,15,15,15,15,15,15,15,15,15,15
</chunk>
   <chunk x="1392" y="768" width="16" height="16">
15,15,15,15,15,15,15,15,15,15,15,15,15,15,15,15,
15,15,15,15,15,15,15,15,15,15,15,15,15,15,15,15,
15,15,15,15,15,15,15,15,15,15,15,15,15,15,15,15,
15,15,15,15,15,15,15,15,15,15,15,15,15,15,15,15,
15,15,15,15,15,15,15,15,15,15,15,15,15,15,15,15,
15,15,15,15,15,15,15,15,15,15,15,15,15,15,15,15,
15,15,15,15,15,15,15,15,15,15,15,15,15,15,15,15,
15,15,15,15,15,15,15,15,15,15,15,15,15,15,15,15,
15,15,15,15,15,15,15,15,15,15,15,15,15,15,15,15,
15,15,15,15,15,15,15,15,15,15,15,15,15,15,15,15,
15,15,15,15,15,15,15,15,15,15,15,15,15,15,15,15,
15,15,15,15,15,15,15,15,15,15,15,15,15,15,15,15,
15,15,15,15,15,15,15,15,15,15,15,15,15,15,15,15,
15,15,15,15,15,15,15,15,15,15,15,15,15,15,15,15,
15,15,15,15,15,15,15,15,15,15,15,15,15,15,15,15,
15,15,15,15,15,15,15,15,15,15,15,15,15,15,15,15
</chunk>
   <chunk x="1408" y="768" width="16" height="16">
15,15,15,15,15,15,15,15,15,15,15,15,35,35,35,35,
15,15,15,15,15,15,15,15,15,15,15,15,35,35,35,35,
15,15,15,15,15,15,15,15,15,15,15,15,35,35,35,35,
15,15,15,15,15,15,15,15,15,15,15,15,35,35,35,35,
15,15,15,15,15,15,15,15,15,15,15,15,35,35,35,35,
15,15,15,15,15,15,15,15,15,15,15,15,35,35,35,35,
15,15,15,15,15,15,15,15,15,15,15,15,35,35,35,35,
15,15,15,15,15,15,15,15,15,15,15,15,35,35,35,35,
15,15,15,15,15,15,15,15,15,15,15,35,35,35,35,35,
15,15,15,15,15,15,15,15,15,15,15,35,35,35,35,35,
15,15,15,15,15,15,15,15,15,15,15,35,35,35,35,35,
15,15,15,15,15,15,15,15,15,15,15,35,35,35,35,35,
15,15,15,15,15,15,15,15,15,15,35,35,35,35,35,35,
15,15,15,15,15,15,15,15,15,15,35,35,35,35,35,35,
15,15,15,15,15,15,15,15,15,35,35,35,35,35,35,35,
15,15,15,15,15,15,15,15,15,35,35,35,35,35,35,35
</chunk>
   <chunk x="1424" y="768" width="16" height="16">
35,35,35,35,35,35,35,35,35,35,35,35,35,35,35,35,
35,35,35,35,35,35,35,35,35,35,35,35,35,35,35,35,
35,35,35,35,35,35,35,35,35,35,35,35,35,35,35,35,
35,35,35,35,35,35,35,35,35,35,35,35,35,35,35,35,
35,35,35,35,35,35,35,35,35,35,35,35,35,35,35,35,
35,35,35,35,35,35,35,35,35,35,35,35,35,35,35,35,
35,35,35,35,35,35,35,35,35,35,35,35,35,35,35,35,
35,35,35,35,35,35,35,35,35,35,35,35,35,35,35,35,
35,35,35,35,35,35,35,35,35,35,35,35,35,35,35,35,
35,35,35,35,35,35,35,35,35,35,35,35,35,35,15,15,
35,35,35,35,35,35,35,35,35,35,35,15,15,15,15,15,
35,35,35,35,35,35,35,35,35,35,15,15,15,15,15,15,
35,35,35,35,35,35,35,35,35,35,15,15,15,15,15,15,
35,35,35,35,35,35,35,35,35,15,15,15,15,15,15,15,
35,35,35,35,35,35,35,35,35,15,15,15,15,15,15,15,
35,35,35,35,35,35,35,35,15,15,15,15,15,15,15,15
</chunk>
   <chunk x="1440" y="768" width="16" height="16">
35,35,35,35,35,35,35,35,35,35,35,35,35,35,35,35,
35,35,35,35,35,35,35,35,35,35,35,35,35,35,35,35,
35,35,35,35,35,35,35,35,35,35,35,35,35,35,35,35,
35,35,35,35,35,35,35,35,35,35,35,35,35,35,35,35,
35,35,35,35,35,35,35,35,35,35,35,35,35,35,35,35,
35,35,35,35,35,35,35,35,35,35,35,35,35,35,35,35,
35,35,35,35,35,35,35,35,35,35,35,35,35,35,35,35,
35,35,35,35,35,35,35,35,35,35,35,35,35,35,35,35,
35,35,35,35,35,35,35,35,35,35,35,35,35,35,35,35,
15,15,15,15,15,15,15,15,15,15,15,35,35,35,35,35,
15,15,15,15,15,15,15,15,15,15,15,15,15,15,15,35,
15,15,15,15,15,15,15,15,15,15,15,15,15,15,15,15,
15,15,15,15,15,15,15,15,15,15,15,15,15,15,15,15,
15,15,15,15,15,15,15,15,15,15,15,15,15,15,15,15,
15,15,15,15,15,15,15,15,15,15,15,15,15,15,15,15,
15,15,15,15,15,15,15,15,15,15,15,15,15,15,15,15
</chunk>
   <chunk x="1456" y="768" width="16" height="16">
35,35,35,35,35,35,35,35,35,35,35,35,35,35,35,35,
35,35,35,35,35,35,35,35,35,35,35,35,35,35,35,35,
35,35,35,35,35,35,35,35,35,35,35,35,35,35,35,35,
35,35,35,35,35,35,35,35,35,35,35,35,35,35,35,35,
35,35,35,35,35,35,35,35,35,35,35,35,35,35,35,35,
35,35,35,35,35,35,35,35,35,35,35,35,35,35,35,35,
35,35,35,35,35,35,35,35,35,35,35,35,35,35,35,35,
35,35,35,35,35,35,35,35,35,35,35,35,35,35,35,35,
35,35,35,35,35,35,35,35,35,35,35,35,35,35,35,35,
35,35,35,35,35,35,35,35,35,35,35,35,35,35,35,35,
35,35,35,35,35,35,35,35,35,35,35,35,35,35,35,35,
15,15,15,15,35,35,35,35,35,35,35,35,35,35,35,35,
15,15,15,15,15,15,15,15,15,15,15,35,35,35,35,35,
15,15,15,15,15,15,15,15,15,15,15,15,15,15,15,15,
15,15,15,15,15,15,15,15,15,15,15,15,15,15,15,15,
15,15,15,15,15,15,15,15,15,15,15,15,15,15,15,15
</chunk>
   <chunk x="1472" y="768" width="16" height="16">
35,35,35,35,35,35,35,35,35,35,35,15,15,15,15,15,
35,35,35,35,35,35,35,35,35,35,15,15,15,15,15,15,
35,35,35,35,35,35,35,35,35,35,15,15,15,15,15,15,
35,35,35,35,35,35,35,35,35,35,15,15,15,15,15,15,
35,35,35,35,35,35,35,35,35,35,15,15,15,15,15,15,
35,35,35,35,35,35,35,35,35,35,15,15,15,15,15,15,
35,35,35,35,35,35,35,35,35,15,15,15,15,15,15,15,
35,35,35,35,35,35,35,35,35,15,15,15,15,15,15,15,
35,35,35,35,35,35,35,35,15,15,15,15,15,15,15,15,
35,35,35,35,35,35,35,35,15,15,15,15,15,15,15,15,
35,35,35,35,35,35,35,15,15,15,15,15,15,15,15,15,
35,35,35,35,35,35,15,15,15,15,15,15,15,15,15,15,
35,35,35,35,35,15,15,15,15,15,15,15,15,15,15,15,
15,15,15,15,15,15,15,15,15,15,15,15,15,15,15,15,
15,15,15,15,15,15,15,15,15,15,15,15,15,15,15,15,
15,15,15,15,15,15,15,15,15,15,15,15,15,15,15,15
</chunk>
   <chunk x="1488" y="768" width="16" height="16">
15,15,15,15,15,15,15,15,15,15,15,15,15,15,15,15,
15,15,15,15,15,15,15,15,15,15,15,15,15,15,15,15,
15,15,15,15,15,15,15,15,15,15,15,15,15,15,15,15,
15,15,15,15,15,15,15,15,15,15,15,15,15,15,15,15,
15,15,15,15,15,15,15,15,15,15,15,15,15,15,15,15,
15,15,15,15,15,15,15,15,15,15,15,15,15,15,15,15,
15,15,15,15,15,15,15,15,15,15,15,15,15,15,15,15,
15,15,15,15,15,15,15,15,15,15,15,15,15,15,15,15,
15,15,15,15,15,15,15,15,15,15,15,15,15,15,15,15,
15,15,15,15,15,15,15,15,15,15,15,15,15,15,15,15,
15,15,15,15,15,15,15,15,15,15,15,15,15,15,15,15,
15,15,15,15,15,15,15,15,15,15,15,15,15,15,15,15,
15,15,15,15,15,15,15,15,15,15,15,15,15,15,15,15,
15,15,15,15,15,15,15,15,15,15,15,15,15,15,15,15,
15,15,15,15,15,15,15,15,15,15,15,15,15,15,15,15,
15,15,15,15,15,15,15,15,15,15,15,15,15,15,15,15
</chunk>
   <chunk x="1504" y="768" width="16" height="16">
15,15,15,15,15,15,15,15,15,15,15,15,15,15,15,15,
15,15,15,15,15,15,15,15,15,15,15,15,15,15,15,15,
15,15,15,15,15,15,15,15,15,15,15,15,15,15,15,15,
15,15,15,15,15,15,15,15,15,15,15,15,15,15,15,15,
15,15,15,15,15,15,15,15,15,15,15,15,15,15,15,15,
15,15,15,15,15,15,15,15,15,15,15,15,15,15,15,15,
15,15,15,15,15,15,15,15,15,15,15,15,15,15,15,15,
15,15,15,15,15,15,15,15,15,15,15,15,15,15,15,15,
15,15,15,15,15,15,15,15,15,15,15,15,15,15,15,15,
15,15,15,15,15,15,15,15,15,15,15,15,15,15,15,15,
15,15,15,15,15,15,15,15,15,15,15,15,15,15,15,15,
15,15,15,15,15,15,15,15,15,15,15,15,15,15,15,15,
15,15,15,15,15,15,15,15,15,15,15,15,15,15,15,15,
15,15,15,15,15,15,15,15,15,15,15,15,15,15,15,15,
15,15,15,15,15,15,15,15,15,15,15,15,15,15,15,15,
15,15,15,15,15,15,15,15,15,15,15,15,15,15,15,15
</chunk>
   <chunk x="1520" y="768" width="16" height="16">
15,15,15,15,15,15,15,15,15,15,15,35,35,35,35,35,
15,15,15,15,15,15,15,15,15,15,15,15,15,35,35,35,
15,15,15,15,15,15,15,15,15,15,15,15,15,15,35,35,
15,15,15,15,15,15,15,15,15,15,15,15,15,15,15,15,
15,15,15,15,15,15,15,15,15,15,15,15,15,15,15,15,
15,15,15,15,15,15,15,15,15,15,15,15,15,15,15,15,
15,15,15,15,15,15,15,15,15,15,15,15,15,15,15,15,
15,15,15,15,15,15,15,15,15,15,15,15,15,15,15,15,
15,15,15,15,15,15,15,15,15,15,15,15,15,15,15,15,
15,15,15,15,15,15,15,15,15,15,15,15,15,15,15,15,
15,15,15,15,15,15,15,15,15,15,15,15,15,15,15,15,
15,15,15,15,15,15,15,15,15,15,15,15,15,15,15,15,
15,15,15,15,15,15,15,15,15,15,15,15,15,15,15,15,
15,15,15,15,15,15,15,15,15,15,15,15,15,15,15,15,
15,15,15,15,15,15,15,15,15,15,15,15,15,15,15,15,
15,15,15,15,15,15,15,15,15,15,15,15,15,15,15,15
</chunk>
   <chunk x="1536" y="768" width="16" height="16">
35,35,35,35,35,35,35,35,35,35,35,35,35,35,35,35,
35,35,35,35,35,35,35,35,35,35,35,35,35,35,35,35,
35,35,35,35,35,35,35,35,35,35,35,35,35,35,35,35,
35,35,35,35,35,35,35,35,35,35,35,35,35,35,35,35,
15,15,35,35,35,35,35,35,35,35,35,35,35,35,35,35,
15,15,15,35,35,35,35,35,35,35,35,35,35,35,35,35,
15,15,15,15,15,35,35,35,35,35,35,35,35,35,35,35,
15,15,15,15,15,15,35,35,35,35,35,35,35,35,35,35,
15,15,15,15,15,15,15,15,35,35,35,35,35,35,35,35,
15,15,15,15,15,15,15,15,15,15,35,35,35,35,35,35,
15,15,15,15,15,15,15,15,15,15,15,15,35,35,35,35,
15,15,15,15,15,15,15,15,15,15,15,15,15,15,35,35,
15,15,15,15,15,15,15,15,15,15,15,15,15,15,15,15,
15,15,15,15,15,15,15,15,15,15,15,15,15,15,15,15,
15,15,15,15,15,15,15,15,15,15,15,15,15,15,15,15,
15,15,15,15,15,15,15,15,15,15,15,15,15,15,15,15
</chunk>
   <chunk x="1552" y="768" width="16" height="16">
35,35,35,35,35,35,35,35,35,35,35,0,0,0,0,0,
35,35,35,35,35,35,35,35,35,35,35,0,0,0,0,0,
35,35,35,35,35,35,35,35,35,35,35,0,0,0,0,0,
35,35,35,35,35,35,35,35,35,35,35,0,0,0,0,0,
35,35,35,35,35,35,35,35,35,35,35,0,0,0,0,0,
35,35,35,35,35,35,35,35,35,35,35,0,0,0,0,0,
35,35,35,35,35,35,35,35,35,35,35,0,0,0,0,0,
35,35,35,35,35,35,35,35,35,35,35,0,0,0,0,0,
35,35,35,35,35,35,35,35,35,35,35,0,0,0,0,0,
35,35,35,35,35,35,35,35,35,35,35,0,0,0,0,0,
35,35,35,35,35,35,35,35,35,35,35,0,0,0,0,0,
35,35,35,35,35,35,35,35,35,35,35,0,0,0,0,0,
35,35,35,35,35,35,35,35,35,35,35,0,0,0,0,0,
15,15,35,35,35,35,35,35,35,35,35,0,0,0,0,0,
15,15,15,15,35,35,35,35,35,35,35,0,0,0,0,0,
15,15,15,15,15,15,35,35,35,35,35,0,0,0,0,0
</chunk>
   <chunk x="1232" y="784" width="16" height="16">
0,0,15,15,15,15,15,15,15,15,15,15,15,15,15,15,
0,0,15,15,15,15,15,15,15,15,15,15,15,15,15,15,
0,0,15,15,15,15,15,15,15,15,15,15,15,15,15,15,
0,0,15,15,15,15,15,15,15,15,15,15,15,15,15,15,
0,0,15,15,15,15,15,15,15,15,15,15,15,15,15,15,
0,0,15,15,15,15,15,15,15,15,15,15,15,15,15,15,
0,0,15,15,15,15,15,15,15,15,15,15,15,15,15,15,
0,0,15,15,15,15,15,15,15,15,15,15,15,15,15,15,
0,0,15,15,15,15,15,15,15,15,15,15,15,15,15,15,
0,0,15,15,15,15,15,15,15,15,15,15,15,15,15,15,
0,0,15,15,15,15,15,15,15,15,15,15,15,15,15,15,
0,0,15,15,15,15,15,15,15,15,15,15,15,15,15,15,
0,0,15,15,15,15,15,15,15,15,15,15,15,15,15,15,
0,0,15,15,15,15,15,15,15,15,15,15,15,15,15,15,
0,0,15,15,15,15,15,15,15,15,15,15,15,15,15,15,
0,0,15,15,15,15,15,15,15,15,15,15,15,15,15,15
</chunk>
   <chunk x="1248" y="784" width="16" height="16">
15,15,15,15,15,15,15,15,15,15,15,15,15,15,15,15,
15,15,15,15,15,15,15,15,15,15,15,15,15,15,15,15,
15,15,15,15,15,15,15,15,15,15,15,15,15,15,15,15,
15,15,15,15,15,15,15,15,15,15,15,15,15,15,15,15,
15,15,15,15,15,15,15,15,15,15,15,15,15,15,15,15,
15,15,15,15,15,15,15,15,15,15,15,15,15,15,15,15,
15,15,15,15,15,15,15,15,15,15,15,15,15,15,15,15,
15,15,15,15,15,15,15,15,15,15,15,15,15,15,15,15,
15,15,15,15,15,15,15,15,15,15,15,15,15,15,15,15,
15,15,15,15,15,15,15,15,15,15,15,15,15,15,15,15,
15,15,15,15,15,15,15,15,15,15,15,15,15,15,15,15,
15,15,15,15,15,15,15,15,15,15,15,15,15,15,15,15,
15,15,15,15,15,15,15,15,15,15,15,15,15,15,15,15,
15,15,15,15,15,15,15,15,15,15,15,15,15,15,15,15,
15,15,15,15,15,15,15,15,15,15,15,15,15,15,15,15,
15,15,15,15,15,15,15,15,15,15,15,15,15,15,15,15
</chunk>
   <chunk x="1264" y="784" width="16" height="16">
15,15,15,15,15,15,15,15,15,15,15,15,15,15,15,15,
15,15,15,15,15,15,15,15,15,15,15,15,15,15,15,15,
15,15,15,15,15,15,15,15,15,15,15,15,15,15,15,15,
15,15,15,15,15,15,15,15,15,15,15,15,15,15,15,15,
15,15,15,15,15,15,15,15,15,15,15,15,15,15,15,15,
15,15,15,15,15,15,15,15,15,15,15,15,15,15,15,15,
15,15,15,15,15,15,15,15,15,15,15,15,15,15,15,15,
15,15,15,15,15,15,15,15,15,15,15,15,15,15,15,15,
15,15,15,15,15,15,15,15,15,15,15,15,15,15,15,15,
15,15,15,15,15,15,15,15,15,15,15,15,15,15,15,15,
15,15,15,15,15,15,15,15,15,15,15,15,15,15,15,15,
15,15,15,15,15,15,15,15,15,15,15,15,15,15,15,15,
15,15,15,15,15,15,15,15,15,15,15,15,15,15,15,15,
15,15,15,15,15,15,15,15,15,15,15,15,15,15,15,15,
15,15,15,15,15,15,15,15,15,15,15,15,15,15,15,15,
15,15,15,15,15,15,15,15,15,15,15,15,15,15,15,15
</chunk>
   <chunk x="1280" y="784" width="16" height="16">
15,15,15,15,15,15,15,15,15,15,15,15,15,15,15,15,
15,15,15,15,15,15,15,15,15,15,15,15,15,15,15,15,
15,15,15,15,15,15,15,15,15,15,15,15,15,15,15,15,
15,15,15,15,15,15,15,15,15,15,15,15,15,15,15,15,
15,15,15,15,15,15,15,15,15,15,15,15,15,15,15,15,
15,15,15,15,15,15,15,15,15,15,15,15,15,15,15,15,
15,15,15,15,15,15,15,15,15,15,15,15,15,15,15,15,
15,15,15,15,15,15,15,15,15,15,15,15,15,15,15,15,
15,15,15,15,15,15,15,15,15,15,15,15,15,15,15,15,
15,15,15,15,15,15,15,15,15,15,15,15,15,15,15,15,
15,15,15,15,15,15,15,15,15,15,15,15,15,15,15,15,
15,15,15,15,15,15,15,15,15,15,15,15,15,15,15,15,
15,15,15,15,15,15,15,15,15,15,15,15,15,15,15,15,
15,15,15,15,15,15,15,15,15,15,15,15,15,15,15,15,
15,15,15,15,15,15,15,15,15,15,15,15,15,15,15,15,
15,15,15,15,15,15,15,15,15,15,15,15,15,15,15,15
</chunk>
   <chunk x="1296" y="784" width="16" height="16">
35,35,35,35,35,35,35,35,35,35,35,35,15,15,15,15,
15,35,35,35,35,35,35,35,35,35,35,35,15,15,15,15,
15,15,35,35,35,35,35,35,35,35,35,15,15,15,15,15,
15,15,35,35,35,35,35,35,35,35,35,15,15,15,15,15,
15,15,15,35,35,35,35,35,35,35,35,15,15,15,15,15,
15,15,15,15,35,35,35,35,35,35,35,35,15,15,15,15,
15,15,15,15,35,35,35,35,35,35,35,35,15,15,15,15,
15,15,15,15,15,35,35,35,35,35,35,35,35,15,15,15,
15,15,15,15,15,35,35,35,35,35,35,35,35,15,15,15,
15,15,15,15,15,15,35,35,35,35,35,35,35,15,15,15,
15,15,15,15,15,15,35,35,35,35,35,35,35,35,15,15,
15,15,15,15,15,15,15,35,35,35,35,35,35,35,35,15,
15,15,15,15,15,15,15,35,35,35,35,35,35,35,35,15,
15,15,15,15,15,15,15,15,35,35,35,35,35,35,35,35,
15,15,15,15,15,15,15,15,35,35,35,35,35,35,35,35,
15,15,15,15,15,15,15,15,15,35,35,35,35,35,35,35
</chunk>
   <chunk x="1312" y="784" width="16" height="16">
15,15,15,15,15,15,15,15,15,15,15,15,15,15,15,15,
15,15,15,15,15,15,15,15,15,15,15,15,15,15,15,15,
15,15,15,15,15,15,15,15,15,15,15,15,15,15,15,15,
15,15,15,15,15,15,15,15,15,15,15,15,15,15,15,15,
15,15,15,15,15,15,15,15,15,15,15,15,15,15,15,15,
15,15,15,15,15,15,15,15,15,15,15,15,15,15,15,15,
15,15,15,15,15,15,15,15,15,15,15,15,15,15,15,15,
15,15,15,15,15,15,15,15,15,15,15,15,15,15,15,15,
15,15,15,15,15,15,15,15,15,15,15,15,15,15,15,15,
15,15,15,15,15,15,15,15,15,15,15,15,15,15,15,15,
15,15,15,15,15,15,15,15,15,15,15,15,15,15,15,15,
15,15,15,15,15,15,15,15,15,15,15,15,15,15,15,15,
15,15,15,15,15,15,15,15,15,15,15,15,15,15,15,15,
15,15,15,15,15,15,15,15,15,15,15,15,15,15,15,15,
15,15,15,15,15,15,15,15,15,15,15,15,15,15,15,15,
35,15,15,15,15,15,15,15,15,15,15,15,15,15,15,15
</chunk>
   <chunk x="1328" y="784" width="16" height="16">
15,15,15,15,15,15,15,15,15,15,15,15,15,15,15,15,
15,15,15,15,15,15,15,15,15,15,15,15,15,15,15,15,
15,15,15,15,15,15,15,15,15,15,15,15,15,15,15,15,
15,15,15,15,15,15,15,15,15,15,15,15,15,15,15,15,
15,15,15,15,15,15,15,15,15,15,15,15,15,15,15,15,
15,15,15,15,15,15,15,15,15,15,15,15,15,15,15,15,
15,15,15,15,15,15,15,15,15,15,15,15,15,15,15,15,
15,15,15,15,15,15,15,15,15,15,15,15,15,15,15,15,
15,15,15,15,15,15,15,15,15,15,15,15,15,15,15,15,
15,15,15,15,15,15,15,15,15,15,15,15,15,15,15,15,
15,15,15,15,15,15,15,15,15,15,15,15,15,15,15,15,
15,15,15,15,15,15,15,15,15,15,15,15,15,15,15,15,
15,15,15,15,15,15,15,15,15,15,15,15,15,15,15,15,
15,15,15,15,15,15,15,15,15,15,15,15,15,15,15,15,
15,15,15,15,15,15,15,15,15,15,15,15,15,15,15,15,
15,15,15,15,15,15,15,15,15,15,15,15,15,15,15,15
</chunk>
   <chunk x="1344" y="784" width="16" height="16">
15,15,15,15,15,15,15,5,5,5,5,5,5,5,5,5,
15,15,15,15,15,15,15,5,5,5,5,5,5,5,5,5,
15,15,15,15,15,15,5,5,5,5,5,5,5,5,5,5,
15,15,15,15,15,5,5,5,5,5,5,5,5,5,5,5,
15,15,15,15,5,5,5,5,5,5,5,5,5,5,5,5,
15,15,15,5,5,5,5,5,5,5,5,5,5,5,5,5,
15,15,15,5,5,5,5,5,5,5,5,5,5,5,5,5,
15,15,5,5,5,5,5,5,5,5,5,5,5,5,5,5,
15,15,5,5,5,5,5,5,5,5,5,5,5,5,5,5,
15,15,5,5,5,5,5,5,5,5,5,5,5,5,5,5,
15,15,5,5,5,5,5,5,5,5,5,5,5,5,5,5,
15,15,5,5,5,5,5,5,5,5,5,5,5,5,5,5,
15,15,5,5,5,5,5,5,5,5,5,5,5,5,5,5,
15,15,5,5,5,5,5,5,5,5,5,5,5,5,5,5,
15,15,5,5,5,5,5,5,5,5,5,5,5,5,5,5,
15,15,5,5,5,5,5,5,5,5,5,5,5,5,5,5
</chunk>
   <chunk x="1360" y="784" width="16" height="16">
5,5,5,5,5,5,5,5,5,5,5,5,5,5,5,5,
5,5,5,5,5,5,5,5,5,5,5,5,5,5,5,5,
5,5,5,5,5,5,5,5,5,5,5,5,5,5,5,5,
5,5,5,5,5,5,5,5,5,5,5,5,5,5,5,5,
5,5,5,5,5,5,5,5,5,5,5,5,5,5,5,5,
5,5,5,5,5,5,5,5,5,5,5,5,5,5,5,5,
5,5,5,5,5,5,5,5,5,5,5,5,5,5,5,5,
5,5,5,5,5,5,5,5,5,5,5,5,5,5,5,5,
5,5,5,5,5,5,5,5,5,5,5,5,5,5,5,5,
5,5,5,5,5,5,5,5,5,5,5,5,5,5,5,5,
5,5,5,5,5,5,5,5,5,5,5,5,5,5,5,5,
5,5,5,5,5,5,5,5,5,5,5,5,5,5,5,5,
5,5,5,5,5,5,5,5,5,5,5,5,5,5,5,5,
5,5,5,5,5,5,5,5,5,5,5,5,5,5,5,5,
5,5,5,5,5,5,5,5,5,5,5,5,5,5,5,5,
5,5,5,5,5,5,5,5,5,5,5,5,5,5,5,5
</chunk>
   <chunk x="1376" y="784" width="16" height="16">
5,5,15,15,15,15,15,15,15,15,15,15,15,15,15,15,
5,5,5,15,15,15,15,15,15,15,15,15,15,15,15,15,
5,5,5,15,15,15,15,15,15,15,15,15,15,15,15,15,
5,5,5,15,15,15,15,15,15,15,15,15,15,15,15,15,
5,5,5,5,15,15,15,15,15,15,15,15,15,15,15,15,
5,5,5,5,15,15,15,15,15,15,15,15,15,15,15,15,
5,5,5,5,15,15,15,15,15,15,15,15,15,15,15,15,
5,5,5,5,5,15,15,15,15,15,15,15,15,15,15,15,
5,5,5,5,5,15,15,15,15,15,15,15,15,15,15,15,
5,5,5,5,5,15,15,15,15,15,15,15,15,15,15,15,
5,5,5,5,5,15,15,15,15,15,15,15,15,15,15,15,
5,5,5,5,5,15,15,15,15,15,15,15,15,15,15,15,
5,5,5,5,5,5,15,15,15,15,15,15,15,15,15,15,
5,5,5,5,5,5,15,15,15,15,15,15,15,15,15,15,
5,5,5,5,5,5,15,15,15,15,15,15,15,15,15,15,
5,5,5,5,5,15,15,15,15,15,15,15,15,15,15,15
</chunk>
   <chunk x="1392" y="784" width="16" height="16">
15,15,15,15,15,15,15,15,15,15,15,15,15,15,15,15,
15,15,15,15,15,15,15,15,15,15,15,15,15,15,15,15,
15,15,15,15,15,15,15,15,15,15,15,15,15,15,15,15,
15,15,15,15,15,15,15,15,15,15,15,15,15,15,15,15,
15,15,15,15,15,15,15,15,15,15,15,35,35,35,35,35,
15,15,15,15,15,15,35,35,35,35,35,35,35,35,35,35,
15,15,15,15,35,35,35,35,35,35,35,35,35,35,35,35,
15,15,15,35,35,35,35,35,35,35,35,35,35,35,35,35,
15,15,15,35,35,35,35,35,35,35,35,35,35,35,35,35,
15,15,35,35,35,35,35,35,35,35,35,35,35,35,35,35,
15,15,35,35,35,35,35,35,35,35,35,35,35,35,35,35,
15,15,35,35,35,35,35,35,35,35,35,35,35,35,35,35,
15,15,35,35,35,35,35,35,35,35,35,35,35,35,35,35,
15,15,35,35,35,35,35,35,35,35,35,35,35,35,35,35,
15,15,35,35,35,35,35,35,35,35,35,35,35,35,35,35,
15,15,35,35,35,35,35,35,35,35,35,35,35,35,35,15
</chunk>
   <chunk x="1408" y="784" width="16" height="16">
15,15,15,15,15,15,15,35,35,35,35,35,35,35,35,35,
15,15,15,15,15,15,35,35,35,35,35,35,35,35,35,35,
15,15,15,15,35,35,35,35,35,35,35,35,35,35,35,35,
35,35,35,35,35,35,35,35,35,35,35,35,35,35,35,35,
35,35,35,35,35,35,35,35,35,35,35,35,35,35,35,35,
35,35,35,35,35,35,35,35,35,35,35,35,35,35,35,35,
35,35,35,35,35,35,35,35,35,35,35,35,35,35,35,35,
35,35,35,35,35,35,35,35,35,35,35,35,15,15,15,15,
35,35,35,35,35,35,35,35,35,35,15,15,15,15,15,15,
35,35,35,35,35,35,35,35,35,15,15,15,15,15,15,15,
35,35,35,35,35,35,35,15,15,15,15,15,15,15,15,15,
35,35,35,35,35,15,15,15,15,15,15,15,15,15,15,15,
35,35,35,15,15,15,15,15,15,15,15,15,15,15,15,15,
35,15,15,15,15,15,15,15,15,15,15,15,15,15,15,15,
15,15,15,15,15,15,15,15,15,15,15,15,15,15,15,15,
15,15,15,15,15,15,15,15,15,15,15,15,15,15,15,15
</chunk>
   <chunk x="1424" y="784" width="16" height="16">
35,35,35,35,35,35,35,15,15,15,15,15,15,15,15,15,
35,35,35,35,35,35,35,15,15,15,15,15,15,15,15,15,
35,35,35,35,35,15,15,15,15,15,15,15,15,15,15,15,
35,35,35,35,15,15,15,15,15,15,15,15,15,15,15,15,
35,35,15,15,15,15,15,15,15,15,15,15,15,15,15,15,
35,35,15,15,15,15,15,15,15,15,15,15,15,15,15,15,
15,15,15,15,15,15,15,15,15,15,15,15,15,15,15,15,
15,15,15,15,15,15,15,15,15,15,15,15,15,15,15,15,
15,15,15,15,15,15,15,15,15,15,15,15,15,15,15,15,
15,15,15,15,15,15,15,15,15,15,15,15,15,15,15,15,
15,15,15,15,15,15,15,15,15,15,15,15,15,15,15,15,
15,15,15,15,15,15,15,15,15,15,15,15,15,15,15,15,
15,15,15,15,15,15,15,15,15,15,15,15,15,15,15,15,
15,15,15,15,15,15,15,15,15,15,15,15,15,15,15,15,
15,15,15,15,15,15,15,15,15,15,15,15,15,15,15,15,
15,15,15,15,15,15,15,15,15,15,15,15,15,15,15,15
</chunk>
   <chunk x="1440" y="784" width="16" height="16">
15,15,15,15,15,15,15,15,15,15,15,15,15,15,15,15,
15,15,15,15,15,15,15,15,15,15,15,15,15,15,15,15,
15,15,15,15,15,15,15,15,15,15,15,15,15,15,15,15,
15,15,15,15,15,15,15,15,15,15,15,15,15,15,15,15,
15,15,15,15,15,15,15,15,15,15,15,15,15,15,15,15,
15,15,15,15,15,15,15,15,15,15,15,15,15,15,15,15,
15,15,15,15,15,15,15,15,15,15,15,15,15,15,15,15,
15,15,15,15,15,15,15,15,15,15,15,15,15,15,15,15,
15,15,15,15,15,15,15,15,15,15,15,15,15,15,15,15,
15,15,15,15,15,15,15,15,15,15,15,15,15,15,15,15,
15,15,15,15,15,15,15,15,15,15,15,15,15,15,15,15,
15,15,15,15,15,15,15,15,15,15,15,15,15,15,15,15,
15,15,15,15,15,15,15,15,15,15,15,15,15,15,15,15,
15,15,15,15,15,15,15,15,15,15,15,15,15,15,15,15,
15,15,15,15,15,15,15,15,15,15,15,15,15,15,15,15,
15,15,15,15,15,15,15,15,15,15,15,15,15,15,15,15
</chunk>
   <chunk x="1456" y="784" width="16" height="16">
15,15,15,15,15,15,15,15,15,15,15,15,15,15,15,15,
15,15,15,15,15,15,15,15,15,15,15,15,15,15,15,15,
15,15,15,15,15,15,15,15,15,15,15,15,15,15,15,15,
15,15,15,15,15,15,15,15,15,15,15,15,15,15,15,15,
15,15,15,15,15,15,15,15,15,15,15,15,15,15,15,15,
15,15,15,15,15,15,15,15,15,15,15,15,15,15,15,15,
15,15,15,15,15,15,15,15,15,15,15,15,15,15,15,15,
15,15,15,15,15,15,15,15,15,15,15,15,15,15,15,15,
15,15,15,15,15,15,15,15,15,15,15,15,15,15,15,15,
15,15,15,15,15,15,15,15,15,15,15,15,15,15,15,15,
15,15,15,15,15,15,15,15,15,15,15,15,15,15,15,15,
15,15,15,15,15,15,15,15,15,15,15,15,15,15,15,15,
15,15,15,15,15,15,15,15,15,15,15,15,15,15,15,15,
15,15,15,15,15,15,15,15,15,15,15,15,15,15,15,15,
15,15,15,15,15,15,15,15,15,15,15,15,15,15,15,15,
15,15,15,15,15,15,15,15,15,15,15,15,15,15,15,15
</chunk>
   <chunk x="1472" y="784" width="16" height="16">
15,15,15,15,15,15,15,15,15,15,15,15,15,15,15,15,
15,15,15,15,15,15,15,15,15,15,15,15,15,15,15,15,
15,15,15,15,15,15,15,15,15,15,15,15,15,15,15,15,
15,15,15,15,15,15,15,15,15,15,15,15,15,15,15,15,
15,15,15,15,15,15,15,15,15,15,15,15,15,15,15,15,
15,15,15,15,15,15,15,15,15,15,15,15,15,15,15,15,
15,15,15,15,15,15,15,15,15,15,15,15,15,15,15,15,
15,15,15,15,15,15,15,15,15,15,15,15,15,15,15,15,
15,15,15,15,15,15,15,15,15,15,15,15,15,15,15,15,
15,15,15,15,15,15,15,15,15,15,15,15,15,15,15,15,
15,15,15,15,15,15,15,15,15,15,15,15,15,15,15,15,
15,15,15,15,15,15,15,15,15,15,15,15,15,15,15,15,
15,15,15,15,15,15,15,15,15,15,15,15,15,15,15,15,
15,15,15,15,15,15,15,15,15,15,15,15,15,15,15,15,
15,15,15,15,15,15,15,15,15,15,15,15,15,15,15,15,
15,15,15,15,15,15,15,15,15,15,15,15,15,15,15,15
</chunk>
   <chunk x="1488" y="784" width="16" height="16">
15,15,15,15,15,15,15,15,15,15,15,15,15,15,15,15,
15,15,15,15,15,15,15,15,15,15,15,15,15,15,15,15,
15,15,15,15,15,15,15,15,15,15,15,15,15,15,15,15,
15,15,15,15,15,15,15,15,15,15,15,15,15,15,15,15,
15,15,15,15,15,15,15,15,15,15,15,15,15,15,15,15,
15,15,15,15,15,15,15,15,15,15,15,15,15,15,15,15,
15,15,15,15,15,15,15,15,15,15,15,15,15,15,15,15,
15,15,15,15,15,15,15,15,15,15,15,15,15,15,15,15,
15,15,15,15,15,15,15,15,15,15,15,15,15,15,15,15,
15,15,15,15,15,15,15,15,15,15,15,15,15,15,15,15,
15,15,15,15,15,15,15,15,15,15,15,15,15,15,15,15,
15,15,15,15,15,15,15,15,15,15,15,15,15,15,15,15,
15,15,15,15,15,15,15,15,15,15,15,15,15,15,15,15,
15,15,15,15,15,15,15,15,15,15,15,15,15,15,15,15,
15,15,15,15,15,15,15,15,15,15,15,15,15,15,15,15,
15,15,15,15,15,15,15,15,15,15,15,15,15,15,15,15
</chunk>
   <chunk x="1504" y="784" width="16" height="16">
15,15,15,15,15,15,15,15,15,15,15,15,15,15,15,15,
15,15,15,15,15,15,15,15,15,15,15,15,15,15,15,15,
15,15,15,15,15,15,15,15,15,15,15,15,15,15,15,15,
15,15,15,15,15,15,15,15,15,15,15,15,15,15,15,15,
15,15,15,15,15,15,15,15,15,15,15,15,15,15,15,15,
15,15,15,15,15,15,15,15,15,15,15,15,15,15,15,15,
15,15,15,15,15,15,15,15,15,15,15,15,15,15,15,15,
15,15,15,15,15,15,15,15,15,15,15,15,15,15,15,15,
15,15,15,15,15,15,15,15,15,15,15,15,15,15,15,15,
15,15,15,15,15,15,15,15,15,15,15,15,15,15,15,15,
15,15,15,15,15,15,15,15,15,15,15,15,15,15,15,15,
15,15,15,15,15,15,15,15,15,15,15,15,15,15,15,15,
15,15,15,15,15,15,15,15,15,15,15,15,15,15,15,15,
15,15,15,15,15,15,15,15,15,15,15,15,15,15,15,15,
15,15,15,15,15,15,15,15,15,15,15,15,15,15,15,15,
15,15,15,15,15,15,15,15,15,15,15,15,15,15,15,15
</chunk>
   <chunk x="1520" y="784" width="16" height="16">
15,15,15,15,15,15,15,15,15,15,15,15,15,15,15,15,
15,15,15,15,15,15,15,15,15,15,15,15,15,15,15,15,
15,15,15,15,15,15,15,15,15,15,15,15,15,15,15,15,
15,15,15,15,15,15,15,15,15,15,15,15,15,15,15,15,
15,15,15,15,15,15,15,15,15,15,15,15,15,15,15,15,
15,15,15,15,15,15,15,15,15,15,15,15,15,15,15,15,
15,15,15,15,15,15,15,15,15,15,15,15,15,15,15,15,
15,15,15,15,15,15,15,15,15,15,15,15,15,15,15,15,
15,15,15,15,15,15,15,15,15,15,15,15,15,15,15,15,
15,15,15,15,15,15,15,15,15,15,15,15,15,15,15,15,
15,15,15,15,15,15,15,15,15,15,15,15,15,15,15,15,
15,15,15,15,15,15,15,15,15,15,15,15,15,15,15,15,
15,15,15,15,15,15,15,15,15,15,15,15,15,15,15,15,
15,15,15,15,15,15,15,15,15,15,15,15,15,15,15,15,
15,15,15,15,15,15,15,15,15,15,15,15,15,15,15,15,
15,15,15,15,15,15,15,15,15,15,15,15,15,15,15,15
</chunk>
   <chunk x="1536" y="784" width="16" height="16">
15,15,15,15,15,15,15,15,15,15,15,15,15,15,15,15,
15,15,15,15,15,15,15,15,15,15,15,15,15,15,15,15,
15,15,15,15,15,15,15,15,15,15,15,15,15,15,15,15,
15,15,15,15,15,15,15,15,15,15,15,15,15,15,15,15,
15,15,15,15,15,15,15,15,15,15,15,15,15,15,15,15,
15,15,15,15,15,15,15,15,15,15,15,15,15,15,15,15,
15,15,15,15,15,15,15,15,15,15,15,15,15,15,15,15,
15,15,15,15,15,15,15,15,15,15,15,15,15,15,15,15,
15,15,15,15,15,15,15,15,15,15,15,15,15,15,15,15,
15,15,15,15,15,15,15,15,15,15,15,15,15,15,15,15,
15,15,15,15,15,15,15,15,15,15,15,15,15,15,15,15,
15,15,15,15,15,15,15,15,15,15,15,15,15,15,15,15,
15,15,15,15,15,15,15,15,15,15,15,15,15,15,15,15,
15,15,15,15,15,15,15,15,15,15,15,15,15,15,15,15,
15,15,15,15,15,15,15,15,15,15,15,15,15,15,15,15,
15,15,15,15,15,15,15,15,15,15,15,15,15,15,15,15
</chunk>
   <chunk x="1552" y="784" width="16" height="16">
15,15,15,15,15,15,15,15,15,35,35,0,0,0,0,0,
15,15,15,15,15,15,15,15,15,15,35,0,0,0,0,0,
15,15,15,15,15,15,15,15,15,15,15,0,0,0,0,0,
15,15,15,15,15,15,15,15,15,15,15,0,0,0,0,0,
15,15,15,15,15,15,15,15,15,15,15,0,0,0,0,0,
15,15,15,15,15,15,15,15,15,15,15,0,0,0,0,0,
15,15,15,15,15,15,15,15,15,15,15,0,0,0,0,0,
15,15,15,15,15,15,15,15,15,15,15,0,0,0,0,0,
15,15,15,15,15,15,15,15,15,15,15,0,0,0,0,0,
15,15,15,15,15,15,15,15,15,15,15,0,0,0,0,0,
15,15,15,15,15,15,15,15,15,15,15,0,0,0,0,0,
15,15,15,15,15,15,15,15,15,15,15,0,0,0,0,0,
15,15,15,15,15,15,15,15,15,15,15,0,0,0,0,0,
15,15,15,15,15,15,15,15,15,15,15,0,0,0,0,0,
15,15,15,15,15,15,15,15,15,15,15,0,0,0,0,0,
15,15,15,15,15,15,15,15,15,15,15,0,0,0,0,0
</chunk>
   <chunk x="1232" y="800" width="16" height="16">
0,0,15,15,15,15,15,15,15,15,15,15,15,15,15,15,
0,0,15,15,15,15,15,15,15,15,15,15,15,15,15,15,
0,0,15,15,15,15,15,15,15,15,15,15,15,15,15,15,
0,0,15,15,15,15,15,15,15,15,15,15,15,15,15,15,
0,0,15,15,15,15,15,15,15,15,15,15,15,15,15,15,
0,0,15,15,15,15,15,15,15,15,15,15,15,15,15,15,
0,0,15,15,15,15,15,15,15,15,15,15,15,15,15,15,
0,0,15,15,15,15,15,15,15,15,15,15,15,15,15,15,
0,0,15,15,15,15,15,15,15,15,15,15,15,15,15,15,
0,0,15,15,15,15,15,15,15,15,15,15,15,15,15,15,
0,0,15,15,15,15,15,15,15,15,15,15,15,15,15,15,
0,0,15,15,15,15,15,15,15,15,15,15,15,15,15,15,
0,0,15,15,15,15,15,15,15,15,15,15,15,15,15,15,
0,0,15,15,15,15,15,15,15,15,15,15,15,15,15,15,
0,0,15,15,15,15,15,15,15,15,15,15,15,15,15,15,
0,0,0,0,0,0,0,0,0,0,0,0,0,0,0,0
</chunk>
   <chunk x="1248" y="800" width="16" height="16">
15,15,15,15,15,15,15,15,15,15,15,15,15,15,15,15,
15,15,15,15,15,15,15,15,15,15,15,15,15,15,15,15,
15,15,15,15,15,15,15,15,15,15,15,15,15,15,15,15,
15,15,15,15,15,15,15,15,15,15,15,15,15,15,15,15,
15,15,15,15,15,15,15,15,15,15,15,15,15,15,15,15,
15,15,15,15,15,15,15,15,15,15,15,15,15,15,15,15,
15,15,15,15,15,15,15,15,15,15,15,15,15,15,15,15,
15,15,15,15,15,15,15,15,15,15,15,15,15,15,15,15,
15,15,15,15,15,15,15,15,15,15,15,15,15,15,15,15,
15,15,15,15,15,15,15,15,15,15,15,15,15,15,15,15,
15,15,15,15,15,15,15,15,15,15,15,15,15,15,15,15,
15,15,15,15,15,15,15,15,15,15,15,15,15,15,15,15,
15,15,15,15,15,15,15,15,15,15,15,15,15,15,15,15,
15,15,15,15,15,15,15,15,15,15,15,15,15,15,15,15,
15,15,15,15,15,15,15,15,15,15,15,15,15,15,15,15,
0,0,0,0,0,0,0,0,0,0,0,0,0,0,0,0
</chunk>
   <chunk x="1264" y="800" width="16" height="16">
15,15,15,15,15,15,15,15,15,15,15,15,15,15,15,15,
15,15,15,15,15,15,15,15,15,15,15,15,15,15,15,15,
15,15,15,15,15,15,15,15,15,15,15,15,15,15,15,15,
15,15,15,15,15,15,15,15,15,15,15,15,15,15,15,15,
15,15,15,15,15,15,15,15,15,15,15,15,15,15,15,15,
15,15,15,15,15,15,15,15,15,15,15,15,15,15,15,15,
15,15,15,15,15,15,15,15,15,15,15,15,15,15,15,15,
15,15,15,15,15,15,15,15,15,15,15,15,15,15,15,15,
15,15,15,15,15,15,15,15,15,15,15,15,15,15,15,15,
15,15,15,15,15,15,15,15,15,15,15,15,15,15,15,15,
15,15,15,15,15,15,15,15,15,15,15,15,15,15,15,15,
15,15,15,15,15,15,15,15,15,15,15,15,15,15,15,15,
15,15,15,15,15,15,15,15,15,15,15,15,15,15,15,15,
15,15,15,15,15,15,15,15,15,15,15,15,15,15,15,15,
15,15,15,15,15,15,15,15,15,15,15,15,15,15,15,15,
15,15,15,15,15,15,15,15,15,15,15,15,15,15,15,15
</chunk>
   <chunk x="1280" y="800" width="16" height="16">
15,15,15,15,15,15,15,15,15,15,15,15,15,15,15,15,
15,15,15,15,15,15,15,15,15,15,15,15,15,15,15,15,
15,15,15,15,15,15,15,15,15,15,15,15,15,15,15,15,
15,15,15,15,15,15,15,15,15,15,15,15,15,15,15,15,
15,15,15,15,15,15,15,15,15,15,15,15,15,15,15,15,
15,15,15,15,15,15,15,15,15,15,15,15,15,15,15,15,
15,15,15,15,15,15,15,15,15,15,15,15,15,15,15,15,
15,15,15,15,15,15,15,15,15,15,15,15,15,15,15,15,
15,15,15,15,15,15,15,15,15,15,15,15,15,15,15,15,
15,15,15,15,15,15,15,15,15,15,15,15,15,15,15,15,
15,15,15,15,15,15,15,15,15,15,15,15,15,15,15,15,
15,15,15,15,15,15,15,15,15,15,15,15,15,15,15,15,
15,15,15,15,15,15,15,15,15,15,15,15,15,15,15,15,
15,15,15,15,15,15,15,15,15,15,15,15,15,15,15,15,
15,15,15,15,15,15,15,15,15,15,15,15,15,15,15,15,
15,15,15,15,15,15,15,15,15,15,15,15,15,15,15,15
</chunk>
   <chunk x="1296" y="800" width="16" height="16">
15,15,15,15,15,15,15,15,15,35,35,35,35,35,35,35,
15,15,15,15,15,15,15,15,15,15,35,35,35,35,35,35,
15,15,15,15,15,15,15,15,15,15,35,35,35,35,35,35,
15,15,15,15,15,15,15,15,15,15,15,35,35,35,35,35,
15,15,15,15,15,15,15,15,15,15,15,35,35,35,35,35,
15,15,15,15,15,15,15,15,15,15,15,15,35,35,35,35,
15,15,15,15,15,15,15,15,15,15,15,15,35,35,35,35,
15,15,15,15,15,15,15,15,15,15,15,15,35,35,35,35,
15,15,15,15,15,15,15,15,15,15,15,15,35,35,35,35,
15,15,15,15,15,15,15,15,15,15,15,15,15,35,35,35,
15,15,15,15,15,15,15,15,15,15,15,15,15,35,35,35,
15,15,15,15,15,15,15,15,15,15,15,15,15,35,35,35,
15,15,15,15,15,15,15,15,15,15,15,15,15,35,35,35,
15,15,15,15,15,15,15,15,15,15,15,15,15,15,35,35,
15,15,15,15,15,15,15,15,15,15,15,15,15,15,35,35,
15,15,15,15,15,15,15,15,15,15,15,15,15,15,35,35
</chunk>
   <chunk x="1312" y="800" width="16" height="16">
35,15,15,15,15,15,15,15,15,15,15,15,15,15,15,15,
35,35,15,15,15,15,15,15,15,15,15,15,15,15,15,15,
35,35,35,15,15,15,15,15,15,15,15,15,15,15,15,15,
35,35,35,15,15,15,15,15,15,15,15,15,15,15,15,15,
35,35,35,35,15,15,15,15,15,15,15,15,15,15,15,15,
35,35,35,35,15,15,15,15,15,15,15,15,15,15,15,15,
35,35,35,35,15,15,15,15,15,15,15,15,15,15,15,15,
35,35,35,35,35,15,15,15,15,15,15,15,15,15,15,15,
35,35,35,35,35,15,15,15,15,15,15,15,15,15,15,15,
35,35,35,35,35,35,15,15,15,15,15,15,15,15,15,15,
35,35,35,35,35,35,15,15,15,15,15,15,15,15,15,15,
35,35,35,35,35,35,15,15,15,15,15,15,15,15,15,15,
35,35,35,35,35,35,35,15,15,15,15,15,15,15,15,15,
35,35,35,35,35,35,35,15,15,15,15,15,15,15,15,15,
35,35,35,35,35,35,35,15,15,15,15,15,15,15,15,15,
35,35,35,35,35,35,35,35,15,15,15,15,15,15,15,15
</chunk>
   <chunk x="1328" y="800" width="16" height="16">
15,15,15,15,15,15,15,15,15,15,15,15,15,15,15,15,
15,15,15,15,15,15,15,15,15,15,15,15,15,15,15,15,
15,15,15,15,15,15,15,15,15,15,15,15,15,15,15,15,
15,15,15,15,15,15,15,15,15,15,15,15,15,15,15,15,
15,15,15,15,15,15,15,15,15,15,15,15,15,15,15,15,
15,15,15,15,15,15,15,15,15,15,15,15,15,15,15,15,
15,15,15,15,15,15,15,15,15,15,15,15,15,15,15,15,
15,15,15,15,15,15,15,15,15,15,15,15,15,15,15,15,
15,15,15,15,15,15,15,15,15,15,15,15,15,15,15,15,
15,15,15,15,15,15,15,15,15,15,15,15,15,15,15,15,
15,15,15,15,15,15,15,15,15,15,15,15,15,15,15,15,
15,15,15,15,15,15,15,15,15,15,15,15,15,15,15,15,
15,15,15,15,15,15,15,15,15,15,15,15,15,15,15,15,
15,15,15,15,15,15,15,15,15,15,15,15,15,15,15,15,
15,15,15,15,15,15,15,15,15,15,15,15,15,15,15,15,
15,15,15,15,15,15,15,15,15,15,15,15,15,15,15,15
</chunk>
   <chunk x="1344" y="800" width="16" height="16">
15,15,5,5,5,5,5,5,5,5,5,5,5,5,5,5,
15,15,5,5,5,5,5,5,5,5,5,5,5,5,5,5,
15,15,5,5,5,5,5,5,5,5,5,5,5,5,5,5,
15,15,5,5,5,5,5,5,5,5,5,5,5,5,5,5,
15,15,5,5,5,5,5,5,5,5,5,5,5,5,5,5,
15,15,5,5,5,5,5,5,5,5,5,5,5,5,5,5,
15,15,5,5,5,5,5,5,5,5,5,5,5,5,5,5,
15,15,5,5,5,5,5,5,5,5,5,5,5,5,5,5,
15,15,5,5,5,5,5,5,5,5,5,5,5,5,5,5,
15,15,5,5,5,5,5,5,5,5,5,5,5,5,5,5,
15,15,5,5,5,5,5,5,5,5,5,5,5,5,5,5,
15,15,5,5,5,5,5,5,5,5,5,5,5,5,5,5,
15,15,5,5,5,5,5,5,5,5,5,5,5,5,5,5,
15,15,5,5,5,5,5,5,5,5,5,5,5,5,5,5,
15,15,5,5,5,5,5,5,5,5,5,5,5,5,5,5,
15,15,5,5,5,5,5,5,5,5,5,5,5,5,5,5
</chunk>
   <chunk x="1360" y="800" width="16" height="16">
5,5,5,5,5,5,5,5,5,5,5,5,5,5,5,5,
5,5,5,5,5,5,5,5,5,5,5,5,5,5,5,5,
5,5,5,5,5,5,5,5,5,5,5,5,5,5,5,5,
5,5,5,5,5,5,5,5,5,5,5,5,5,5,5,5,
5,5,5,5,5,5,5,5,5,5,5,5,5,5,5,5,
5,5,5,5,5,5,5,5,5,5,5,5,5,5,5,5,
5,5,5,5,5,5,5,5,5,5,5,5,5,5,5,5,
5,5,5,5,5,5,5,5,5,5,5,5,5,5,5,5,
5,5,5,5,5,5,5,5,5,5,5,5,5,5,5,5,
5,5,5,5,5,5,5,5,5,5,5,5,5,5,5,5,
5,5,5,5,5,5,5,5,5,5,5,5,5,5,5,5,
5,5,5,5,5,5,5,5,5,5,5,5,5,5,5,5,
5,5,5,5,5,5,5,5,5,5,5,5,5,5,5,5,
5,5,5,5,5,5,5,5,5,5,5,5,5,5,5,5,
5,5,5,5,5,5,5,5,5,5,5,5,5,5,5,5,
5,5,5,5,5,5,5,5,5,5,5,5,5,5,5,5
</chunk>
   <chunk x="1376" y="800" width="16" height="16">
5,5,5,5,5,5,15,15,15,15,15,15,15,15,15,15,
5,5,5,5,5,5,15,15,15,15,15,15,15,15,15,15,
5,5,5,5,5,5,15,15,15,15,15,15,15,15,15,15,
5,5,5,5,5,5,15,15,15,15,15,15,15,15,15,15,
5,5,5,5,5,5,15,15,15,15,15,15,15,15,15,15,
5,5,5,5,5,5,5,15,15,15,15,15,15,15,15,15,
5,5,5,5,5,5,15,15,15,15,15,15,15,15,15,15,
5,5,5,5,5,5,15,15,15,15,15,15,15,15,15,15,
5,5,5,5,5,5,15,15,15,15,15,15,15,15,15,15,
5,5,5,5,5,5,15,15,15,15,15,15,15,15,15,15,
5,5,5,5,5,5,15,15,15,15,15,15,15,15,15,15,
5,5,5,5,5,5,15,15,15,15,15,15,15,15,15,15,
5,5,5,5,5,5,15,15,15,15,15,15,15,15,15,15,
5,5,5,5,5,5,15,15,15,15,15,15,15,15,15,15,
5,5,5,5,5,5,15,15,15,15,15,15,15,15,15,15,
5,5,5,5,5,15,15,15,15,15,15,15,15,15,15,15
</chunk>
   <chunk x="1392" y="800" width="16" height="16">
15,15,35,35,35,35,35,35,35,35,35,35,35,35,15,15,
15,15,35,35,35,35,35,35,35,35,35,35,35,15,15,15,
15,15,35,35,35,35,35,35,35,35,35,15,15,15,15,15,
15,15,35,35,35,35,35,35,35,35,35,15,15,15,15,15,
15,15,15,35,35,35,35,35,35,35,35,15,15,15,15,15,
15,15,15,35,35,35,35,35,35,35,15,15,15,15,15,15,
15,15,15,35,35,35,35,35,35,35,15,15,15,15,15,15,
15,15,15,35,35,35,35,35,35,35,15,15,15,15,15,15,
15,15,15,15,35,35,35,35,35,35,15,15,15,15,15,15,
15,15,15,15,35,35,35,35,35,35,15,15,15,15,15,15,
15,15,15,15,35,35,35,35,35,35,15,15,15,15,15,15,
15,15,15,15,15,35,35,35,35,35,35,15,15,15,15,15,
15,15,15,15,15,35,35,35,35,35,35,15,15,15,15,15,
15,15,15,15,15,35,35,35,35,35,35,15,15,15,15,15,
15,15,15,15,15,15,35,35,35,35,35,15,15,15,15,15,
15,15,15,15,15,15,35,35,35,35,35,15,15,15,15,15
</chunk>
   <chunk x="1408" y="800" width="16" height="16">
15,15,15,15,15,15,15,15,15,15,15,15,15,15,15,15,
15,15,15,15,15,15,15,15,15,15,15,15,15,15,15,15,
15,15,15,15,15,15,15,15,15,15,15,15,15,15,15,15,
15,15,15,15,15,15,15,15,15,15,15,15,15,15,15,15,
15,15,15,15,15,15,15,15,15,15,15,15,15,15,15,15,
15,15,15,15,15,15,15,15,15,15,15,15,15,15,15,15,
15,15,15,15,15,15,15,15,15,15,15,15,15,15,15,15,
15,15,15,15,15,15,15,15,15,15,15,15,15,15,15,15,
15,15,15,15,15,15,15,15,15,15,15,15,15,15,15,15,
15,15,15,15,15,15,15,15,15,15,15,15,15,15,15,15,
15,15,15,15,15,15,15,15,15,15,15,15,15,15,15,15,
15,15,15,15,15,15,15,15,15,15,15,15,15,15,15,15,
15,15,15,15,15,15,15,15,15,15,15,15,15,15,15,15,
15,15,15,15,15,15,15,15,15,15,15,15,15,15,15,15,
15,15,15,15,15,15,15,15,15,15,15,15,15,15,15,15,
15,15,15,15,15,15,15,15,15,15,15,15,15,15,15,15
</chunk>
   <chunk x="1424" y="800" width="16" height="16">
15,15,15,15,15,15,15,15,15,15,15,15,15,15,15,15,
15,15,15,15,15,15,15,15,15,15,15,15,15,15,15,15,
15,15,15,15,15,15,15,15,15,15,15,15,15,15,15,15,
15,15,15,15,15,15,15,15,15,15,15,15,15,15,15,15,
15,15,15,15,15,15,15,15,15,15,15,15,15,15,15,15,
15,15,15,15,15,15,15,15,15,15,15,15,15,15,15,15,
15,15,15,15,15,15,15,15,15,15,15,15,15,15,15,15,
15,15,15,15,15,15,15,15,15,15,15,15,15,15,15,15,
15,15,15,15,15,15,15,15,15,15,15,15,15,15,15,15,
15,15,15,15,15,15,15,15,15,15,15,15,15,15,15,15,
15,15,15,15,15,15,15,15,15,15,15,15,15,15,15,15,
15,15,15,15,15,15,15,15,15,15,15,15,15,15,15,15,
15,15,15,15,15,15,15,15,15,15,15,15,15,15,15,15,
15,15,15,15,15,15,15,15,15,15,15,15,15,15,15,15,
15,15,15,15,15,15,15,15,15,15,15,15,15,15,15,15,
15,15,15,15,15,15,15,15,15,15,15,15,15,15,15,15
</chunk>
   <chunk x="1440" y="800" width="16" height="16">
15,15,15,15,15,15,15,15,15,15,15,15,15,15,15,15,
15,15,15,15,15,15,15,15,15,15,15,15,15,15,15,15,
15,15,15,15,15,15,15,15,15,15,15,15,15,15,15,15,
15,15,15,15,15,15,15,15,15,15,15,15,15,15,15,15,
15,15,15,15,15,15,15,15,15,15,15,15,15,15,15,15,
15,15,15,15,15,15,15,15,15,15,15,15,15,15,15,15,
15,15,15,15,15,15,15,15,15,15,15,15,15,15,15,15,
15,15,15,15,15,15,15,15,15,15,15,15,15,15,15,15,
15,15,15,15,15,15,15,15,15,15,15,15,15,15,15,15,
15,15,15,15,15,15,15,15,15,15,15,15,15,15,15,15,
15,15,15,15,15,15,15,15,15,15,15,15,15,15,15,15,
15,15,15,15,15,15,15,15,15,15,15,15,15,15,15,15,
15,15,15,15,15,15,15,15,15,15,15,15,15,15,15,15,
15,15,15,15,15,15,15,15,15,15,15,15,15,15,15,15,
15,15,15,15,15,15,15,15,15,15,15,15,15,15,15,15,
15,15,15,15,15,15,15,15,15,15,15,15,15,15,15,15
</chunk>
   <chunk x="1456" y="800" width="16" height="16">
15,15,15,15,15,15,15,15,15,15,15,15,15,15,15,15,
15,15,15,15,15,15,15,15,15,15,15,15,15,15,15,15,
15,15,15,15,15,15,15,15,15,15,15,15,15,15,15,15,
15,15,15,15,15,15,15,15,15,15,15,15,15,15,15,15,
15,15,15,15,15,15,15,15,15,15,15,15,15,15,15,15,
15,15,15,15,15,15,15,15,15,15,15,15,15,15,15,15,
15,15,15,15,15,15,15,15,15,15,15,15,15,15,15,15,
15,15,15,15,15,15,15,15,15,15,15,15,15,15,15,15,
15,15,15,15,15,15,15,15,15,15,15,15,15,15,15,15,
15,15,15,15,15,15,15,15,15,15,15,15,15,15,15,15,
15,15,15,15,15,15,15,15,15,15,15,15,15,15,15,15,
15,15,15,15,15,15,15,15,15,15,15,15,15,15,15,15,
15,15,15,15,15,15,15,15,15,15,15,15,15,15,15,15,
15,15,15,15,15,15,15,15,15,15,15,15,15,15,15,15,
15,15,15,15,15,15,15,15,15,15,15,15,15,15,15,15,
15,15,15,15,15,15,15,15,15,15,15,15,15,15,15,15
</chunk>
   <chunk x="1472" y="800" width="16" height="16">
15,15,15,15,15,15,15,15,15,15,15,15,15,15,15,15,
15,15,15,15,15,15,15,15,15,15,15,15,15,15,15,15,
15,15,15,15,15,15,15,15,15,15,15,15,15,15,15,15,
15,15,15,15,15,15,15,15,15,15,15,15,15,15,15,15,
15,15,15,15,15,15,15,15,15,15,15,15,15,15,15,15,
15,15,15,15,15,15,15,15,15,15,15,15,15,15,15,15,
15,15,15,15,15,15,15,15,15,15,15,15,15,15,15,15,
15,15,15,15,15,15,15,15,15,15,15,15,15,15,15,15,
15,15,15,15,15,15,15,15,15,15,15,15,15,15,15,15,
15,15,15,15,15,15,15,15,15,15,15,15,15,15,15,15,
15,15,15,15,15,15,15,15,15,15,15,15,15,15,15,15,
15,15,15,15,15,15,15,15,15,15,15,15,15,15,15,15,
15,15,15,15,15,15,15,15,15,15,15,15,15,15,15,15,
15,15,15,15,15,15,15,15,15,15,15,15,15,15,15,15,
15,15,15,15,15,15,15,15,15,15,15,15,15,15,15,15,
15,15,15,15,15,15,15,15,15,15,15,15,15,15,15,15
</chunk>
   <chunk x="1488" y="800" width="16" height="16">
15,15,15,15,15,15,15,15,15,15,15,15,15,15,15,15,
15,15,15,15,15,15,15,15,15,15,15,15,15,15,15,15,
15,15,15,15,15,15,15,15,15,15,15,15,15,15,15,15,
15,15,15,15,15,15,15,15,15,15,15,15,15,15,15,15,
15,15,15,15,15,15,15,15,15,15,15,15,15,15,15,15,
15,15,15,15,15,15,15,15,15,15,15,15,15,15,15,15,
15,15,15,15,15,15,15,15,15,15,15,15,15,15,15,15,
15,15,15,15,15,15,15,15,15,15,15,15,15,15,15,15,
15,15,15,15,15,15,15,15,15,15,15,15,15,15,15,15,
15,15,15,15,15,15,15,15,15,15,15,15,15,15,15,15,
15,15,15,15,15,15,15,15,15,15,15,15,15,15,15,15,
15,15,15,15,15,15,15,15,15,15,15,15,15,15,15,15,
15,15,15,15,15,15,15,15,15,15,15,15,15,15,15,15,
15,15,15,15,15,15,15,15,15,15,15,15,15,15,15,15,
15,15,15,15,15,15,15,15,15,15,15,15,15,15,15,15,
15,15,15,15,15,15,15,15,15,15,15,15,15,15,15,15
</chunk>
   <chunk x="1504" y="800" width="16" height="16">
15,15,15,15,15,15,15,15,15,15,15,15,15,15,15,15,
15,15,15,15,15,15,15,15,15,15,15,15,15,15,15,15,
15,15,15,15,15,15,15,15,15,15,15,15,15,15,15,15,
15,15,15,15,15,15,15,15,15,15,15,15,15,15,15,15,
15,15,15,15,15,15,15,15,15,15,15,15,15,15,15,15,
15,15,15,15,15,15,15,15,15,15,15,15,15,15,15,15,
15,15,15,15,15,15,15,15,15,15,15,15,15,15,15,15,
15,15,15,15,15,15,15,15,15,15,15,15,15,15,15,15,
15,15,15,15,15,15,15,15,15,15,15,15,15,15,15,15,
15,15,15,15,15,15,15,15,15,15,15,15,15,15,15,15,
15,15,15,15,15,15,15,15,15,15,15,15,15,15,15,15,
15,15,15,15,15,15,15,15,15,15,15,15,15,15,15,15,
15,15,15,15,15,15,15,15,15,15,15,15,15,15,15,15,
15,15,15,15,15,15,15,15,15,15,15,15,15,15,15,15,
15,15,15,15,15,15,15,15,15,15,15,15,15,15,15,15,
15,15,15,15,15,15,15,15,15,15,15,15,15,15,15,15
</chunk>
   <chunk x="1520" y="800" width="16" height="16">
15,15,15,15,15,15,15,15,15,15,15,15,15,15,15,15,
15,15,15,15,15,15,15,15,15,15,15,15,15,15,15,15,
15,15,15,15,15,15,15,15,15,15,15,15,15,15,15,15,
15,15,15,15,15,15,15,15,15,15,15,15,15,15,15,15,
15,15,15,15,15,15,15,15,15,15,15,15,15,15,15,15,
15,15,15,15,15,15,15,15,15,15,15,15,15,15,15,15,
15,15,15,15,15,15,15,15,15,15,15,15,15,15,15,15,
15,15,15,15,15,15,15,15,15,15,15,15,15,15,15,15,
15,15,15,15,15,15,15,15,15,15,15,15,15,15,15,15,
15,15,15,15,15,15,15,15,15,15,15,15,15,15,15,15,
15,15,15,15,15,15,15,15,15,15,15,15,15,15,15,15,
15,15,15,15,15,15,15,15,15,15,15,15,15,15,15,15,
15,15,15,15,15,15,15,15,15,15,15,15,15,15,15,15,
15,15,15,15,15,15,15,15,15,15,15,15,15,15,15,15,
15,15,15,15,15,15,15,15,15,15,15,15,15,15,15,15,
15,15,15,15,15,15,15,15,15,15,15,15,15,15,15,15
</chunk>
   <chunk x="1536" y="800" width="16" height="16">
15,15,15,15,15,15,15,15,15,15,15,15,15,15,15,15,
15,15,15,15,15,15,15,15,15,15,15,15,15,15,15,15,
15,15,15,15,15,15,15,15,15,15,15,15,15,15,15,15,
15,15,15,15,15,15,15,15,15,15,15,15,15,15,15,15,
15,15,15,15,15,15,15,15,15,15,15,15,15,15,15,15,
15,15,15,15,15,15,15,15,15,15,15,15,15,15,15,15,
15,15,15,15,15,15,15,15,15,15,15,15,15,15,15,15,
15,15,15,15,15,15,15,15,15,15,15,15,15,15,15,15,
15,15,15,15,15,15,15,15,15,15,15,15,15,15,15,15,
15,15,15,15,15,15,15,15,15,15,15,15,15,15,15,15,
15,15,15,15,15,15,15,15,15,15,15,15,15,15,15,15,
15,15,15,15,15,15,15,15,15,15,15,15,15,15,15,15,
15,15,15,15,15,15,15,15,15,15,15,15,15,15,15,15,
15,15,15,15,15,15,15,15,15,15,15,15,15,15,15,15,
15,15,15,15,15,15,15,15,15,15,15,15,15,15,15,15,
15,15,15,15,15,15,15,15,15,15,15,15,15,15,15,15
</chunk>
   <chunk x="1552" y="800" width="16" height="16">
15,15,15,15,15,15,15,15,15,15,15,0,0,0,0,0,
15,15,15,15,15,15,15,15,15,15,15,0,0,0,0,0,
15,15,15,15,15,15,15,15,15,15,15,0,0,0,0,0,
15,15,15,15,15,15,15,15,15,15,15,0,0,0,0,0,
15,15,15,15,15,15,15,15,15,15,15,0,0,0,0,0,
15,15,15,15,15,15,15,15,15,15,15,0,0,0,0,0,
15,15,15,15,15,15,15,15,15,15,15,0,0,0,0,0,
15,15,15,15,15,15,15,15,15,15,15,0,0,0,0,0,
15,15,15,15,15,15,15,15,15,15,15,0,0,0,0,0,
15,15,15,15,15,15,15,15,15,15,15,0,0,0,0,0,
15,15,15,15,15,15,15,15,15,15,15,0,0,0,0,0,
15,15,15,15,15,15,15,15,15,15,15,0,0,0,0,0,
15,15,15,15,15,15,15,15,15,15,15,0,0,0,0,0,
15,15,15,15,15,15,15,15,15,15,15,0,0,0,0,0,
15,15,15,15,15,15,15,15,15,15,15,0,0,0,0,0,
15,15,15,15,15,15,15,15,15,15,15,0,0,0,0,0
</chunk>
   <chunk x="1264" y="816" width="16" height="16">
15,15,15,15,15,15,15,15,15,15,15,15,15,15,15,15,
15,15,15,15,15,15,15,15,15,15,15,15,15,15,15,15,
15,15,15,15,15,15,15,15,15,15,15,15,15,15,15,15,
15,15,15,15,15,15,15,15,15,15,15,15,15,15,15,15,
15,15,15,15,15,15,15,15,15,15,15,15,15,15,15,15,
15,15,15,15,15,15,15,15,15,15,15,15,15,15,15,15,
15,15,15,15,15,15,15,15,15,15,15,15,15,15,15,15,
15,15,15,15,15,15,15,15,15,15,15,15,15,15,15,15,
15,15,15,15,15,15,15,15,15,15,15,15,15,15,15,15,
15,15,15,15,15,15,15,15,15,15,15,15,15,15,15,15,
15,15,15,15,15,15,15,15,15,15,15,15,15,15,15,15,
15,15,15,15,15,15,15,15,15,15,15,15,15,15,15,15,
15,15,15,15,15,15,15,15,15,15,15,15,15,15,15,15,
15,15,15,15,15,15,15,15,15,15,15,15,15,15,15,15,
15,15,15,15,15,15,15,15,15,15,15,15,15,15,15,15,
15,15,15,15,15,15,15,15,15,15,15,15,15,15,15,15
</chunk>
   <chunk x="1280" y="816" width="16" height="16">
15,15,15,15,15,15,15,15,15,15,15,15,15,15,15,15,
15,15,15,15,15,15,15,15,15,15,15,15,15,15,15,15,
15,15,15,15,15,15,15,15,15,15,15,15,15,15,15,15,
15,15,15,15,15,15,15,15,15,15,15,15,15,15,15,15,
15,15,15,15,15,15,15,15,15,15,15,15,15,15,15,15,
15,15,15,15,15,15,15,15,15,15,15,15,15,15,15,15,
15,15,15,15,15,15,15,15,15,15,15,15,15,15,15,15,
15,15,15,15,15,15,15,15,15,15,15,15,15,15,15,15,
15,15,15,15,15,15,15,15,15,15,15,15,15,15,15,15,
15,15,15,15,15,15,15,15,15,15,15,15,15,15,15,15,
15,15,15,15,15,15,15,15,15,15,15,15,15,15,15,15,
15,15,15,15,15,15,15,15,15,15,15,15,15,15,15,15,
15,15,15,15,15,15,15,15,15,15,15,15,15,15,15,15,
15,15,15,15,15,15,15,15,15,15,15,15,15,15,15,15,
15,15,15,15,15,15,15,15,15,15,15,15,15,15,15,15,
15,15,15,15,15,15,15,15,15,15,15,15,15,15,15,15
</chunk>
   <chunk x="1296" y="816" width="16" height="16">
15,15,15,15,15,15,15,15,15,15,15,15,15,15,35,35,
15,15,15,15,15,15,15,15,15,15,15,15,15,15,35,35,
15,15,15,15,15,15,15,15,15,15,15,15,15,15,35,35,
15,15,15,15,15,15,15,15,15,15,15,15,15,15,15,35,
15,15,15,15,15,15,15,15,15,15,15,15,15,15,15,35,
15,15,15,15,15,15,15,15,15,15,15,15,15,15,15,35,
15,15,15,15,15,15,15,15,15,15,15,15,15,15,15,35,
15,15,15,15,15,15,15,15,15,15,15,15,15,15,15,35,
15,15,15,15,15,15,15,15,15,15,15,15,15,15,15,35,
15,15,15,15,15,15,15,15,15,15,15,15,15,15,15,35,
15,15,15,15,15,15,15,15,15,15,15,15,15,15,15,35,
15,15,15,15,15,15,15,15,15,15,15,15,15,15,15,35,
15,15,15,15,15,15,15,15,15,15,15,15,15,15,15,35,
15,15,15,15,15,15,15,15,15,15,15,15,15,15,15,35,
15,15,15,15,15,15,15,15,15,15,15,15,15,15,15,35,
15,15,15,15,15,15,15,15,15,15,15,15,15,15,15,35
</chunk>
   <chunk x="1312" y="816" width="16" height="16">
35,35,35,35,35,35,35,35,15,15,15,15,15,15,15,15,
35,35,35,35,35,35,35,35,15,15,15,15,15,15,15,15,
35,35,35,35,35,35,35,35,15,15,15,15,15,15,15,15,
35,35,35,35,35,35,35,35,15,15,15,15,15,15,15,15,
35,35,35,35,35,35,35,35,15,15,15,15,15,15,15,15,
35,35,35,35,35,35,35,35,15,15,15,15,15,15,15,15,
35,35,35,35,35,35,35,35,15,15,15,15,15,15,15,15,
35,35,35,35,35,35,35,35,15,15,15,15,15,15,15,15,
35,35,35,35,35,35,35,35,15,15,15,15,15,15,15,15,
35,35,35,35,35,35,35,35,15,15,15,15,15,15,15,15,
35,35,35,35,35,35,35,35,15,15,15,15,15,15,15,15,
35,35,35,35,35,35,35,35,15,15,15,15,15,15,15,15,
35,35,35,35,35,35,35,35,15,15,15,15,15,15,15,15,
35,35,35,35,35,35,35,35,15,15,15,15,15,15,15,15,
35,35,35,35,35,35,35,35,15,15,15,15,15,15,15,15,
35,35,35,35,35,35,35,35,15,15,15,15,15,15,15,15
</chunk>
   <chunk x="1328" y="816" width="16" height="16">
15,15,15,15,15,15,15,15,15,15,15,15,15,15,15,15,
15,15,15,15,15,15,15,15,15,15,15,15,15,15,15,15,
15,15,15,15,15,15,15,15,15,15,15,15,15,15,15,15,
15,15,15,15,15,15,15,15,15,15,15,15,15,15,15,15,
15,15,15,15,15,15,15,15,15,15,15,15,15,15,15,15,
15,15,15,15,15,15,15,15,15,15,15,15,15,15,15,15,
15,15,15,15,15,15,15,15,15,15,15,15,15,15,15,15,
15,15,15,15,15,15,15,15,15,15,15,15,15,15,15,15,
15,15,15,15,15,15,15,15,15,15,15,15,15,15,15,15,
15,15,15,15,15,15,15,15,15,15,15,15,15,15,15,15,
15,15,15,15,15,15,15,15,15,15,15,15,15,15,15,15,
15,15,15,15,15,15,15,15,15,15,15,15,15,15,15,15,
15,15,15,15,15,15,15,15,15,15,15,15,15,15,15,15,
15,15,15,15,15,15,15,15,15,15,15,15,15,15,15,5,
15,15,15,15,15,15,15,15,15,15,15,15,15,15,5,5,
15,15,15,15,15,15,15,15,15,15,15,15,15,15,5,5
</chunk>
   <chunk x="1344" y="816" width="16" height="16">
15,15,5,5,5,5,5,5,5,5,5,5,5,5,5,5,
15,15,5,5,5,5,5,5,5,5,5,5,5,5,5,5,
15,15,5,5,5,5,5,5,5,5,5,5,5,5,5,5,
15,15,5,5,5,5,5,5,5,5,5,5,5,5,5,5,
15,15,5,5,5,5,5,5,5,5,5,5,5,5,5,5,
15,5,5,5,5,5,5,5,5,5,5,5,5,5,5,5,
15,5,5,5,5,5,5,5,5,5,5,5,5,5,5,5,
15,5,5,5,5,5,5,5,5,5,5,5,5,5,5,5,
15,5,5,5,5,5,5,5,5,5,5,5,5,5,5,5,
5,5,5,5,5,5,5,5,5,5,5,5,5,5,5,5,
5,5,5,5,5,5,5,5,5,5,5,5,5,5,5,5,
5,5,5,5,5,5,5,5,5,5,5,5,5,5,5,5,
5,5,5,5,5,5,5,5,5,5,5,5,5,5,5,5,
5,5,5,5,5,5,5,5,5,5,5,5,5,5,5,5,
5,5,5,5,5,5,5,5,5,5,5,5,5,5,5,5,
5,5,5,5,5,5,5,5,5,5,5,5,5,5,5,5
</chunk>
   <chunk x="1360" y="816" width="16" height="16">
5,5,5,5,5,5,5,5,5,5,5,5,5,5,5,5,
5,5,5,5,5,5,5,5,5,5,5,5,5,5,5,5,
5,5,5,5,5,5,5,5,5,5,5,5,5,5,5,5,
5,5,5,5,5,5,5,5,5,5,5,5,5,5,5,5,
5,5,5,5,5,5,5,5,5,5,5,5,5,5,5,5,
5,5,5,5,5,5,5,5,5,5,5,5,5,5,5,5,
5,5,5,5,5,5,5,5,5,5,5,5,5,5,5,5,
5,5,5,5,5,5,5,5,5,5,5,5,5,5,5,5,
5,5,5,5,5,5,5,5,5,5,5,5,5,5,5,5,
5,5,5,5,5,5,5,5,5,5,5,5,5,5,5,5,
5,5,5,5,5,5,5,5,5,5,5,5,5,5,5,5,
5,5,5,5,5,5,5,5,5,5,5,5,5,5,5,5,
5,5,5,5,5,5,5,5,5,5,5,5,5,5,5,5,
5,5,5,5,5,5,5,5,5,5,5,5,5,5,5,5,
5,5,5,5,5,5,5,5,5,5,5,5,5,5,5,5,
5,5,5,5,5,5,5,5,5,5,5,5,5,5,5,5
</chunk>
   <chunk x="1376" y="816" width="16" height="16">
5,5,5,5,5,15,15,15,15,15,15,15,15,15,15,15,
5,5,5,5,5,15,15,15,15,15,15,15,15,15,15,15,
5,5,5,5,15,15,15,15,15,15,15,15,15,15,15,15,
5,5,5,5,15,15,15,15,15,15,15,15,15,15,15,15,
5,5,5,15,15,15,15,15,15,15,15,15,15,15,15,15,
5,5,5,15,15,15,15,15,15,15,15,15,15,15,15,15,
5,5,5,5,15,15,15,15,15,15,15,15,15,15,15,15,
5,5,5,15,15,15,15,15,15,15,15,15,15,15,15,15,
5,5,5,15,15,15,15,15,15,15,15,15,15,15,15,15,
5,5,5,15,15,15,15,15,15,15,15,15,15,15,15,15,
5,5,5,15,15,15,15,15,15,15,15,15,15,15,15,15,
5,5,5,15,15,15,15,15,15,15,15,15,15,15,15,15,
5,5,15,15,15,15,15,15,15,15,15,15,15,15,15,15,
5,15,15,15,15,15,15,15,15,15,15,15,15,15,15,15,
5,5,15,15,15,15,15,15,15,15,15,15,15,15,15,15,
5,15,15,15,15,15,15,15,15,15,15,15,15,15,15,15
</chunk>
   <chunk x="1392" y="816" width="16" height="16">
15,15,15,15,15,15,35,35,35,35,35,15,15,15,15,15,
15,15,15,15,15,15,15,35,35,35,35,35,15,15,15,15,
15,15,15,15,15,15,15,35,35,35,35,35,15,15,15,15,
15,15,15,15,15,15,15,35,35,35,35,35,15,15,15,15,
15,15,15,15,15,15,15,35,35,35,35,35,15,15,15,15,
15,15,15,15,15,15,15,35,35,35,35,35,15,15,15,15,
15,15,15,15,15,15,15,35,35,35,35,35,15,15,15,15,
15,15,15,15,15,15,15,15,35,35,35,35,15,15,15,15,
15,15,15,15,15,15,15,15,35,35,35,35,35,15,15,15,
15,15,15,15,15,15,15,15,35,35,35,35,35,15,15,15,
15,15,15,15,15,15,15,15,35,35,35,35,35,15,15,15,
15,15,15,15,15,15,15,35,35,35,35,35,35,35,15,15,
15,15,15,15,15,15,15,35,35,35,35,35,35,35,15,15,
15,15,15,15,15,15,15,35,35,35,35,35,35,35,15,15,
15,15,15,15,15,15,15,35,35,35,35,35,35,35,15,15,
15,15,15,15,15,15,15,35,35,35,35,35,35,35,35,15
</chunk>
   <chunk x="1408" y="816" width="16" height="16">
15,15,15,15,15,15,15,15,15,15,15,15,15,15,15,15,
15,15,15,15,15,15,15,15,15,15,15,15,15,15,15,15,
15,15,15,15,15,15,15,15,15,15,15,15,15,15,15,15,
15,15,15,15,15,15,15,15,15,15,15,15,15,15,15,15,
15,15,15,15,15,15,15,15,15,15,15,15,15,15,15,15,
15,15,15,15,15,15,15,15,15,15,15,15,15,15,15,15,
15,15,15,15,15,15,15,15,15,15,15,15,15,15,15,15,
15,15,15,15,15,15,15,15,15,15,15,15,15,15,15,15,
15,15,15,15,15,15,15,15,15,15,15,15,15,15,15,15,
15,15,15,15,15,15,15,15,15,15,15,15,15,15,15,15,
15,15,15,15,15,15,15,15,15,15,15,15,15,15,15,15,
15,15,15,15,15,15,15,15,15,15,15,15,15,15,15,15,
15,15,15,15,15,15,15,15,15,15,15,15,15,15,15,15,
15,15,15,15,15,15,15,15,15,15,15,15,15,15,15,15,
15,15,15,15,15,15,15,15,15,15,15,15,15,15,15,15,
15,15,15,15,15,15,15,15,15,15,15,15,15,15,15,15
</chunk>
   <chunk x="1424" y="816" width="16" height="16">
15,15,15,15,15,15,15,15,15,15,15,15,15,15,15,15,
15,15,15,15,15,15,15,15,15,15,15,15,15,15,15,15,
15,15,15,15,15,15,15,15,15,15,15,15,15,15,15,15,
15,15,15,15,15,15,15,15,15,15,15,15,15,15,15,15,
15,15,15,15,15,15,15,15,15,15,15,15,15,15,15,15,
15,15,15,15,15,15,15,15,15,15,15,15,15,15,15,15,
15,15,15,15,15,15,15,15,15,15,15,15,15,15,15,15,
15,15,15,15,15,15,15,15,15,15,15,15,15,15,15,15,
15,15,15,15,15,15,15,15,15,15,15,15,15,15,15,15,
15,15,15,15,15,15,15,15,15,15,15,15,15,15,15,15,
15,15,15,15,15,15,15,15,15,15,15,15,15,15,15,15,
15,15,15,15,15,15,15,15,15,15,15,15,15,15,15,15,
15,15,15,15,15,15,15,15,15,15,15,15,15,15,15,15,
15,15,15,15,15,15,15,15,15,15,15,15,15,15,15,15,
15,15,15,15,15,15,15,15,15,15,15,15,15,15,15,15,
15,15,15,15,15,15,15,15,15,15,15,15,15,15,15,15
</chunk>
   <chunk x="1440" y="816" width="16" height="16">
15,15,15,15,15,15,15,15,15,15,15,15,15,15,15,15,
15,15,15,15,15,15,15,15,15,15,15,15,15,15,15,15,
15,15,15,15,15,15,15,15,15,15,15,15,15,15,15,15,
15,15,15,15,15,15,15,15,15,15,15,15,15,15,15,15,
15,15,15,15,15,15,15,15,15,15,15,15,15,15,15,15,
15,15,15,15,15,15,15,15,15,15,15,15,15,15,15,15,
15,15,15,15,15,15,15,15,15,15,15,15,15,15,15,15,
15,15,15,15,15,15,15,15,15,15,15,15,15,15,15,15,
15,15,15,15,15,15,15,15,15,15,15,15,15,15,15,15,
15,15,15,15,15,15,15,15,15,15,15,15,15,15,15,15,
15,15,15,15,15,15,15,15,15,15,15,15,15,15,15,15,
15,15,15,15,15,15,15,15,15,15,15,15,15,15,15,15,
15,15,15,15,15,15,15,15,15,15,15,15,15,15,15,15,
15,15,15,15,15,15,15,15,15,15,15,15,15,15,15,15,
15,15,15,15,15,15,15,15,15,15,15,15,15,15,15,15,
15,15,15,15,15,15,15,15,15,15,15,15,15,15,15,15
</chunk>
   <chunk x="1456" y="816" width="16" height="16">
15,15,15,15,15,15,15,15,15,15,15,15,15,15,15,15,
15,15,15,15,15,15,15,15,15,15,15,15,15,15,15,15,
15,15,15,15,15,15,15,15,15,15,15,15,15,15,15,15,
15,15,15,15,15,15,15,15,15,15,15,15,15,15,15,15,
15,15,15,15,15,15,15,15,15,15,15,15,15,15,15,15,
15,15,15,15,15,15,15,15,15,15,15,15,15,15,15,15,
15,15,15,15,15,15,15,15,15,15,15,15,15,15,15,15,
15,15,15,15,15,15,15,15,15,15,15,15,15,15,15,15,
15,15,15,15,15,15,15,15,15,15,15,15,15,15,15,15,
15,15,15,15,15,15,15,15,15,15,15,15,15,15,15,15,
15,15,15,15,15,15,15,15,15,15,15,15,15,15,15,15,
15,15,15,15,15,15,15,15,15,15,15,15,15,15,15,15,
15,15,15,15,15,15,15,15,15,15,15,15,15,15,15,15,
15,15,15,15,15,15,15,15,15,15,15,15,15,15,15,15,
15,15,15,15,15,15,15,15,15,15,15,15,15,15,15,15,
15,15,15,15,15,15,15,15,15,15,15,15,15,15,15,15
</chunk>
   <chunk x="1472" y="816" width="16" height="16">
15,15,15,15,15,15,15,15,15,15,15,15,15,15,15,15,
15,15,15,15,15,15,15,15,15,15,15,15,15,15,15,15,
15,15,15,15,15,15,15,15,15,15,15,15,15,15,15,15,
15,15,15,15,15,15,15,15,15,15,15,15,15,15,15,15,
15,15,15,15,15,15,15,15,15,15,15,15,15,15,15,15,
15,15,15,15,15,15,15,15,15,15,15,15,15,15,15,15,
15,15,15,15,15,15,15,15,15,15,15,15,15,15,15,15,
15,15,15,15,15,15,15,15,15,15,15,15,15,15,15,15,
15,15,15,15,15,15,15,15,15,15,15,15,15,15,15,15,
15,15,15,15,15,15,15,15,15,15,15,15,15,15,15,15,
15,15,15,15,15,15,15,15,15,15,15,15,15,15,15,15,
15,15,15,15,15,15,15,15,15,15,15,15,15,15,15,15,
15,15,15,15,15,15,15,15,15,15,15,15,15,15,15,15,
15,15,15,15,15,15,15,15,15,15,15,15,15,15,15,15,
15,15,15,15,15,15,15,15,15,15,15,15,15,15,15,15,
15,15,15,15,15,15,15,15,15,15,15,15,15,15,15,15
</chunk>
   <chunk x="1488" y="816" width="16" height="16">
15,15,15,15,15,15,15,15,15,15,15,15,15,15,15,15,
15,15,15,15,15,15,15,15,15,15,15,15,15,15,15,15,
15,15,15,15,15,15,15,15,15,15,15,15,15,15,15,15,
15,15,15,15,15,15,15,15,15,15,15,15,15,15,15,15,
15,15,15,15,15,15,15,15,15,15,15,15,15,15,15,15,
15,15,15,15,15,15,15,15,15,15,15,15,15,15,15,15,
15,15,15,15,15,15,15,15,15,15,15,15,15,15,15,15,
15,15,15,15,15,15,15,15,15,15,15,15,15,15,15,15,
15,15,15,15,15,15,15,15,15,15,15,15,15,15,15,15,
15,15,15,15,15,15,15,15,15,15,15,15,15,15,15,15,
15,15,15,15,15,15,15,15,15,15,15,15,15,15,15,15,
15,15,15,15,15,15,15,15,15,15,15,15,15,15,15,15,
15,15,15,15,15,15,15,15,15,15,15,15,15,15,15,15,
15,15,15,15,15,15,15,15,15,15,15,15,15,15,15,15,
15,15,15,15,15,15,15,15,15,15,15,15,15,15,15,15,
15,15,15,15,15,15,15,15,15,15,15,15,15,15,15,15
</chunk>
   <chunk x="1504" y="816" width="16" height="16">
15,15,15,15,15,15,15,15,15,15,15,15,15,15,15,15,
15,15,15,15,15,15,15,15,15,15,15,15,15,15,15,15,
15,15,15,15,15,15,15,15,15,15,15,15,15,15,15,15,
15,15,15,15,15,15,15,15,15,15,15,15,15,15,15,15,
15,15,15,15,15,15,15,15,15,15,15,15,15,15,15,15,
15,15,15,15,15,15,15,15,15,15,15,15,15,15,15,15,
15,15,15,15,15,15,15,15,15,15,15,15,15,15,15,15,
15,15,15,15,15,15,15,15,15,15,15,15,15,15,15,15,
15,15,15,15,15,15,15,15,15,15,15,15,15,15,15,15,
15,15,15,15,15,15,15,15,15,15,15,15,15,15,15,15,
15,15,15,15,15,15,15,15,15,15,15,15,15,15,15,15,
15,15,15,15,15,15,15,15,15,15,15,15,15,15,15,15,
15,15,15,15,15,15,15,15,15,15,15,15,15,15,15,15,
15,15,15,15,15,15,15,15,15,15,15,15,15,15,15,15,
15,15,15,15,15,15,15,15,15,15,15,15,15,15,15,15,
15,15,15,15,15,15,15,15,15,15,15,15,15,15,15,15
</chunk>
   <chunk x="1520" y="816" width="16" height="16">
15,15,15,15,15,15,15,15,15,15,15,15,15,15,15,15,
15,15,15,15,15,15,15,15,15,15,15,15,15,15,15,15,
15,15,15,15,15,15,15,15,15,15,15,15,15,15,15,15,
15,15,15,15,15,15,15,15,15,15,15,15,15,15,15,15,
15,15,15,15,15,15,15,15,15,15,15,15,15,15,15,15,
15,15,15,15,15,15,15,15,15,15,15,15,15,15,15,15,
15,15,15,15,15,15,15,15,15,15,15,15,15,15,15,15,
15,15,15,15,15,15,15,15,15,15,15,15,15,15,15,15,
15,15,15,15,15,15,15,15,15,15,15,15,15,15,15,15,
15,15,15,15,15,15,15,15,15,15,15,15,15,15,15,15,
15,15,15,15,15,15,15,15,15,15,15,15,15,15,15,15,
15,15,15,15,15,15,15,15,15,15,15,15,15,15,15,15,
15,15,15,15,15,15,15,15,15,15,15,15,15,15,15,15,
15,15,15,15,15,15,15,15,15,15,15,15,15,15,15,15,
15,15,15,15,15,15,15,15,15,15,15,15,15,15,15,15,
15,15,15,15,15,15,15,15,15,15,15,15,15,15,15,15
</chunk>
   <chunk x="1536" y="816" width="16" height="16">
15,15,15,15,15,15,15,15,15,15,15,15,15,15,15,15,
15,15,15,15,15,15,15,15,15,15,15,15,15,15,15,15,
15,15,15,15,15,15,15,15,15,15,15,15,15,15,15,15,
15,15,15,15,15,15,15,15,15,15,15,15,15,15,15,15,
15,15,15,15,15,15,15,15,15,15,15,15,15,15,15,15,
15,15,15,15,15,15,15,15,15,15,15,15,15,15,15,15,
15,15,15,15,15,15,15,15,15,15,15,15,15,15,15,15,
15,15,15,15,15,15,15,15,15,15,15,15,15,15,15,15,
15,15,15,15,15,15,15,15,15,15,15,15,15,15,15,15,
15,15,15,15,15,15,15,15,15,15,15,15,15,15,15,15,
15,15,15,15,15,15,15,15,15,15,15,15,15,15,15,15,
15,15,15,15,15,15,15,15,15,15,15,15,15,15,15,15,
15,15,15,15,15,15,15,15,15,15,15,15,15,15,15,15,
15,15,15,15,15,15,15,15,15,15,15,15,15,15,15,15,
15,15,15,15,15,15,15,15,15,15,15,15,15,15,15,15,
15,15,15,15,15,15,15,15,15,15,15,15,15,15,15,15
</chunk>
   <chunk x="1552" y="816" width="16" height="16">
15,15,15,15,15,15,15,15,15,15,15,0,0,0,0,0,
15,15,15,15,15,15,15,15,15,15,15,0,0,0,0,0,
15,15,15,15,15,15,15,15,15,15,15,0,0,0,0,0,
15,15,15,15,15,15,15,15,15,15,15,0,0,0,0,0,
15,15,15,15,15,15,15,15,15,15,15,0,0,0,0,0,
15,15,15,15,15,15,15,15,15,15,15,0,0,0,0,0,
15,15,15,15,15,15,15,15,15,15,15,0,0,0,0,0,
15,15,15,15,15,15,15,15,15,15,15,0,0,0,0,0,
15,15,15,15,15,15,15,15,15,15,15,0,0,0,0,0,
15,15,15,15,15,15,15,15,15,15,15,0,0,0,0,0,
15,15,15,15,15,15,15,15,15,15,15,0,0,0,0,0,
15,15,15,15,15,15,15,15,15,15,15,0,0,0,0,0,
15,15,15,15,15,15,15,15,15,15,15,0,0,0,0,0,
15,15,15,15,15,15,15,15,15,15,15,0,0,0,0,0,
15,15,15,15,15,15,15,15,15,15,15,0,0,0,0,0,
15,15,15,15,15,15,15,15,15,15,15,0,0,0,0,0
</chunk>
   <chunk x="1264" y="832" width="16" height="16">
15,15,15,15,15,15,15,15,15,15,15,15,15,15,15,15,
15,15,15,15,15,15,15,15,15,15,15,15,15,15,15,15,
15,15,15,15,15,15,15,15,15,15,15,15,15,15,15,15,
15,15,15,15,15,15,15,15,15,15,15,15,15,15,15,15,
15,15,15,15,15,15,15,15,15,15,15,15,15,15,15,15,
15,15,15,15,15,15,15,15,15,15,15,15,15,15,15,15,
15,15,15,15,15,15,15,15,15,15,15,15,15,15,15,15,
15,15,15,15,15,15,15,15,15,15,15,15,15,15,15,15,
15,15,15,15,15,15,15,15,15,15,15,15,15,15,15,15,
15,15,15,15,15,15,15,15,15,15,15,15,15,15,15,15,
15,15,15,15,15,15,15,15,15,15,15,15,15,15,15,15,
15,15,15,15,15,15,15,15,15,15,15,15,15,15,15,15,
15,15,15,15,15,15,15,15,15,15,15,15,15,15,15,15,
15,15,15,15,15,15,15,15,15,15,15,15,15,15,15,15,
15,15,15,15,15,15,15,15,15,15,15,15,15,15,15,15,
15,15,15,15,15,15,15,15,15,15,15,15,15,15,15,15
</chunk>
   <chunk x="1280" y="832" width="16" height="16">
15,15,15,15,15,15,15,15,15,15,15,15,15,15,15,15,
15,15,15,15,15,15,15,15,15,15,15,15,15,15,15,15,
15,15,15,15,15,15,15,15,15,15,15,15,15,15,15,15,
15,15,15,15,15,15,15,15,15,15,15,15,15,15,15,15,
15,15,15,15,15,15,15,15,15,15,15,15,15,15,15,15,
15,15,15,15,15,15,15,15,15,15,15,15,15,15,15,15,
15,15,15,15,15,15,15,15,15,15,15,15,15,15,15,15,
15,15,15,15,15,15,15,15,15,15,15,15,15,15,15,15,
15,15,15,15,15,15,15,15,15,15,15,15,15,15,15,15,
15,15,15,15,15,15,15,15,15,15,15,15,15,15,15,15,
15,15,15,15,15,15,15,15,15,15,15,15,15,15,15,15,
15,15,15,15,15,15,15,15,15,15,15,15,15,15,15,15,
15,15,15,15,15,15,15,15,15,15,15,15,15,15,15,15,
15,15,15,15,15,15,15,15,15,15,15,15,15,15,15,15,
15,15,15,15,15,15,15,15,15,15,15,15,15,15,15,15,
15,15,15,15,15,15,15,15,15,15,15,15,15,15,15,15
</chunk>
   <chunk x="1296" y="832" width="16" height="16">
15,15,15,15,15,15,15,15,15,15,15,15,15,15,15,35,
15,15,15,15,15,15,15,15,15,15,15,15,15,15,15,35,
15,15,15,15,15,15,15,15,15,15,15,15,15,15,15,35,
15,15,15,15,15,15,15,15,15,15,15,15,15,15,15,35,
15,15,15,15,15,15,15,15,15,15,15,15,15,15,15,35,
15,15,15,15,15,15,15,15,15,15,15,15,15,15,15,35,
15,15,15,15,15,15,15,15,15,15,15,15,15,15,15,35,
15,15,15,15,15,15,15,15,15,15,15,15,15,15,15,35,
15,15,15,15,15,15,15,15,15,15,15,15,15,15,15,35,
15,15,15,15,15,15,15,15,15,15,15,15,15,15,15,35,
15,15,15,15,15,15,15,15,15,15,15,15,15,15,15,35,
15,15,15,15,15,15,15,15,15,15,15,15,15,15,15,35,
15,15,15,15,15,15,15,15,15,15,15,15,15,15,15,35,
15,15,15,15,15,15,15,15,15,15,15,15,15,15,15,35,
15,15,15,15,15,15,15,15,15,15,15,15,15,15,15,15,
15,15,15,15,15,15,15,15,15,15,15,15,15,15,15,15
</chunk>
   <chunk x="1312" y="832" width="16" height="16">
35,35,35,35,35,35,35,35,15,15,15,15,15,15,15,15,
35,35,35,35,35,35,35,35,15,15,15,15,15,15,15,15,
35,35,35,35,35,35,35,35,15,15,15,15,15,15,15,15,
35,35,35,35,35,35,35,35,15,15,15,15,15,15,15,15,
35,35,35,35,35,35,35,35,15,15,15,15,15,15,15,15,
35,35,35,35,35,35,35,35,15,15,15,15,15,15,15,15,
35,35,35,35,35,35,35,35,15,15,15,15,15,15,15,15,
35,35,35,35,35,35,35,35,35,15,15,15,15,15,15,15,
35,35,35,35,35,35,35,35,35,15,15,15,15,15,15,15,
35,35,35,35,35,35,35,35,35,15,15,15,15,15,15,15,
35,35,35,35,35,35,35,35,35,15,15,15,15,15,15,15,
35,35,35,35,35,35,35,35,35,35,15,15,15,15,15,15,
35,35,35,35,35,35,35,35,35,35,15,15,15,15,15,15,
35,35,35,35,35,35,35,35,35,35,15,15,15,15,15,15,
35,35,35,35,35,35,35,35,35,35,35,15,15,15,15,15,
35,35,35,35,35,35,35,35,35,35,35,15,15,15,15,15
</chunk>
   <chunk x="1328" y="832" width="16" height="16">
15,15,15,15,15,15,15,15,15,15,15,15,15,5,5,5,
15,15,15,15,15,15,15,15,15,15,15,15,15,5,5,5,
15,15,15,15,15,15,15,15,15,15,15,15,15,5,5,5,
15,15,15,15,15,15,15,15,15,15,15,15,5,5,5,5,
15,15,15,15,15,15,15,15,15,15,15,15,5,5,5,5,
15,15,15,15,15,15,15,15,15,15,15,5,5,5,5,5,
15,15,15,15,15,15,15,15,15,15,15,5,5,5,5,5,
15,15,15,15,15,15,15,15,15,15,15,5,5,5,5,5,
15,15,15,15,15,15,15,15,15,15,5,5,5,5,5,5,
15,15,15,15,15,15,15,15,15,15,5,5,5,5,5,5,
15,15,15,15,15,15,15,15,15,15,5,5,5,5,5,5,
15,15,15,15,15,15,15,15,15,15,5,5,5,5,5,5,
15,15,15,15,15,15,15,15,15,15,5,5,5,5,5,5,
15,15,15,15,15,15,15,15,15,15,5,5,5,5,5,5,
15,15,15,15,15,15,15,15,15,15,5,5,5,5,5,5,
15,15,15,15,15,15,15,15,15,15,5,5,5,5,5,5
</chunk>
   <chunk x="1344" y="832" width="16" height="16">
5,5,5,5,5,5,5,5,5,5,5,5,5,5,5,5,
5,5,5,5,5,5,5,5,5,5,5,5,5,5,5,5,
5,5,5,5,5,5,5,5,5,5,5,5,5,5,5,5,
5,5,5,5,5,5,5,5,5,5,5,5,5,5,5,5,
5,5,5,5,5,5,5,5,5,5,5,5,5,5,5,5,
5,5,5,5,5,5,5,5,5,5,5,5,5,5,5,5,
5,5,5,5,5,5,5,5,5,5,5,5,5,5,5,5,
5,5,5,5,5,5,5,5,5,5,5,5,5,5,5,5,
5,5,5,5,5,5,5,5,5,5,5,5,5,5,5,5,
5,5,5,5,5,5,5,5,5,5,5,5,5,5,5,5,
5,5,5,5,5,5,5,5,5,5,5,5,5,5,5,5,
5,5,5,5,5,5,5,5,5,5,5,5,5,5,5,5,
5,5,5,5,5,5,5,5,5,5,5,5,5,5,5,5,
5,5,5,5,5,5,5,5,5,5,5,5,5,5,5,5,
5,5,5,5,5,5,5,5,5,5,5,5,5,5,5,5,
5,5,5,5,5,5,5,5,5,5,5,5,5,5,5,5
</chunk>
   <chunk x="1360" y="832" width="16" height="16">
5,5,5,5,5,5,5,5,5,5,5,5,5,5,5,5,
5,5,5,5,5,5,5,5,5,5,5,5,5,5,5,5,
5,5,5,5,5,5,5,5,5,5,5,5,5,5,5,5,
5,5,5,5,5,5,5,5,5,5,5,5,5,5,5,15,
5,5,5,5,5,5,5,5,5,5,5,5,5,15,15,15,
5,5,5,5,5,5,5,5,5,5,5,5,5,15,15,15,
5,5,5,5,5,5,5,5,5,5,5,5,5,5,15,15,
5,5,5,5,5,5,5,5,5,5,5,5,5,15,15,15,
5,5,5,5,5,5,5,5,5,5,5,5,15,15,15,15,
5,5,5,5,5,5,5,5,5,5,5,35,35,35,35,35,
5,5,5,5,5,5,5,5,5,5,35,35,35,35,35,35,
5,5,5,5,5,5,5,35,5,35,35,35,35,35,35,35,
5,5,5,5,5,5,35,35,5,5,35,35,35,35,35,35,
5,5,5,5,5,35,35,5,5,35,35,35,35,35,35,35,
5,5,5,5,5,35,5,5,35,35,35,35,35,35,35,35,
5,5,5,5,35,5,5,35,35,35,35,35,35,35,35,35
</chunk>
   <chunk x="1376" y="832" width="16" height="16">
15,15,15,15,15,15,15,15,15,15,15,15,15,15,15,15,
5,15,15,15,15,15,15,15,15,15,15,15,15,15,15,15,
15,15,15,15,15,15,15,15,15,15,15,15,15,15,15,15,
15,15,15,15,15,15,15,15,15,15,15,15,15,15,15,15,
15,15,15,15,15,15,15,15,15,15,15,15,15,15,15,15,
15,15,15,15,15,15,15,15,15,15,15,15,15,15,15,15,
15,15,15,15,15,15,15,15,15,15,15,15,15,15,15,15,
15,15,15,15,15,15,15,15,15,15,15,15,15,15,15,15,
15,15,15,15,15,15,15,15,15,15,15,15,15,15,35,35,
35,35,35,15,35,35,35,35,35,35,35,35,35,35,35,35,
35,35,35,35,35,35,35,35,35,35,35,35,35,35,35,35,
35,35,35,35,35,35,35,35,35,35,35,35,35,35,35,35,
35,35,35,35,35,35,35,35,35,35,35,35,35,35,35,35,
35,35,35,35,35,35,35,35,35,35,35,35,35,35,35,35,
35,35,35,35,35,35,35,35,35,35,35,35,35,35,35,15,
35,35,35,35,35,35,35,35,35,35,35,35,35,15,15,15
</chunk>
   <chunk x="1392" y="832" width="16" height="16">
15,15,15,15,15,15,35,35,35,35,35,35,35,35,35,15,
15,15,15,15,15,15,35,35,35,35,35,35,35,35,35,15,
15,15,15,15,15,35,35,35,35,35,35,35,35,35,35,15,
15,15,15,15,35,35,35,35,35,35,35,35,35,35,35,15,
15,15,15,35,35,35,35,35,35,35,35,35,35,35,35,15,
15,15,35,35,35,35,35,35,35,35,35,35,35,35,15,15,
15,35,35,35,35,35,35,35,35,35,35,35,35,35,15,15,
35,35,35,35,35,35,35,35,35,35,35,35,35,35,15,15,
35,35,35,35,35,35,35,35,35,35,35,35,35,15,15,15,
35,35,35,35,35,35,35,35,35,35,35,35,15,15,15,15,
35,35,35,35,35,35,35,35,35,35,35,15,15,15,15,15,
35,35,35,35,35,35,35,35,35,35,15,15,15,15,15,15,
35,35,35,35,35,35,35,35,15,15,15,15,15,15,15,15,
35,35,35,35,15,15,15,15,15,15,15,15,15,15,15,15,
15,15,15,15,15,15,15,15,15,15,15,15,15,15,15,15,
15,15,15,15,15,15,15,15,15,15,15,15,15,15,15,15
</chunk>
   <chunk x="1408" y="832" width="16" height="16">
15,15,15,15,15,15,15,15,15,15,15,15,15,15,15,15,
15,15,15,15,15,15,15,15,15,15,15,15,15,15,15,15,
15,15,15,15,15,15,15,15,15,15,15,15,15,15,15,15,
15,15,15,15,15,15,15,15,15,15,15,15,15,15,15,15,
15,15,15,15,15,15,15,15,15,15,15,15,15,15,15,15,
15,15,15,15,15,15,15,15,15,15,15,15,15,15,15,15,
15,15,15,15,15,15,15,15,15,15,15,15,15,15,15,15,
15,15,15,15,15,15,15,15,15,15,15,15,15,15,15,15,
15,15,15,15,15,15,15,15,15,15,15,15,15,15,15,15,
15,15,15,15,15,15,15,15,15,15,15,15,15,15,15,15,
15,15,15,15,15,15,15,15,15,15,15,15,15,15,15,15,
15,15,15,15,15,15,15,15,15,15,15,15,15,15,15,15,
15,15,15,15,15,15,15,15,15,15,15,15,15,15,15,15,
15,15,15,15,15,15,15,15,15,15,15,15,15,15,15,15,
15,15,15,15,15,15,15,15,15,15,15,15,15,15,15,15,
15,15,15,15,15,15,15,15,15,15,15,15,15,15,15,15
</chunk>
   <chunk x="1424" y="832" width="16" height="16">
15,15,15,15,15,15,15,15,15,15,15,15,15,15,15,15,
15,15,15,15,15,15,15,15,15,15,15,15,15,15,15,15,
15,15,15,15,15,15,15,15,15,15,15,15,15,15,15,15,
15,15,15,15,15,15,15,15,15,15,15,15,15,15,15,15,
15,15,15,15,15,15,15,15,15,15,15,15,15,15,15,15,
15,15,15,15,15,15,15,15,15,15,15,15,15,15,15,15,
15,15,15,15,15,15,15,15,15,15,15,15,15,15,15,15,
15,15,15,15,15,15,15,15,15,15,15,15,15,15,15,15,
15,15,15,15,15,15,15,15,15,15,15,15,15,15,15,15,
15,15,15,15,15,15,15,15,15,15,15,15,15,15,15,15,
15,15,15,15,15,15,15,15,15,15,15,15,15,15,15,15,
15,15,15,15,15,15,15,15,15,15,15,15,15,15,15,15,
15,15,15,15,15,15,15,15,15,15,15,15,15,15,15,15,
15,15,15,15,15,15,15,15,15,15,15,15,15,15,15,15,
15,15,15,15,15,15,15,15,15,15,15,15,15,15,15,15,
15,15,15,15,15,15,15,15,15,15,15,15,15,15,15,15
</chunk>
   <chunk x="1440" y="832" width="16" height="16">
15,15,15,15,15,15,15,15,15,15,15,15,15,15,15,15,
15,15,15,15,15,15,15,15,15,15,15,15,15,15,15,15,
15,15,15,15,15,15,15,15,15,15,15,15,15,15,15,15,
15,15,15,15,15,15,15,15,15,15,15,15,15,15,15,15,
15,15,15,15,15,15,15,15,15,15,15,15,15,15,15,15,
15,15,15,15,15,15,15,15,15,15,15,15,15,15,15,15,
15,15,15,15,15,15,15,15,15,15,15,15,15,15,15,15,
15,15,15,15,15,15,15,15,15,15,15,15,15,15,15,15,
15,15,15,15,15,15,15,15,15,15,15,15,15,15,15,15,
15,15,15,15,15,15,15,15,15,15,15,15,15,15,15,15,
15,15,15,15,15,15,15,15,15,15,15,15,15,15,15,15,
15,15,15,15,15,15,15,15,15,15,15,15,15,15,15,15,
15,15,15,15,15,15,15,15,15,15,15,15,15,15,15,15,
15,15,15,15,15,15,15,15,15,15,15,15,15,15,15,15,
15,15,15,15,15,15,15,15,15,15,15,15,15,15,15,15,
15,15,15,15,15,15,15,15,15,15,15,15,15,15,15,15
</chunk>
   <chunk x="1456" y="832" width="16" height="16">
15,15,15,15,15,15,15,15,15,15,15,15,15,15,15,15,
15,15,15,15,15,15,15,15,15,15,15,15,15,15,15,15,
15,15,15,15,15,15,15,15,15,15,15,15,15,15,15,15,
15,15,15,15,15,15,15,15,15,15,15,15,15,15,15,15,
15,15,15,15,15,15,15,15,15,15,15,15,15,15,15,15,
15,15,15,15,15,15,15,15,15,15,15,15,15,15,15,15,
15,15,15,15,15,15,15,15,15,15,15,15,15,15,15,15,
15,15,15,15,15,15,15,15,15,15,15,15,15,15,15,15,
15,15,15,15,15,15,15,15,15,15,15,15,15,15,15,15,
15,15,15,15,15,15,15,15,15,15,15,15,15,15,15,15,
15,15,15,15,15,15,15,15,15,15,15,15,15,15,15,15,
15,15,15,15,15,15,15,15,15,15,15,15,15,15,15,15,
15,15,15,15,15,15,15,15,15,15,15,15,15,15,15,15,
15,15,15,15,15,15,15,15,15,15,15,15,15,15,15,15,
15,15,15,15,15,15,15,15,15,15,15,15,15,15,15,15,
15,15,15,15,15,15,15,15,15,15,15,15,15,15,15,15
</chunk>
   <chunk x="1472" y="832" width="16" height="16">
15,15,15,15,15,15,15,15,15,15,15,15,15,15,15,15,
15,15,15,15,15,15,15,15,15,15,15,15,15,15,15,15,
15,15,15,15,15,15,15,15,15,15,15,15,15,15,15,15,
15,15,15,15,15,15,15,15,15,15,15,15,15,15,15,15,
15,15,15,15,15,15,15,15,15,15,15,15,15,15,15,15,
15,15,15,15,15,15,15,15,15,15,15,15,15,15,15,15,
15,15,15,15,15,15,15,15,15,15,15,15,15,15,15,15,
15,15,15,15,15,15,15,15,15,15,15,15,15,15,15,15,
15,15,15,15,15,15,15,15,15,15,15,15,15,15,15,15,
15,15,15,15,15,15,15,15,15,15,15,15,15,15,15,15,
15,15,15,15,15,15,15,15,15,15,15,15,15,15,15,15,
15,15,15,15,15,15,15,15,15,15,15,15,15,15,15,15,
15,15,15,15,15,15,15,15,15,15,15,15,15,15,15,15,
15,15,15,15,15,15,15,15,15,15,15,15,15,15,15,15,
15,15,15,15,15,15,15,15,15,15,15,15,15,15,15,15,
15,15,15,15,15,15,15,15,15,15,15,15,15,15,15,15
</chunk>
   <chunk x="1488" y="832" width="16" height="16">
15,15,15,15,15,15,15,15,15,15,15,15,15,15,15,15,
15,15,15,15,15,15,15,15,15,15,15,15,15,15,15,15,
15,15,15,15,15,15,15,15,15,15,15,15,15,15,15,15,
15,15,15,15,15,15,15,15,15,15,15,15,15,15,15,15,
15,15,15,15,15,15,15,15,15,15,15,15,15,15,15,15,
15,15,15,15,15,15,15,15,15,15,15,15,15,15,15,15,
15,15,15,15,15,15,15,15,15,15,15,15,15,15,15,15,
15,15,15,15,15,15,15,15,15,15,15,15,15,15,15,15,
15,15,15,15,15,15,15,15,15,15,15,15,15,15,15,15,
15,15,15,15,15,15,15,15,15,15,15,15,15,15,15,15,
15,15,15,15,15,15,15,15,15,15,15,15,15,15,15,15,
15,15,15,15,15,15,15,15,15,15,15,15,15,15,15,15,
15,15,15,15,15,15,15,15,15,15,15,15,15,15,15,15,
15,15,15,15,15,15,15,15,15,15,15,15,15,15,15,15,
15,15,15,15,15,15,15,15,15,15,15,15,15,15,15,15,
15,15,15,15,15,15,15,15,15,15,15,15,15,15,15,15
</chunk>
   <chunk x="1504" y="832" width="16" height="16">
15,15,15,15,15,15,15,15,15,15,15,15,15,15,15,15,
15,15,15,15,15,15,15,15,15,15,15,15,15,15,15,15,
15,15,15,15,15,15,15,15,15,15,15,15,15,15,15,15,
15,15,15,15,15,15,15,15,15,15,15,15,15,15,15,15,
15,15,15,15,15,15,15,15,15,15,15,15,15,15,15,15,
15,15,15,15,15,15,15,15,15,15,15,15,15,15,15,15,
15,15,15,15,15,15,15,15,15,15,15,15,15,15,15,15,
15,15,15,15,15,15,15,15,15,15,15,15,15,15,15,15,
15,15,15,15,15,15,15,15,15,15,15,15,15,15,15,15,
15,15,15,15,15,15,15,15,15,15,15,15,15,15,15,15,
15,15,15,15,15,15,15,15,15,15,15,15,15,15,15,15,
15,15,15,15,15,15,15,15,15,15,15,15,15,15,15,15,
15,15,15,15,15,15,15,15,15,15,15,15,15,15,15,15,
15,15,15,15,15,15,15,15,15,15,15,15,15,15,15,15,
15,15,15,15,15,15,15,15,15,15,15,15,15,15,15,15,
15,15,15,15,15,15,15,15,15,15,15,15,15,15,15,15
</chunk>
   <chunk x="1520" y="832" width="16" height="16">
15,15,15,15,15,15,15,15,15,15,15,15,15,15,15,15,
15,15,15,15,15,15,15,15,15,15,15,15,15,15,15,15,
15,15,15,15,15,15,15,15,15,15,15,15,15,15,15,15,
15,15,15,15,15,15,15,15,15,15,15,15,15,15,15,15,
15,15,15,15,15,15,15,15,15,15,15,15,15,15,15,15,
15,15,15,15,15,15,15,15,15,15,15,15,15,15,15,15,
15,15,15,15,15,15,15,15,15,15,15,15,15,15,15,15,
15,15,15,15,15,15,15,15,15,15,15,15,15,15,15,15,
15,15,15,15,15,15,15,15,15,15,15,15,15,15,15,15,
15,15,15,15,15,15,15,15,15,15,15,15,15,15,15,15,
15,15,15,15,15,15,15,15,15,15,15,15,15,15,15,15,
15,15,15,15,15,15,15,15,15,15,15,15,15,15,15,15,
15,15,15,15,15,15,15,15,15,15,15,15,15,15,15,15,
15,15,15,15,15,15,15,15,15,15,15,15,15,15,15,15,
15,15,15,15,15,15,15,15,15,15,15,15,15,15,15,15,
15,15,15,15,15,15,15,15,15,15,15,15,15,15,15,15
</chunk>
   <chunk x="1536" y="832" width="16" height="16">
15,15,15,15,15,15,15,15,15,15,15,15,15,15,15,15,
15,15,15,15,15,15,15,15,15,15,15,15,15,15,15,15,
15,15,15,15,15,15,15,15,15,15,15,15,15,15,15,15,
15,15,15,15,15,15,15,15,15,15,15,15,15,15,15,15,
15,15,15,15,15,15,15,15,15,15,15,15,15,15,15,15,
15,15,15,15,15,15,15,15,15,15,15,15,15,15,15,15,
15,15,15,15,15,15,15,15,15,15,15,15,15,15,15,15,
15,15,15,15,15,15,15,15,15,15,15,15,15,15,15,15,
15,15,15,15,15,15,15,15,15,15,15,15,15,15,15,15,
15,15,15,15,15,15,15,15,15,15,15,15,15,15,15,15,
15,15,15,15,15,15,15,15,15,15,15,15,15,15,15,15,
15,15,15,15,15,15,15,15,15,15,15,15,15,15,15,15,
15,15,15,15,15,15,15,15,15,15,15,15,15,15,15,15,
15,15,15,15,15,15,15,15,15,15,15,15,15,15,15,15,
15,15,15,15,15,15,15,15,15,15,15,15,15,15,15,15,
15,15,15,15,15,15,15,15,15,15,15,15,15,15,15,15
</chunk>
   <chunk x="1552" y="832" width="16" height="16">
15,15,15,15,15,15,15,15,15,15,15,0,0,0,0,0,
15,15,15,15,15,15,15,15,15,15,15,0,0,0,0,0,
15,15,15,15,15,15,15,15,15,15,15,0,0,0,0,0,
15,15,15,15,15,15,15,15,15,15,15,0,0,0,0,0,
15,15,15,15,15,15,15,15,15,15,15,0,0,0,0,0,
15,15,15,15,15,15,15,15,15,15,15,0,0,0,0,0,
15,15,15,15,15,15,15,15,15,15,15,0,0,0,0,0,
15,15,15,15,15,15,15,15,15,15,15,0,0,0,0,0,
15,15,15,15,15,15,15,15,15,15,15,0,0,0,0,0,
15,15,15,15,15,15,15,15,15,15,15,0,0,0,0,0,
15,15,15,15,15,15,15,15,15,15,15,0,0,0,0,0,
15,15,15,15,15,15,15,15,15,15,15,0,0,0,0,0,
15,15,15,15,15,15,15,15,15,15,15,0,0,0,0,0,
15,15,15,15,15,15,15,15,15,15,15,0,0,0,0,0,
15,15,15,15,15,15,15,15,15,15,15,0,0,0,0,0,
15,15,15,15,15,15,15,15,15,15,15,0,0,0,0,0
</chunk>
   <chunk x="1264" y="848" width="16" height="16">
15,15,15,15,15,15,15,15,15,15,15,15,15,15,15,15,
15,15,15,15,15,15,15,15,15,15,15,15,15,15,15,15,
15,15,15,15,15,15,15,15,15,15,15,15,15,15,15,15,
15,15,15,15,15,15,15,15,15,15,15,15,15,15,15,15,
15,15,15,15,15,15,15,15,15,15,15,15,15,15,15,15,
15,15,15,15,15,15,15,15,15,15,15,15,15,15,15,15,
15,15,15,15,15,15,15,15,15,15,15,15,15,15,15,15,
15,15,15,15,15,15,15,15,15,15,15,15,15,15,15,15,
0,0,0,0,0,0,0,0,0,0,0,0,0,0,0,0,
0,0,0,0,0,0,0,0,0,0,0,0,0,0,0,0,
0,0,0,0,0,0,0,0,0,0,0,0,0,0,0,0,
0,0,0,0,0,0,0,0,0,0,0,0,0,0,0,0,
0,0,0,0,0,0,0,0,0,0,0,0,0,0,0,0,
0,0,0,0,0,0,0,0,0,0,0,0,0,0,0,0,
0,0,0,0,0,0,0,0,0,0,0,0,0,0,0,0,
0,0,0,0,0,0,0,0,0,0,0,0,0,0,0,0
</chunk>
   <chunk x="1280" y="848" width="16" height="16">
15,15,15,15,15,15,15,15,15,15,15,15,15,15,15,15,
15,15,15,15,15,15,15,15,15,15,15,15,15,15,15,15,
15,15,15,15,15,15,15,15,15,15,15,15,15,15,15,15,
15,15,15,15,15,15,15,15,15,15,15,15,15,15,15,15,
15,15,15,15,15,15,15,15,15,15,15,15,15,15,15,15,
15,15,15,15,15,15,15,15,15,15,15,15,15,15,15,15,
15,15,15,15,15,15,15,15,15,15,15,15,15,15,15,15,
15,15,15,15,15,15,15,15,15,15,15,15,15,15,15,15,
0,0,0,0,0,0,0,0,0,0,0,0,0,0,0,0,
0,0,0,0,0,0,0,0,0,0,0,0,0,0,0,0,
0,0,0,0,0,0,0,0,0,0,0,0,0,0,0,0,
0,0,0,0,0,0,0,0,0,0,0,0,0,0,0,0,
0,0,0,0,0,0,0,0,0,0,0,0,0,0,0,0,
0,0,0,0,0,0,0,0,0,0,0,0,0,0,0,0,
0,0,0,0,0,0,0,0,0,0,0,0,0,0,0,0,
0,0,0,0,0,0,0,0,0,0,0,0,0,0,0,0
</chunk>
   <chunk x="1296" y="848" width="16" height="16">
15,15,15,15,15,15,15,15,15,15,15,15,15,15,15,15,
15,15,15,15,15,15,15,15,15,15,15,15,15,15,15,15,
15,15,15,15,15,15,15,15,15,15,15,15,15,15,15,15,
15,15,15,15,15,15,15,15,15,15,15,15,15,15,15,15,
15,15,15,15,15,15,15,15,15,15,15,15,15,15,15,15,
15,15,15,15,15,15,15,15,15,15,15,15,15,15,15,15,
15,15,15,15,15,15,15,15,15,15,15,15,15,15,15,15,
15,15,15,15,15,15,15,15,15,15,15,15,15,15,15,15,
0,0,0,0,0,0,0,0,0,0,0,0,0,0,0,0,
0,0,0,0,0,0,0,0,0,0,0,0,0,0,0,0,
0,0,0,0,0,0,0,0,0,0,0,0,0,0,0,0,
0,0,0,0,0,0,0,0,0,0,0,0,0,0,0,0,
0,0,0,0,0,0,0,0,0,0,0,0,0,0,0,0,
0,0,0,0,0,0,0,0,0,0,0,0,0,0,0,0,
0,0,0,0,0,0,0,0,0,0,0,0,0,0,0,0,
0,0,0,0,0,0,0,0,0,0,0,0,0,0,0,0
</chunk>
   <chunk x="1312" y="848" width="16" height="16">
35,35,35,35,35,35,35,35,35,35,35,35,15,15,15,15,
15,35,35,35,35,35,35,35,35,35,35,35,15,15,15,15,
15,35,35,35,35,35,35,35,35,35,35,35,35,15,15,15,
15,35,35,35,35,35,35,35,35,35,35,35,35,15,15,15,
15,35,35,35,35,35,35,35,35,35,35,35,35,35,15,15,
15,15,35,35,35,35,35,35,35,35,35,35,35,35,15,15,
15,15,15,35,35,35,35,35,35,35,35,35,35,35,35,15,
15,15,15,15,35,35,35,35,35,35,35,35,35,35,35,35,
0,0,0,0,0,0,0,0,0,0,0,0,0,0,0,0,
0,0,0,0,0,0,0,0,0,0,0,0,0,0,0,0,
0,0,0,0,0,0,0,0,0,0,0,0,0,0,0,0,
0,0,0,0,0,0,0,0,0,0,0,0,0,0,0,0,
0,0,0,0,0,0,0,0,0,0,0,0,0,0,0,0,
0,0,0,0,0,0,0,0,0,0,0,0,0,0,0,0,
0,0,0,0,0,0,0,0,0,0,0,0,0,0,0,0,
0,0,0,0,0,0,0,0,0,0,0,0,0,0,0,0
</chunk>
   <chunk x="1328" y="848" width="16" height="16">
15,15,15,15,15,15,15,15,15,15,5,5,5,5,5,5,
15,15,15,15,15,15,15,15,15,15,5,5,5,5,5,5,
15,15,15,15,15,15,15,15,15,15,15,5,5,5,5,5,
15,15,15,15,15,15,15,15,15,15,15,5,5,5,5,5,
15,15,15,15,15,15,15,15,15,15,15,5,5,5,5,5,
15,15,15,15,15,15,15,15,15,15,15,15,5,5,5,5,
15,15,15,15,15,15,15,15,15,15,15,15,15,5,5,5,
15,15,15,15,15,15,15,15,15,15,15,15,15,15,5,5,
0,0,0,0,0,0,0,0,0,0,0,0,0,0,0,0,
0,0,0,0,0,0,0,0,0,0,0,0,0,0,0,0,
0,0,0,0,0,0,0,0,0,0,0,0,0,0,0,0,
0,0,0,0,0,0,0,0,0,0,0,0,0,0,0,0,
0,0,0,0,0,0,0,0,0,0,0,0,0,0,0,0,
0,0,0,0,0,0,0,0,0,0,0,0,0,0,0,0,
0,0,0,0,0,0,0,0,0,0,0,0,0,0,0,0,
0,0,0,0,0,0,0,0,0,0,0,0,0,0,0,0
</chunk>
   <chunk x="1344" y="848" width="16" height="16">
5,5,5,5,5,5,5,5,5,5,5,5,5,5,5,5,
5,5,5,5,5,5,5,5,5,5,5,5,5,5,5,5,
5,5,5,5,5,5,5,5,5,5,5,5,5,5,5,5,
5,5,5,5,5,5,5,5,5,5,5,5,5,5,5,5,
5,5,5,5,5,5,5,5,5,5,5,5,5,5,5,5,
5,5,5,5,5,5,5,5,5,5,5,5,5,5,5,5,
5,5,5,5,5,5,5,5,5,5,5,5,5,5,5,5,
5,5,5,5,5,5,5,5,5,5,5,5,5,5,5,5,
0,0,0,0,0,0,0,0,0,0,0,0,0,0,0,0,
0,0,0,0,0,0,0,0,0,0,0,0,0,0,0,0,
0,0,0,0,0,0,0,0,0,0,0,0,0,0,0,0,
0,0,0,0,0,0,0,0,0,0,0,0,0,0,0,0,
0,0,0,0,0,0,0,0,0,0,0,0,0,0,0,0,
0,0,0,0,0,0,0,0,0,0,0,0,0,0,0,0,
0,0,0,0,0,0,0,0,0,0,0,0,0,0,0,0,
0,0,0,0,0,0,0,0,0,0,0,0,0,0,0,0
</chunk>
   <chunk x="1360" y="848" width="16" height="16">
5,5,5,5,35,5,35,35,35,35,35,35,35,35,35,35,
5,5,5,5,35,5,5,35,35,35,35,35,35,35,35,35,
5,5,5,5,5,5,35,35,35,35,35,35,35,35,35,35,
5,5,5,5,5,35,35,35,35,35,35,35,35,35,15,15,
5,5,5,5,35,35,35,35,35,35,35,35,35,15,15,15,
5,5,5,5,5,35,35,35,35,35,35,35,35,15,15,15,
5,5,5,5,5,5,35,35,35,35,35,35,35,35,15,15,
5,5,5,5,5,5,5,35,35,35,35,35,35,35,35,15,
0,0,0,0,0,0,0,0,0,0,0,0,0,0,0,0,
0,0,0,0,0,0,0,0,0,0,0,0,0,0,0,0,
0,0,0,0,0,0,0,0,0,0,0,0,0,0,0,0,
0,0,0,0,0,0,0,0,0,0,0,0,0,0,0,0,
0,0,0,0,0,0,0,0,0,0,0,0,0,0,0,0,
0,0,0,0,0,0,0,0,0,0,0,0,0,0,0,0,
0,0,0,0,0,0,0,0,0,0,0,0,0,0,0,0,
0,0,0,0,0,0,0,0,0,0,0,0,0,0,0,0
</chunk>
   <chunk x="1376" y="848" width="16" height="16">
35,35,35,35,35,35,35,35,35,15,15,15,15,15,15,15,
35,35,35,35,35,15,15,15,15,15,15,15,15,15,15,15,
15,15,15,15,15,15,15,15,15,15,15,15,15,15,15,15,
15,15,15,15,15,15,15,15,15,15,15,15,15,15,15,15,
15,15,15,15,15,15,15,15,15,15,15,15,15,15,15,15,
15,15,15,15,15,15,15,15,15,15,15,15,15,15,15,15,
15,15,15,15,15,15,15,15,15,15,15,15,15,15,15,15,
15,15,15,15,15,15,15,15,15,15,15,15,15,15,15,15,
0,0,0,0,0,0,0,0,0,0,0,0,0,0,0,0,
0,0,0,0,0,0,0,0,0,0,0,0,0,0,0,0,
0,0,0,0,0,0,0,0,0,0,0,0,0,0,0,0,
0,0,0,0,0,0,0,0,0,0,0,0,0,0,0,0,
0,0,0,0,0,0,0,0,0,0,0,0,0,0,0,0,
0,0,0,0,0,0,0,0,0,0,0,0,0,0,0,0,
0,0,0,0,0,0,0,0,0,0,0,0,0,0,0,0,
0,0,0,0,0,0,0,0,0,0,0,0,0,0,0,0
</chunk>
   <chunk x="1392" y="848" width="16" height="16">
15,15,15,15,15,15,15,15,15,15,15,15,15,15,15,15,
15,15,15,15,15,15,15,15,15,15,15,15,15,15,15,15,
15,15,15,15,15,15,15,15,15,15,15,15,15,15,15,15,
15,15,15,15,15,15,15,15,15,15,15,15,15,15,15,15,
15,15,15,15,15,15,15,15,15,15,15,15,15,15,15,15,
15,15,15,15,15,15,15,15,15,15,15,15,15,15,15,15,
15,15,15,15,15,15,15,15,15,15,15,15,15,15,15,15,
15,15,15,15,15,15,15,15,15,15,15,15,15,15,15,15,
0,0,0,0,0,0,0,0,0,0,0,0,0,0,0,0,
0,0,0,0,0,0,0,0,0,0,0,0,0,0,0,0,
0,0,0,0,0,0,0,0,0,0,0,0,0,0,0,0,
0,0,0,0,0,0,0,0,0,0,0,0,0,0,0,0,
0,0,0,0,0,0,0,0,0,0,0,0,0,0,0,0,
0,0,0,0,0,0,0,0,0,0,0,0,0,0,0,0,
0,0,0,0,0,0,0,0,0,0,0,0,0,0,0,0,
0,0,0,0,0,0,0,0,0,0,0,0,0,0,0,0
</chunk>
   <chunk x="1408" y="848" width="16" height="16">
15,15,15,15,15,15,15,15,15,15,15,15,15,15,15,15,
15,15,15,15,15,15,15,15,15,15,15,15,15,15,15,15,
15,15,15,15,15,15,15,15,15,15,15,15,15,15,15,15,
15,15,15,15,15,15,15,15,15,15,15,15,15,15,15,15,
15,15,15,15,15,15,15,15,15,15,15,15,15,15,15,15,
15,15,15,15,15,15,15,15,15,15,15,15,15,15,15,15,
15,15,15,15,15,15,15,15,15,15,15,15,15,15,15,15,
15,15,15,15,15,15,15,15,15,15,15,15,15,15,15,15,
0,0,0,0,0,0,0,0,0,0,0,0,0,0,0,0,
0,0,0,0,0,0,0,0,0,0,0,0,0,0,0,0,
0,0,0,0,0,0,0,0,0,0,0,0,0,0,0,0,
0,0,0,0,0,0,0,0,0,0,0,0,0,0,0,0,
0,0,0,0,0,0,0,0,0,0,0,0,0,0,0,0,
0,0,0,0,0,0,0,0,0,0,0,0,0,0,0,0,
0,0,0,0,0,0,0,0,0,0,0,0,0,0,0,0,
0,0,0,0,0,0,0,0,0,0,0,0,0,0,0,0
</chunk>
   <chunk x="1424" y="848" width="16" height="16">
15,15,15,15,15,15,15,15,15,15,15,15,15,15,15,15,
15,15,15,15,15,15,15,15,15,15,15,15,15,15,15,15,
15,15,15,15,15,15,15,15,15,15,15,15,15,15,15,15,
15,15,15,15,15,15,15,15,15,15,15,15,15,15,15,15,
15,15,15,15,15,15,15,15,15,15,15,15,15,15,15,15,
15,15,15,15,15,15,15,15,15,15,15,15,15,15,15,15,
15,15,15,15,15,15,15,15,15,15,15,15,15,15,15,15,
15,15,15,15,15,15,15,15,15,15,15,15,15,15,15,15,
0,0,0,0,0,0,0,0,0,0,0,0,0,0,0,0,
0,0,0,0,0,0,0,0,0,0,0,0,0,0,0,0,
0,0,0,0,0,0,0,0,0,0,0,0,0,0,0,0,
0,0,0,0,0,0,0,0,0,0,0,0,0,0,0,0,
0,0,0,0,0,0,0,0,0,0,0,0,0,0,0,0,
0,0,0,0,0,0,0,0,0,0,0,0,0,0,0,0,
0,0,0,0,0,0,0,0,0,0,0,0,0,0,0,0,
0,0,0,0,0,0,0,0,0,0,0,0,0,0,0,0
</chunk>
   <chunk x="1440" y="848" width="16" height="16">
15,15,15,15,15,15,15,15,15,15,15,15,15,15,15,15,
15,15,15,15,15,15,15,15,15,15,15,15,15,15,15,15,
15,15,15,15,15,15,15,15,15,15,15,15,15,15,15,15,
15,15,15,15,15,15,15,15,15,15,15,15,15,15,15,15,
15,15,15,15,15,15,15,15,15,15,15,15,15,15,15,15,
15,15,15,15,15,15,15,15,15,15,15,15,15,15,15,15,
15,15,15,15,15,15,15,15,15,15,15,15,15,15,15,15,
15,15,15,15,15,15,15,15,15,15,15,15,15,15,15,15,
0,0,0,0,0,0,0,0,0,0,0,0,0,0,0,0,
0,0,0,0,0,0,0,0,0,0,0,0,0,0,0,0,
0,0,0,0,0,0,0,0,0,0,0,0,0,0,0,0,
0,0,0,0,0,0,0,0,0,0,0,0,0,0,0,0,
0,0,0,0,0,0,0,0,0,0,0,0,0,0,0,0,
0,0,0,0,0,0,0,0,0,0,0,0,0,0,0,0,
0,0,0,0,0,0,0,0,0,0,0,0,0,0,0,0,
0,0,0,0,0,0,0,0,0,0,0,0,0,0,0,0
</chunk>
   <chunk x="1456" y="848" width="16" height="16">
15,15,15,15,15,15,15,15,15,15,15,15,15,15,15,15,
15,15,15,15,15,15,15,15,15,15,15,15,15,15,15,15,
15,15,15,15,15,15,15,15,15,15,15,15,15,15,15,15,
15,15,15,15,15,15,15,15,15,15,15,15,15,15,15,15,
15,15,15,15,15,15,15,15,15,15,15,15,15,15,15,15,
15,15,15,15,15,15,15,15,15,15,15,15,15,15,15,15,
15,15,15,15,15,15,15,15,15,15,15,15,15,15,15,15,
15,15,15,15,15,15,15,15,15,15,15,15,15,15,15,15,
0,0,0,0,0,0,0,0,0,0,0,0,0,0,0,0,
0,0,0,0,0,0,0,0,0,0,0,0,0,0,0,0,
0,0,0,0,0,0,0,0,0,0,0,0,0,0,0,0,
0,0,0,0,0,0,0,0,0,0,0,0,0,0,0,0,
0,0,0,0,0,0,0,0,0,0,0,0,0,0,0,0,
0,0,0,0,0,0,0,0,0,0,0,0,0,0,0,0,
0,0,0,0,0,0,0,0,0,0,0,0,0,0,0,0,
0,0,0,0,0,0,0,0,0,0,0,0,0,0,0,0
</chunk>
   <chunk x="1472" y="848" width="16" height="16">
15,15,15,15,15,15,15,15,15,15,15,15,15,15,15,15,
15,15,15,15,15,15,15,15,15,15,15,15,15,15,15,15,
15,15,15,15,15,15,15,15,15,15,15,15,15,15,15,15,
15,15,15,15,15,15,15,15,15,15,15,15,15,15,15,15,
15,15,15,15,15,15,15,15,15,15,15,15,15,15,15,15,
15,15,15,15,15,15,15,15,15,15,15,15,15,15,15,15,
15,15,15,15,15,15,15,15,15,15,15,15,15,15,15,15,
15,15,15,15,15,15,15,15,15,15,15,15,15,15,15,15,
0,0,0,0,0,0,0,0,0,0,0,0,0,0,0,0,
0,0,0,0,0,0,0,0,0,0,0,0,0,0,0,0,
0,0,0,0,0,0,0,0,0,0,0,0,0,0,0,0,
0,0,0,0,0,0,0,0,0,0,0,0,0,0,0,0,
0,0,0,0,0,0,0,0,0,0,0,0,0,0,0,0,
0,0,0,0,0,0,0,0,0,0,0,0,0,0,0,0,
0,0,0,0,0,0,0,0,0,0,0,0,0,0,0,0,
0,0,0,0,0,0,0,0,0,0,0,0,0,0,0,0
</chunk>
   <chunk x="1488" y="848" width="16" height="16">
15,15,15,15,15,15,15,15,15,15,15,15,15,15,15,15,
15,15,15,15,15,15,15,15,15,15,15,15,15,15,15,15,
15,15,15,15,15,15,15,15,15,15,15,15,15,15,15,15,
15,15,15,15,15,15,15,15,15,15,15,15,15,15,15,15,
15,15,15,15,15,15,15,15,15,15,15,15,15,15,15,15,
15,15,15,15,15,15,15,15,15,15,15,15,15,15,15,15,
15,15,15,15,15,15,15,15,15,15,15,15,15,15,15,15,
15,15,15,15,15,15,15,15,15,15,15,15,15,15,15,15,
0,0,0,0,0,0,0,0,0,0,0,0,0,0,0,0,
0,0,0,0,0,0,0,0,0,0,0,0,0,0,0,0,
0,0,0,0,0,0,0,0,0,0,0,0,0,0,0,0,
0,0,0,0,0,0,0,0,0,0,0,0,0,0,0,0,
0,0,0,0,0,0,0,0,0,0,0,0,0,0,0,0,
0,0,0,0,0,0,0,0,0,0,0,0,0,0,0,0,
0,0,0,0,0,0,0,0,0,0,0,0,0,0,0,0,
0,0,0,0,0,0,0,0,0,0,0,0,0,0,0,0
</chunk>
   <chunk x="1504" y="848" width="16" height="16">
15,15,15,15,15,15,15,15,15,15,15,15,15,15,15,15,
15,15,15,15,15,15,15,15,15,15,15,15,15,15,15,15,
15,15,15,15,15,15,15,15,15,15,15,15,15,15,15,15,
15,15,15,15,15,15,15,15,15,15,15,15,15,15,15,15,
15,15,15,15,15,15,15,15,15,15,15,15,15,15,15,15,
15,15,15,15,15,15,15,15,15,15,15,15,15,15,15,15,
15,15,15,15,15,15,15,15,15,15,15,15,15,15,15,15,
15,15,15,15,15,15,15,15,15,15,15,15,15,15,15,15,
0,0,0,0,0,0,0,0,0,0,0,0,0,0,0,0,
0,0,0,0,0,0,0,0,0,0,0,0,0,0,0,0,
0,0,0,0,0,0,0,0,0,0,0,0,0,0,0,0,
0,0,0,0,0,0,0,0,0,0,0,0,0,0,0,0,
0,0,0,0,0,0,0,0,0,0,0,0,0,0,0,0,
0,0,0,0,0,0,0,0,0,0,0,0,0,0,0,0,
0,0,0,0,0,0,0,0,0,0,0,0,0,0,0,0,
0,0,0,0,0,0,0,0,0,0,0,0,0,0,0,0
</chunk>
   <chunk x="1520" y="848" width="16" height="16">
15,15,15,15,15,15,15,15,15,15,15,15,15,15,15,15,
15,15,15,15,15,15,15,15,15,15,15,15,15,15,15,15,
15,15,15,15,15,15,15,15,15,15,15,15,15,15,15,15,
15,15,15,15,15,15,15,15,15,15,15,15,15,15,15,15,
15,15,15,15,15,15,15,15,15,15,15,15,15,15,15,15,
15,15,15,15,15,15,15,15,15,15,15,15,15,15,15,15,
15,15,15,15,15,15,15,15,15,15,15,15,15,15,15,15,
15,15,15,15,15,15,15,15,15,15,15,15,15,15,15,15,
0,0,0,0,0,0,0,0,0,0,0,0,0,0,0,0,
0,0,0,0,0,0,0,0,0,0,0,0,0,0,0,0,
0,0,0,0,0,0,0,0,0,0,0,0,0,0,0,0,
0,0,0,0,0,0,0,0,0,0,0,0,0,0,0,0,
0,0,0,0,0,0,0,0,0,0,0,0,0,0,0,0,
0,0,0,0,0,0,0,0,0,0,0,0,0,0,0,0,
0,0,0,0,0,0,0,0,0,0,0,0,0,0,0,0,
0,0,0,0,0,0,0,0,0,0,0,0,0,0,0,0
</chunk>
   <chunk x="1536" y="848" width="16" height="16">
15,15,15,15,15,15,15,15,15,15,15,15,15,15,15,15,
15,15,15,15,15,15,15,15,15,15,15,15,15,15,15,15,
15,15,15,15,15,15,15,15,15,15,15,15,15,15,15,15,
15,15,15,15,15,15,15,15,15,15,15,15,15,15,15,15,
15,15,15,15,15,15,15,15,15,15,15,15,15,15,15,15,
15,15,15,15,15,15,15,15,15,15,15,15,15,15,15,15,
15,15,15,15,15,15,15,15,15,15,15,15,15,15,15,15,
15,15,15,15,15,15,15,15,15,15,15,15,15,15,15,15,
0,0,0,0,0,0,0,0,0,0,0,0,0,0,0,0,
0,0,0,0,0,0,0,0,0,0,0,0,0,0,0,0,
0,0,0,0,0,0,0,0,0,0,0,0,0,0,0,0,
0,0,0,0,0,0,0,0,0,0,0,0,0,0,0,0,
0,0,0,0,0,0,0,0,0,0,0,0,0,0,0,0,
0,0,0,0,0,0,0,0,0,0,0,0,0,0,0,0,
0,0,0,0,0,0,0,0,0,0,0,0,0,0,0,0,
0,0,0,0,0,0,0,0,0,0,0,0,0,0,0,0
</chunk>
   <chunk x="1552" y="848" width="16" height="16">
15,15,15,15,15,15,15,15,15,15,15,0,0,0,0,0,
15,15,15,15,15,15,15,15,15,15,15,0,0,0,0,0,
15,15,15,15,15,15,15,15,15,15,15,0,0,0,0,0,
15,15,15,15,15,15,15,15,15,15,15,0,0,0,0,0,
15,15,15,15,15,15,15,15,15,15,15,0,0,0,0,0,
15,15,15,15,15,15,15,15,15,15,15,0,0,0,0,0,
15,15,15,15,15,15,15,15,15,15,15,0,0,0,0,0,
15,15,15,15,15,15,15,15,15,15,15,0,0,0,0,0,
0,0,0,0,0,0,0,0,0,0,0,0,0,0,0,0,
0,0,0,0,0,0,0,0,0,0,0,0,0,0,0,0,
0,0,0,0,0,0,0,0,0,0,0,0,0,0,0,0,
0,0,0,0,0,0,0,0,0,0,0,0,0,0,0,0,
0,0,0,0,0,0,0,0,0,0,0,0,0,0,0,0,
0,0,0,0,0,0,0,0,0,0,0,0,0,0,0,0,
0,0,0,0,0,0,0,0,0,0,0,0,0,0,0,0,
0,0,0,0,0,0,0,0,0,0,0,0,0,0,0,0
</chunk>
  </data>
 </layer>
 <layer id="3" name="buildings" width="1600" height="1040">
  <data encoding="csv">
   <chunk x="1216" y="608" width="16" height="16">
0,0,0,0,0,0,0,0,0,0,0,0,0,0,0,0,
0,0,0,0,0,0,0,0,0,0,0,0,0,0,0,0,
0,0,0,0,0,0,0,0,0,0,0,0,0,0,0,0,
0,0,0,0,0,0,0,0,0,0,0,0,0,0,0,0,
0,0,0,0,0,0,0,0,0,0,0,0,0,0,0,0,
0,0,0,0,0,0,0,0,0,0,0,0,0,0,0,0,
0,0,0,0,0,0,0,0,0,0,0,0,0,0,0,0,
0,0,0,0,0,0,0,0,0,0,0,0,0,15,15,15,
0,0,0,0,0,0,0,0,0,0,0,0,0,15,15,15,
0,0,0,0,0,0,0,0,0,0,0,0,0,15,15,15,
0,0,0,0,0,0,0,0,0,0,0,0,0,15,15,15,
0,0,0,0,0,0,0,0,0,0,0,0,0,15,15,15,
0,0,0,0,0,0,0,0,0,0,0,0,0,15,15,15,
0,0,0,0,0,0,0,0,0,0,0,0,0,15,15,15,
0,0,0,0,0,0,0,0,0,0,0,0,0,15,15,15,
0,0,0,0,0,0,0,0,0,0,0,0,0,15,15,15
</chunk>
   <chunk x="1232" y="608" width="16" height="16">
0,0,0,0,0,0,0,0,0,0,0,0,0,0,0,0,
0,0,0,0,0,0,0,0,0,0,0,0,0,0,0,0,
0,0,0,0,0,0,0,0,0,0,0,0,0,0,0,0,
0,0,0,0,0,0,0,0,0,0,0,0,0,0,0,0,
0,0,0,0,0,0,0,0,0,0,0,0,0,0,0,0,
0,0,0,0,0,0,0,0,0,0,0,0,0,0,0,0,
0,0,0,0,0,0,0,0,0,0,0,0,0,0,0,0,
15,15,15,15,0,0,0,0,0,0,0,0,0,0,0,0,
15,15,15,15,0,0,0,0,0,0,0,0,0,0,0,0,
15,15,15,15,0,0,0,0,0,0,0,0,0,0,0,0,
15,15,15,15,0,0,0,0,0,0,0,0,0,0,0,0,
15,15,15,15,0,0,0,0,0,0,0,0,0,0,0,0,
15,15,15,15,0,0,0,0,0,0,0,0,0,0,0,0,
15,15,15,15,0,0,0,0,0,0,0,0,0,0,0,0,
15,15,15,15,0,0,0,0,0,0,0,0,0,0,0,0,
15,15,15,15,0,0,0,0,0,0,0,0,0,0,0,0
</chunk>
   <chunk x="1360" y="608" width="16" height="16">
0,0,0,0,0,0,0,0,0,0,0,0,0,0,0,0,
0,0,0,0,0,0,0,0,0,0,0,0,0,0,0,0,
0,0,0,0,0,0,0,0,0,0,0,0,0,0,0,0,
0,0,0,0,0,0,0,0,0,0,0,0,0,0,0,0,
0,0,0,0,0,0,0,0,0,0,0,0,0,0,0,0,
0,0,0,0,0,0,0,0,0,0,0,0,0,0,0,0,
0,0,0,0,0,0,0,0,0,0,0,0,0,0,0,0,
0,0,0,0,0,0,0,0,0,0,0,0,0,0,0,0,
0,0,0,0,0,0,0,0,0,0,0,0,0,0,0,0,
0,0,0,0,0,0,0,0,0,0,0,0,0,0,0,0,
0,0,0,0,0,0,0,0,0,0,0,0,0,0,0,0,
0,0,0,0,0,0,0,0,0,0,0,0,0,0,0,0,
0,0,0,0,0,0,0,0,0,0,0,0,0,0,0,0,
0,0,0,0,0,21,21,21,21,21,21,21,21,21,21,21,
0,0,0,0,0,21,21,21,21,21,21,21,21,21,21,21,
0,0,0,0,0,21,21,21,21,21,21,21,21,21,21,21
</chunk>
   <chunk x="1376" y="608" width="16" height="16">
0,0,0,0,0,0,0,0,0,0,0,0,0,0,0,0,
0,0,0,0,0,0,0,0,0,0,0,0,0,0,0,0,
0,0,0,0,0,0,0,0,0,0,0,0,0,0,0,0,
0,0,0,0,0,0,0,0,0,0,0,0,0,0,0,0,
0,0,0,0,0,0,0,0,0,0,0,0,0,0,0,0,
0,0,0,0,0,0,0,0,0,0,0,0,0,0,0,0,
0,0,0,0,0,0,0,0,0,0,0,0,0,0,0,0,
0,0,0,0,0,0,0,0,0,0,0,0,0,0,0,0,
0,0,0,0,0,0,0,0,0,0,0,0,0,0,0,0,
0,0,0,0,0,0,0,0,0,0,0,0,0,0,0,0,
0,0,0,0,0,0,0,0,0,0,0,0,0,0,0,0,
0,0,0,0,0,0,0,0,0,0,0,0,0,0,0,0,
0,0,0,0,0,0,0,0,0,0,0,0,0,0,0,0,
21,21,21,21,21,21,21,21,0,0,0,0,0,0,0,0,
21,21,21,21,21,21,21,21,0,0,0,0,0,0,0,0,
21,21,21,21,21,21,21,21,0,0,0,0,0,0,0,0
</chunk>
   <chunk x="1216" y="624" width="16" height="16">
0,0,0,0,0,0,0,0,0,0,0,0,0,15,15,15,
0,0,0,0,0,0,0,0,0,0,0,0,0,15,15,15,
0,0,0,0,0,0,0,0,0,0,0,0,0,15,15,15,
0,0,0,0,0,0,0,0,0,0,0,0,0,15,15,15,
0,0,0,0,0,0,0,0,0,0,0,0,0,15,15,15,
0,0,0,0,0,0,0,0,0,0,0,0,0,15,15,15,
0,0,0,0,0,0,0,0,0,0,0,0,0,15,15,15,
0,0,0,0,0,0,0,0,0,0,0,0,0,15,15,15,
0,0,0,0,0,0,0,0,0,0,0,0,0,15,15,15,
0,0,0,0,0,0,0,0,0,0,0,0,0,15,15,15,
0,0,0,0,0,0,0,0,0,0,0,0,0,15,15,15,
0,0,0,0,0,0,0,0,0,0,0,0,0,15,15,15,
0,0,0,0,0,0,0,0,0,0,0,0,0,15,15,15,
0,0,0,0,0,0,0,0,0,0,0,0,0,15,15,15,
0,0,0,0,0,0,0,0,0,0,0,0,0,15,15,15,
0,0,0,0,0,0,0,0,0,0,0,0,0,15,15,15
</chunk>
   <chunk x="1232" y="624" width="16" height="16">
15,15,15,15,0,0,0,0,0,0,0,0,0,0,0,0,
15,15,15,15,0,0,0,0,0,0,0,0,0,0,0,0,
15,15,15,15,0,0,0,0,0,0,0,0,0,0,0,0,
15,15,15,15,0,0,0,0,0,0,0,0,0,0,0,0,
15,15,15,15,0,0,0,0,0,0,0,0,0,0,0,0,
15,15,15,15,0,0,0,0,0,0,0,0,0,0,0,0,
15,15,15,15,0,0,0,0,0,0,0,0,0,0,0,0,
15,15,15,15,0,0,0,0,0,0,0,0,0,0,0,0,
15,15,15,15,0,0,0,0,0,0,0,0,0,0,0,0,
15,15,15,15,0,0,0,0,0,0,0,0,0,0,0,0,
15,15,15,15,0,0,0,0,0,0,0,0,0,0,0,0,
15,15,15,15,0,0,0,0,0,0,0,0,0,0,0,0,
15,15,15,15,0,0,0,0,0,0,0,0,0,0,0,0,
15,15,15,15,0,0,0,0,0,0,0,0,0,0,0,0,
15,15,15,15,0,0,0,0,0,0,0,0,0,0,0,0,
15,15,15,15,0,0,0,0,0,0,0,0,0,0,0,0
</chunk>
   <chunk x="1360" y="624" width="16" height="16">
0,0,0,0,0,21,21,21,21,21,21,21,21,21,21,21,
0,0,0,0,0,21,21,21,21,21,21,21,21,21,21,21,
0,0,0,0,0,21,21,21,21,21,21,21,21,21,21,21,
0,0,0,0,0,21,21,21,21,21,21,21,21,21,21,21,
0,0,0,0,0,21,21,21,21,21,21,21,21,21,21,21,
0,0,0,0,0,21,21,21,21,21,21,21,21,21,21,21,
0,0,0,0,0,21,21,21,21,21,21,21,21,21,21,21,
0,0,0,0,0,21,21,21,21,21,21,21,21,21,21,21,
0,0,0,0,0,21,21,21,21,21,21,21,21,21,21,21,
0,0,0,0,0,21,21,21,21,21,21,21,21,21,21,21,
0,0,0,0,0,21,21,21,21,21,21,21,21,21,21,21,
0,0,0,0,0,21,21,21,21,21,21,21,21,21,21,21,
0,0,0,0,0,21,21,21,21,21,21,21,21,21,21,21,
0,0,0,0,0,21,21,21,21,21,21,21,21,21,21,21,
0,0,0,0,0,21,21,21,21,21,21,21,21,21,21,21,
0,0,0,0,0,21,21,21,21,21,21,21,21,21,21,21
</chunk>
   <chunk x="1376" y="624" width="16" height="16">
21,21,21,21,21,21,21,21,0,0,0,0,0,0,0,0,
21,21,21,21,21,21,21,21,0,0,0,0,0,0,0,0,
21,21,21,21,21,21,21,21,0,0,0,0,0,0,0,0,
21,21,21,21,21,21,21,21,0,0,0,0,0,0,0,0,
21,21,21,21,21,21,21,21,0,0,0,0,0,0,0,0,
21,21,21,21,21,21,21,21,0,0,0,0,0,0,0,0,
21,21,21,21,21,21,21,21,0,0,0,0,0,0,0,0,
21,21,21,21,21,21,21,21,0,0,0,0,0,0,0,0,
21,21,21,21,21,21,21,21,0,0,0,0,0,0,0,0,
21,21,21,21,21,21,21,21,0,0,0,0,0,0,0,0,
21,21,21,21,21,21,21,21,0,0,0,0,0,0,0,0,
21,21,21,21,21,21,21,21,0,0,0,0,0,0,0,0,
21,21,21,21,21,21,21,21,0,0,0,0,0,0,0,0,
21,21,21,21,21,21,21,21,0,0,0,0,0,0,0,0,
21,21,21,21,21,21,21,21,0,0,0,0,0,0,0,0,
21,21,21,21,21,21,21,21,0,0,0,0,0,0,0,0
</chunk>
   <chunk x="1216" y="640" width="16" height="16">
0,0,0,0,0,0,0,0,0,0,0,0,0,15,15,15,
0,0,0,0,0,0,0,0,0,0,0,0,0,15,15,15,
0,0,0,0,0,0,0,0,0,0,0,0,0,15,15,15,
0,0,0,0,0,0,0,0,0,0,0,0,0,15,15,15,
0,0,0,0,0,0,0,0,0,0,0,0,0,15,15,15,
0,0,0,0,0,0,0,0,0,0,0,0,0,15,15,15,
0,0,0,0,0,0,0,0,0,0,0,0,0,15,15,15,
0,0,0,0,0,0,0,0,0,0,0,0,0,15,15,15,
0,0,0,0,0,0,0,0,0,0,0,0,0,15,15,15,
0,0,0,0,0,0,0,0,0,0,0,0,0,15,15,15,
0,0,0,0,0,0,0,0,0,0,0,0,0,15,15,15,
0,0,0,0,0,0,0,0,0,0,0,0,0,15,15,15,
0,0,0,0,0,0,0,0,0,0,0,0,0,15,15,15,
0,0,0,0,0,0,0,0,0,0,0,0,0,15,15,15,
0,0,0,0,0,0,0,0,0,0,0,0,0,15,15,15,
0,0,0,0,0,0,0,0,0,0,0,0,0,15,15,15
</chunk>
   <chunk x="1232" y="640" width="16" height="16">
15,15,15,15,0,0,0,0,0,0,0,0,0,0,0,0,
15,15,15,15,0,0,0,0,0,0,0,0,0,0,0,0,
15,15,15,15,0,0,0,0,0,0,0,0,0,0,0,0,
15,15,15,15,0,0,0,0,0,0,0,0,0,0,0,0,
15,15,15,15,0,0,0,0,0,0,0,0,0,0,0,0,
15,15,15,15,0,0,0,0,0,0,0,0,0,0,0,0,
15,15,15,15,0,0,0,0,0,0,0,0,0,0,0,0,
15,15,15,15,0,0,0,0,0,0,0,0,0,0,0,0,
15,15,15,15,0,0,0,0,0,0,0,0,0,0,0,0,
15,15,15,15,0,0,0,0,0,0,0,0,0,0,0,0,
15,15,15,15,0,0,0,0,0,0,0,0,0,0,0,0,
15,15,15,15,0,0,0,0,0,0,0,0,0,0,0,0,
15,15,15,15,0,0,0,0,0,0,0,0,0,0,0,0,
15,15,15,15,0,0,0,0,0,0,0,0,0,0,0,0,
15,15,15,15,0,0,0,0,0,0,0,0,0,0,0,0,
15,15,15,15,0,0,0,0,0,0,0,0,0,0,0,0
</chunk>
   <chunk x="1360" y="640" width="16" height="16">
0,0,0,0,0,21,21,21,21,21,21,21,21,21,21,21,
0,0,0,0,0,0,0,0,0,0,0,0,0,0,0,0,
0,0,0,0,0,0,0,0,0,0,0,0,0,0,0,0,
0,0,0,0,0,0,0,0,0,0,0,0,0,0,0,0,
0,0,0,0,0,0,0,0,0,0,0,0,0,0,0,0,
0,0,0,0,0,0,0,0,0,0,0,0,0,0,0,0,
0,0,0,0,0,0,0,0,0,0,0,0,0,0,0,0,
0,0,0,0,0,0,0,0,0,0,0,0,0,0,0,0,
0,0,0,0,0,0,0,0,0,0,0,0,0,0,0,0,
0,0,0,0,0,0,0,0,0,0,0,0,0,0,0,0,
0,0,0,0,0,0,0,0,0,0,0,0,0,0,0,0,
0,0,0,0,0,0,0,0,0,0,0,0,0,0,0,0,
0,0,0,0,0,0,0,0,0,0,0,0,0,0,0,0,
0,0,0,0,0,0,0,0,0,0,0,0,0,0,0,0,
0,0,0,0,0,0,0,0,0,0,0,0,0,0,0,0,
0,0,0,0,0,0,0,0,0,0,0,0,0,0,0,0
</chunk>
   <chunk x="1376" y="640" width="16" height="16">
21,21,21,21,21,21,21,21,0,0,0,0,0,0,0,0,
0,0,0,0,0,0,0,0,0,0,0,0,0,0,0,0,
0,0,0,0,0,0,0,0,0,0,0,0,0,0,0,0,
0,0,0,0,0,0,0,0,0,0,0,0,0,0,0,0,
0,0,0,0,0,0,0,0,0,0,0,0,0,0,0,0,
0,0,0,0,0,0,0,0,0,0,0,0,0,0,0,0,
0,0,0,0,0,0,0,0,0,0,0,0,0,0,0,0,
0,0,0,0,0,0,0,0,0,0,0,0,0,0,0,0,
0,0,0,0,0,0,0,0,0,0,0,0,0,0,0,0,
0,0,0,0,0,0,0,0,0,0,0,0,0,0,0,0,
0,0,0,0,0,0,0,0,0,0,0,0,0,0,0,0,
0,0,0,0,0,0,0,0,0,0,0,0,0,0,0,0,
0,0,0,0,0,0,0,0,0,0,0,0,0,0,0,0,
0,0,0,0,0,0,0,0,0,0,0,0,0,0,0,0,
0,0,0,0,0,0,0,0,0,0,0,0,0,0,0,0,
0,0,0,0,0,0,0,0,0,0,0,0,0,0,0,0
</chunk>
   <chunk x="1216" y="656" width="16" height="16">
0,0,0,0,0,0,0,0,0,0,0,0,0,15,15,15,
0,0,0,0,0,0,0,0,0,0,0,0,0,15,15,15,
0,0,0,0,0,0,0,0,0,0,0,0,0,15,15,15,
0,0,0,0,0,0,0,0,0,0,0,0,0,15,15,15,
0,0,0,0,0,0,0,0,0,0,0,0,0,15,15,15,
0,0,0,0,0,0,0,0,0,0,0,0,0,15,15,15,
0,0,0,0,0,0,0,0,0,0,0,0,0,15,15,15,
0,0,0,0,0,0,0,0,0,0,0,0,0,15,15,15,
0,0,0,0,0,0,0,0,0,0,0,0,0,15,15,15,
0,0,0,0,0,0,0,0,0,0,0,0,0,15,15,15,
0,0,0,0,0,0,0,0,0,0,0,0,0,15,15,15,
0,0,0,0,0,0,0,0,0,0,0,0,0,15,15,15,
0,0,0,0,0,0,0,0,0,0,0,0,0,15,15,15,
0,0,0,0,0,0,0,0,0,0,0,0,0,15,15,15,
0,0,0,0,0,0,0,0,0,0,0,0,0,15,15,15,
0,0,0,0,0,0,0,0,0,0,0,0,0,15,15,15
</chunk>
   <chunk x="1232" y="656" width="16" height="16">
15,15,15,15,0,0,0,0,0,0,0,0,0,0,0,0,
15,15,15,15,0,0,0,0,0,0,0,0,0,0,0,0,
15,15,15,15,0,0,0,0,0,0,0,0,0,0,0,0,
15,15,15,15,0,0,0,0,0,0,0,0,0,0,0,0,
15,15,15,15,0,0,0,0,0,0,0,0,0,0,0,0,
15,15,15,15,0,0,0,0,0,0,0,0,0,0,0,0,
15,15,15,15,0,0,0,0,0,0,0,0,0,0,0,0,
15,15,15,15,0,0,0,0,0,0,0,0,0,0,0,0,
15,15,15,15,0,0,0,0,0,0,0,0,0,0,0,0,
15,15,15,15,0,0,0,0,0,0,0,0,0,0,0,0,
15,15,15,15,0,0,0,0,0,0,0,0,0,0,0,0,
15,15,15,15,0,0,0,0,0,0,0,0,0,0,0,0,
15,15,15,15,0,0,0,0,0,0,0,0,0,0,0,0,
15,15,15,15,0,0,0,0,0,0,0,0,0,0,0,0,
15,15,15,15,0,0,0,0,0,0,0,0,0,0,0,0,
15,15,15,15,0,0,0,0,0,0,0,0,0,0,0,0
</chunk>
   <chunk x="1344" y="656" width="16" height="16">
0,0,0,0,0,0,0,0,0,0,0,0,0,0,0,0,
0,0,0,0,0,0,0,0,0,0,0,0,0,0,0,0,
0,0,0,0,0,0,0,0,0,0,0,0,0,0,0,0,
0,0,0,0,0,0,0,0,0,0,0,0,0,0,0,0,
0,0,0,0,0,0,0,0,0,0,0,0,0,0,0,0,
0,0,0,0,0,0,0,0,0,0,0,0,0,0,0,0,
0,0,0,0,0,0,0,0,0,0,0,0,0,0,0,0,
0,0,0,0,0,0,0,0,0,0,0,0,0,0,0,0,
0,0,0,0,0,0,0,0,0,0,21,21,21,21,21,21,
0,0,0,0,0,0,0,0,0,0,21,21,21,21,21,21,
0,0,0,0,0,0,0,0,0,0,21,21,21,21,21,21,
0,0,0,0,0,0,0,0,0,0,21,21,21,21,21,21,
0,0,0,0,0,0,0,0,0,0,21,21,21,21,21,21,
0,0,0,0,0,0,0,0,0,0,21,21,21,21,21,21,
0,0,0,0,0,0,0,0,0,0,21,21,21,21,21,21,
0,0,0,0,0,0,0,0,0,0,21,21,21,21,21,21
</chunk>
   <chunk x="1360" y="656" width="16" height="16">
0,0,0,0,0,0,0,0,0,0,0,0,0,0,0,0,
0,0,0,0,0,0,0,0,0,0,0,0,0,0,0,0,
0,0,0,0,0,0,0,0,0,0,0,0,0,0,0,0,
0,0,0,0,0,0,0,0,0,0,0,0,0,0,0,0,
0,0,0,0,0,0,0,0,0,0,0,0,0,0,0,0,
0,0,0,0,0,0,0,0,0,0,0,0,0,0,0,0,
0,0,0,0,0,0,0,0,0,0,0,0,0,0,0,0,
0,0,0,0,0,0,0,0,0,0,0,0,0,0,0,0,
21,21,21,21,21,21,21,21,21,21,21,21,21,0,0,0,
21,21,21,21,21,21,21,21,21,21,21,21,21,0,0,0,
21,21,21,21,21,21,21,21,21,21,21,21,21,0,0,0,
21,21,21,21,21,21,21,21,21,21,21,21,21,0,0,0,
21,21,21,21,21,21,21,21,21,21,21,21,21,0,0,0,
21,21,21,21,21,21,21,21,21,21,21,21,21,0,0,0,
21,21,21,21,21,21,21,21,21,21,21,21,21,0,0,0,
21,21,21,21,21,21,21,21,21,21,21,21,21,0,0,0
</chunk>
   <chunk x="1216" y="672" width="16" height="16">
0,0,0,0,0,0,0,0,0,0,0,0,0,15,15,15,
0,0,0,0,0,0,0,0,0,0,0,0,0,15,15,15,
0,0,0,0,0,0,0,0,0,0,0,0,0,15,15,15,
0,0,0,0,0,0,0,0,0,0,0,0,0,15,15,15,
0,0,0,0,0,0,0,0,0,0,0,0,0,15,15,15,
0,0,0,0,0,0,0,0,0,0,0,0,0,15,15,15,
0,0,0,0,0,0,0,0,0,0,0,0,0,15,15,15,
0,0,0,0,0,0,0,0,0,0,0,0,0,15,15,15,
0,0,0,0,0,0,0,0,0,0,0,0,0,15,15,15,
0,0,0,0,0,0,0,0,0,0,0,0,0,15,15,15,
0,0,0,0,0,0,0,0,0,0,0,0,0,15,15,15,
0,0,0,0,0,0,0,0,0,0,0,0,0,15,15,15,
0,0,0,0,0,0,0,0,0,0,0,0,0,15,15,15,
0,0,0,0,0,0,0,0,0,0,0,0,0,15,15,15,
0,0,0,0,0,0,0,0,0,0,0,0,0,15,15,15,
0,0,0,0,0,0,0,0,0,0,0,0,0,15,15,15
</chunk>
   <chunk x="1232" y="672" width="16" height="16">
15,15,15,15,0,0,0,0,0,0,0,0,0,0,0,0,
15,15,15,15,0,0,0,0,0,0,0,0,0,0,0,0,
15,15,15,15,0,0,0,0,0,0,0,0,0,0,0,0,
15,15,15,15,0,0,0,0,0,0,0,0,0,0,0,0,
15,15,15,15,0,0,0,0,0,0,0,0,0,0,0,0,
15,15,15,15,0,0,0,0,0,0,0,0,0,0,0,0,
15,15,15,15,0,0,0,0,0,0,0,0,0,0,0,0,
15,15,15,15,0,0,0,0,0,0,0,0,0,0,0,0,
15,15,15,15,0,0,0,0,0,0,0,0,0,0,0,0,
15,15,15,15,0,0,0,0,0,0,0,0,0,0,0,0,
15,15,15,15,0,0,0,0,0,0,0,0,0,0,0,0,
15,15,15,15,0,0,0,0,0,0,0,0,0,0,0,0,
15,15,15,15,0,0,0,0,0,0,0,0,0,0,0,0,
15,15,15,15,0,0,0,0,0,0,0,0,0,0,0,0,
15,15,15,15,0,0,0,0,0,0,0,0,0,0,0,0,
15,15,15,15,0,0,0,0,0,0,0,0,0,0,0,0
</chunk>
   <chunk x="1280" y="672" width="16" height="16">
0,0,0,0,0,0,0,0,0,0,0,0,0,0,0,0,
0,0,0,0,0,0,0,0,0,0,0,0,0,0,0,0,
0,0,0,0,0,0,0,0,0,0,0,0,0,0,0,0,
0,0,0,0,0,0,0,0,0,0,0,0,0,0,0,0,
0,0,0,0,0,0,0,0,0,0,0,0,0,0,0,0,
0,0,0,0,0,0,0,0,0,0,0,0,0,0,0,0,
0,0,0,0,0,0,0,0,0,0,0,0,0,0,0,0,
0,0,0,0,0,0,0,0,0,0,0,0,0,0,0,0,
0,0,0,0,0,0,0,0,0,0,0,0,0,0,0,0,
0,0,0,0,0,0,0,0,0,0,0,0,0,0,0,0,
0,0,0,0,0,0,0,0,0,0,0,0,0,0,0,0,
0,0,0,0,0,0,0,21,21,21,21,21,21,21,21,21,
0,0,0,0,0,0,0,21,21,21,21,21,21,21,21,21,
0,0,0,0,0,0,0,21,21,21,21,21,21,21,21,21,
0,0,0,0,0,0,0,21,21,21,21,21,21,21,21,21,
0,0,0,0,0,0,0,21,21,21,21,21,21,21,21,21
</chunk>
   <chunk x="1296" y="672" width="16" height="16">
0,0,0,0,0,0,0,0,0,0,0,0,0,0,0,0,
0,0,0,0,0,0,0,0,0,0,0,0,0,0,0,0,
0,0,0,0,0,0,0,0,0,0,0,0,0,0,0,0,
0,0,0,0,0,0,0,0,0,0,0,0,0,0,0,0,
0,0,0,0,0,0,0,0,0,0,0,0,0,0,0,0,
0,0,0,0,0,0,0,0,0,0,0,0,0,0,0,0,
0,0,0,0,0,0,0,0,0,0,0,0,0,0,0,0,
0,0,0,0,0,0,0,0,0,0,0,0,0,0,0,0,
0,0,0,0,0,0,0,0,0,0,0,0,0,0,0,0,
0,0,0,0,0,0,0,0,0,0,0,0,0,0,0,0,
0,0,0,0,0,0,0,0,0,0,0,0,0,0,0,0,
21,21,21,21,21,21,21,21,21,21,0,0,0,0,0,0,
21,21,21,21,21,21,21,21,21,21,0,0,0,0,0,0,
21,21,21,21,21,21,21,21,21,21,0,0,0,0,0,0,
21,21,21,21,21,21,21,21,21,21,0,0,0,0,0,0,
21,21,21,21,21,21,21,21,21,21,0,0,0,0,0,0
</chunk>
   <chunk x="1344" y="672" width="16" height="16">
0,0,0,0,0,0,0,0,0,0,21,21,21,21,21,21,
0,0,0,0,0,0,0,0,0,0,21,21,21,21,21,21,
0,0,0,0,0,0,0,0,0,0,21,21,21,21,21,21,
0,0,0,0,0,0,0,0,0,0,21,21,21,21,21,21,
0,0,0,0,0,0,0,0,0,0,21,21,21,21,21,21,
0,0,0,0,0,0,0,0,0,0,21,21,21,21,21,21,
0,0,0,0,0,0,0,0,0,0,21,21,21,21,21,21,
0,0,0,0,0,0,0,0,0,0,21,21,21,21,21,21,
0,0,0,0,0,0,0,0,0,0,21,21,21,21,21,21,
0,0,0,0,0,0,0,0,0,0,21,21,21,21,21,21,
0,0,0,0,0,0,0,0,0,0,21,21,21,21,21,21,
0,0,0,0,0,0,0,0,0,0,21,21,21,21,21,21,
0,0,0,0,0,0,0,0,0,0,0,0,0,0,0,0,
0,0,0,0,0,0,0,0,0,0,0,0,0,0,0,0,
0,0,0,0,0,0,0,0,0,0,0,0,0,0,0,0,
0,0,0,0,0,0,0,0,0,0,0,0,0,0,0,0
</chunk>
   <chunk x="1360" y="672" width="16" height="16">
21,21,21,21,21,21,21,21,21,21,21,21,21,0,0,0,
21,21,21,21,21,21,21,21,21,21,21,21,21,0,0,0,
21,21,21,21,21,21,21,21,21,21,21,21,21,0,0,0,
21,21,21,21,21,21,21,21,21,21,21,21,21,0,0,0,
21,21,21,21,21,21,21,21,21,21,21,21,21,0,0,0,
21,21,21,21,21,21,21,21,21,21,21,21,21,0,0,0,
21,21,21,21,21,21,21,21,21,21,21,21,21,0,0,0,
21,21,21,21,21,21,21,21,21,21,21,21,21,0,0,0,
21,21,21,21,21,21,21,21,21,21,21,21,21,0,0,0,
21,21,21,21,21,21,21,21,21,21,21,21,21,0,0,0,
21,21,21,21,21,21,21,21,21,21,21,21,21,0,0,0,
21,21,21,21,21,21,21,21,21,21,21,21,21,0,0,0,
0,0,0,0,0,0,0,0,0,0,0,0,0,0,0,0,
0,0,0,0,0,0,0,0,0,0,0,0,0,0,0,0,
0,0,0,0,0,0,0,0,0,0,0,0,0,0,0,0,
0,0,0,0,0,0,0,0,0,0,0,0,0,0,0,0
</chunk>
   <chunk x="1216" y="688" width="16" height="16">
0,0,0,0,0,0,0,0,0,0,0,0,0,15,15,15,
0,0,0,0,0,0,0,0,0,0,0,0,0,15,15,15,
0,0,0,0,0,0,0,0,0,0,0,0,0,15,15,15,
0,0,0,0,0,0,0,0,0,0,0,0,0,15,15,15,
0,0,0,0,0,0,0,0,0,0,0,0,0,15,15,15,
0,0,0,0,0,0,0,0,0,0,0,0,0,15,15,15,
0,0,0,0,0,0,0,0,0,0,0,0,0,15,15,15,
0,0,0,0,0,0,0,0,0,0,0,0,0,15,15,15,
0,0,0,0,0,0,0,0,0,0,0,0,0,15,15,15,
0,0,0,0,0,0,0,0,0,0,0,0,0,15,15,15,
0,0,0,0,0,0,0,0,0,0,0,0,0,15,15,15,
0,0,0,0,0,0,0,0,0,0,0,0,0,15,15,15,
0,0,0,0,0,0,0,0,0,0,0,0,0,15,15,15,
0,0,0,0,0,0,0,0,0,0,0,0,0,15,15,15,
0,0,0,0,0,0,0,0,0,0,0,0,0,15,15,15,
0,0,0,0,0,0,0,0,0,0,0,0,0,15,15,15
</chunk>
   <chunk x="1232" y="688" width="16" height="16">
15,15,15,15,0,0,0,0,0,0,0,0,0,0,0,0,
15,15,15,15,0,0,0,0,0,0,0,0,0,0,0,0,
15,15,15,15,0,0,0,0,0,0,0,0,0,0,0,0,
15,15,15,15,0,0,0,0,0,0,0,0,0,0,0,0,
15,15,15,15,0,0,0,0,0,0,0,0,0,0,0,0,
15,15,15,15,0,0,0,0,0,0,0,0,0,0,0,0,
15,15,15,15,0,0,0,0,0,0,0,0,0,0,0,0,
15,15,15,15,0,0,0,0,0,0,0,0,0,0,0,0,
15,15,15,15,0,0,0,0,0,0,0,0,0,0,0,0,
15,15,15,15,0,0,0,0,0,0,0,0,0,0,0,0,
15,15,15,15,0,0,0,0,0,0,0,0,0,0,0,0,
15,15,15,15,0,0,0,0,0,0,0,0,0,0,0,0,
15,15,15,15,0,0,0,0,0,0,0,0,0,0,0,0,
15,15,15,15,0,0,0,0,0,0,0,0,0,0,0,0,
15,15,15,15,0,0,0,0,0,0,0,0,0,0,0,0,
15,15,15,15,0,0,0,0,0,0,0,0,0,0,0,0
</chunk>
   <chunk x="1280" y="688" width="16" height="16">
0,0,0,0,0,0,0,21,21,21,21,21,21,21,21,21,
0,0,0,0,0,0,0,21,21,21,21,21,21,21,21,21,
0,0,0,0,0,0,0,21,21,21,21,21,21,21,21,21,
0,0,0,0,0,0,0,21,21,21,21,21,21,21,21,21,
0,0,0,0,0,0,0,21,21,21,21,21,21,21,21,21,
0,0,0,0,0,0,0,21,21,21,21,21,21,21,21,21,
0,0,0,0,0,0,0,21,21,21,21,21,21,21,21,21,
0,0,0,0,0,0,0,21,21,21,21,21,21,21,21,21,
0,0,0,0,0,0,0,21,21,21,21,21,21,21,21,21,
0,0,0,0,0,0,0,21,21,21,21,21,21,21,21,21,
0,0,0,0,0,0,0,21,21,21,21,21,21,21,21,21,
0,0,0,0,0,0,0,21,21,21,21,21,21,21,21,21,
0,0,0,0,0,0,0,21,21,21,21,21,21,21,21,21,
0,0,0,0,0,0,0,21,21,21,21,21,21,21,21,21,
0,0,0,0,0,0,0,21,21,21,21,21,21,21,21,21,
0,0,0,0,0,0,0,0,0,0,0,0,0,0,0,0
</chunk>
   <chunk x="1296" y="688" width="16" height="16">
21,21,21,21,21,21,21,21,21,21,0,0,0,0,0,0,
21,21,21,21,21,21,21,21,21,21,0,0,0,0,0,0,
21,21,21,21,21,21,21,21,21,21,0,0,0,0,0,0,
21,21,21,21,21,21,21,21,21,21,0,0,0,0,0,0,
21,21,21,21,21,21,21,21,21,21,0,0,0,0,0,0,
21,21,21,21,21,21,21,21,21,21,0,0,0,0,0,0,
21,21,21,21,21,21,21,21,21,21,0,0,0,0,0,0,
21,21,21,21,21,21,21,21,21,21,0,0,0,0,0,0,
21,21,21,21,21,21,21,21,21,21,0,0,0,0,0,0,
21,21,21,21,21,21,21,21,21,21,0,0,0,0,0,0,
21,21,21,21,21,21,21,21,21,21,0,0,0,0,0,0,
21,21,21,21,21,21,21,21,21,21,0,0,0,0,0,0,
21,21,21,21,21,21,21,21,21,21,0,0,0,0,0,0,
21,21,21,21,21,21,21,21,21,21,0,0,0,0,0,0,
21,21,21,21,21,21,21,21,21,21,0,0,0,0,0,0,
0,0,0,0,0,0,0,0,0,0,0,0,0,0,0,0
</chunk>
   <chunk x="1376" y="688" width="16" height="16">
0,0,0,0,0,0,0,0,0,0,0,0,0,0,0,0,
0,0,0,0,0,0,0,0,0,0,0,0,0,0,0,0,
0,0,0,0,0,0,0,0,0,0,0,0,0,0,0,0,
0,0,0,0,0,0,0,0,0,0,0,0,0,0,0,0,
0,0,0,0,0,0,0,0,0,0,0,0,0,0,0,0,
0,0,0,0,0,0,0,0,0,0,0,0,0,0,0,0,
0,0,0,0,0,0,0,0,0,0,0,0,0,0,0,0,
0,0,0,0,0,0,0,0,0,0,0,0,0,0,0,0,
0,0,0,0,0,0,0,0,0,0,0,0,0,0,0,0,
0,0,0,0,0,0,0,0,0,0,0,0,0,0,0,0,
0,0,0,0,0,0,0,0,0,0,0,0,0,0,0,0,
0,0,0,0,0,0,0,0,0,0,0,0,0,0,0,0,
0,0,0,0,0,0,21,21,21,21,21,21,21,21,21,21,
0,0,0,0,0,0,21,21,21,21,21,21,21,21,21,21,
0,0,0,0,0,0,21,21,21,21,21,21,21,21,21,21,
0,0,0,0,0,0,21,21,21,21,21,21,21,21,21,21
</chunk>
   <chunk x="1392" y="688" width="16" height="16">
0,0,0,0,0,0,0,0,0,0,0,0,0,0,0,0,
0,0,0,0,0,0,0,0,0,0,0,0,0,0,0,0,
0,0,0,0,0,0,0,0,0,0,0,0,0,0,0,0,
0,0,0,0,0,0,0,0,0,0,0,0,0,0,0,0,
0,0,0,0,0,0,0,0,0,0,0,0,0,0,0,0,
0,0,0,0,0,0,0,0,0,0,0,0,0,0,0,0,
0,0,0,0,0,0,0,0,0,0,0,0,0,0,0,0,
0,0,0,0,0,0,0,0,0,0,0,0,0,0,0,0,
0,0,0,0,0,0,0,0,0,0,0,0,0,0,0,0,
0,0,0,0,0,0,0,0,0,0,0,0,0,0,0,0,
0,0,0,0,0,0,0,0,0,0,0,0,0,0,0,0,
0,0,0,0,0,0,0,0,0,0,0,0,0,0,0,0,
21,21,21,21,21,21,21,21,21,0,0,0,0,0,0,0,
21,21,21,21,21,21,21,21,21,0,0,0,0,0,0,0,
21,21,21,21,21,21,21,21,21,0,0,0,0,0,0,0,
21,21,21,21,21,21,21,21,21,0,0,0,0,0,0,0
</chunk>
   <chunk x="1216" y="704" width="16" height="16">
0,0,0,0,0,0,0,0,0,0,0,0,0,15,15,15,
0,0,0,0,0,0,0,0,0,0,0,0,0,15,15,15,
0,0,0,0,0,0,0,0,0,0,0,0,0,15,15,15,
0,0,0,0,0,0,0,0,0,0,0,0,0,15,15,15,
0,0,0,0,0,0,0,0,0,0,0,0,0,15,15,15,
0,0,0,0,0,0,0,0,0,0,0,0,0,15,15,15,
0,0,0,0,0,0,0,0,0,0,0,0,0,15,15,15,
0,0,0,0,0,0,0,0,0,0,0,0,0,15,15,15,
0,0,0,0,0,0,0,0,0,0,0,0,0,15,15,15,
0,0,0,0,0,0,0,0,0,0,0,0,0,15,15,15,
0,0,0,0,0,0,0,0,0,0,0,0,0,15,15,15,
0,0,0,0,0,0,0,0,0,0,0,0,0,15,15,15,
0,0,0,0,0,0,0,0,0,0,0,0,0,15,15,15,
0,0,0,0,0,0,0,0,0,0,0,0,0,15,15,15,
0,0,0,0,0,0,0,0,0,0,0,0,0,15,15,15,
0,0,0,0,0,0,0,0,0,0,0,0,0,15,15,15
</chunk>
   <chunk x="1232" y="704" width="16" height="16">
15,15,15,15,0,0,0,0,0,0,0,0,0,0,0,0,
15,15,15,15,0,0,0,0,0,0,0,0,0,0,0,0,
15,15,15,15,0,0,0,0,0,0,0,0,0,0,0,0,
15,15,15,15,0,0,0,0,0,0,0,0,0,0,0,0,
15,15,15,15,0,0,0,0,0,0,0,0,0,0,0,0,
15,15,15,15,0,0,0,0,0,0,0,0,0,0,0,0,
15,15,15,15,0,0,0,0,0,0,0,0,0,0,0,0,
15,15,15,15,0,0,0,0,0,0,0,0,0,0,0,0,
15,15,15,15,0,0,0,0,0,0,0,0,0,0,0,0,
15,15,15,15,0,0,0,0,0,0,0,0,0,0,0,0,
15,15,15,15,0,0,0,0,0,0,0,0,0,0,0,0,
15,15,15,15,0,0,0,0,0,0,0,0,0,0,0,0,
15,15,15,15,0,0,0,0,0,0,0,0,0,0,0,0,
15,15,15,15,0,0,0,0,0,0,0,0,0,0,0,0,
15,15,15,15,0,0,0,0,0,0,0,0,0,0,0,0,
15,15,15,15,0,0,0,0,0,0,0,0,0,0,0,0
</chunk>
   <chunk x="1376" y="704" width="16" height="16">
0,0,0,0,0,0,21,21,21,21,21,21,21,21,21,21,
0,0,0,0,0,0,21,21,21,21,21,21,21,21,21,21,
0,0,0,0,0,0,21,21,21,21,21,21,21,21,21,21,
0,0,0,0,0,0,21,21,21,21,21,21,21,21,21,21,
0,0,0,0,0,0,21,21,21,21,21,21,21,21,21,21,
0,0,0,0,0,0,21,21,21,21,21,21,21,21,21,21,
0,0,0,0,0,0,21,21,21,21,21,21,21,21,21,21,
0,0,0,0,0,0,21,21,21,21,21,21,21,21,21,21,
0,0,0,0,0,0,21,21,21,21,21,21,21,21,21,21,
0,0,0,0,0,0,21,21,21,21,21,21,21,21,21,21,
0,0,0,0,0,0,21,21,21,21,21,21,21,21,21,21,
0,0,0,0,0,0,21,21,21,21,21,21,21,21,21,21,
0,0,0,0,0,0,21,21,21,21,21,21,21,21,21,21,
0,0,0,0,0,0,21,21,21,21,21,21,21,21,21,21,
0,0,0,0,0,0,21,21,21,21,21,21,21,21,21,21,
0,0,0,0,0,0,21,21,21,21,21,21,21,21,21,21
</chunk>
   <chunk x="1392" y="704" width="16" height="16">
21,21,21,21,21,21,21,21,21,0,0,0,0,0,0,0,
21,21,21,21,21,21,21,21,21,0,0,0,0,0,0,0,
21,21,21,21,21,21,21,21,21,0,0,0,0,0,0,0,
21,21,21,21,21,21,21,21,21,0,0,0,0,0,0,0,
21,21,21,21,21,21,21,21,21,0,0,0,0,0,0,0,
21,21,21,21,21,21,21,21,21,0,0,0,0,0,0,0,
21,21,21,21,21,21,21,21,21,0,0,0,0,0,0,0,
21,21,21,21,21,21,21,21,21,0,0,0,0,0,0,0,
21,21,21,21,21,21,21,21,21,0,0,0,0,0,0,0,
21,21,21,21,21,21,21,21,21,0,0,0,0,0,0,0,
21,21,21,21,21,21,21,21,21,0,0,0,0,0,0,0,
21,21,21,21,21,21,21,21,21,0,0,0,0,0,0,0,
21,21,21,21,21,21,21,21,21,0,0,0,0,0,0,0,
21,21,21,21,21,21,21,21,21,0,0,0,0,0,0,0,
21,21,21,21,21,21,21,21,21,0,0,0,0,0,0,0,
21,21,21,21,21,21,21,21,21,0,0,0,0,0,0,0
</chunk>
   <chunk x="1456" y="704" width="16" height="16">
0,0,0,0,0,0,0,0,0,0,0,0,0,0,0,0,
0,0,0,0,0,0,0,0,0,0,0,0,0,0,0,0,
0,0,0,0,0,0,0,0,0,0,0,0,0,0,0,0,
0,0,0,0,0,0,0,0,0,0,0,0,0,0,0,0,
0,0,0,0,0,0,0,0,0,0,0,0,0,0,0,0,
0,0,0,0,0,0,0,0,0,0,0,21,21,21,21,21,
0,0,0,0,0,0,0,0,0,0,0,21,21,21,21,21,
0,0,0,0,0,0,0,0,0,0,0,21,21,21,21,21,
0,0,0,0,0,0,0,0,0,0,0,21,21,21,21,21,
0,0,0,0,0,0,0,0,0,0,0,21,21,21,21,21,
0,0,0,0,0,0,0,0,0,0,0,21,21,21,21,21,
0,0,0,0,0,0,0,0,0,0,0,21,21,21,21,21,
0,0,0,0,0,0,0,0,0,0,0,21,21,21,21,21,
0,0,0,0,0,0,0,0,0,0,0,21,21,21,21,21,
0,0,0,0,0,0,0,0,0,0,0,21,21,21,21,21,
0,0,0,0,0,0,0,0,0,0,0,21,21,21,21,21
</chunk>
   <chunk x="1472" y="704" width="16" height="16">
0,0,0,0,0,0,0,0,0,0,0,0,0,0,0,0,
0,0,0,0,0,0,0,0,0,0,0,0,0,0,0,0,
0,0,0,0,0,0,0,0,0,0,0,0,0,0,0,0,
0,0,0,0,0,0,0,0,0,0,0,0,0,0,0,0,
0,0,0,0,0,0,0,0,0,0,0,0,0,0,0,0,
21,21,21,21,21,21,21,21,21,21,21,21,21,21,21,0,
21,21,21,21,21,21,21,21,21,21,21,21,21,21,21,0,
21,21,21,21,21,21,21,21,21,21,21,21,21,21,21,0,
21,21,21,21,21,21,21,21,21,21,21,21,21,21,21,0,
21,21,21,21,21,21,21,21,21,21,21,21,21,21,21,0,
21,21,21,21,21,21,21,21,21,21,21,21,21,21,21,0,
21,21,21,21,21,21,21,21,21,21,21,21,21,21,21,0,
21,21,21,21,21,21,21,21,21,21,21,21,21,21,21,0,
21,21,21,21,21,21,21,21,21,21,21,21,21,21,21,0,
21,21,21,21,21,21,21,21,21,21,21,21,21,21,21,0,
21,21,21,21,21,21,21,21,21,21,21,21,21,21,21,0
</chunk>
   <chunk x="1216" y="720" width="16" height="16">
0,0,0,0,0,0,0,0,0,0,0,0,0,15,15,15,
0,0,0,0,0,0,0,0,0,0,0,0,0,15,15,15,
0,0,0,0,0,0,0,0,0,0,0,0,0,15,15,15,
0,0,0,0,0,0,0,0,0,0,0,0,0,15,15,15,
0,0,0,0,0,0,0,0,0,0,0,0,0,15,15,15,
0,0,0,0,0,0,0,0,0,0,0,0,0,15,15,15,
0,0,0,0,0,0,0,0,0,0,0,0,0,15,15,15,
0,0,0,0,0,0,0,0,0,0,0,0,0,15,15,15,
0,0,0,0,0,0,0,0,0,0,0,0,0,15,15,15,
0,0,0,0,0,0,0,0,0,0,0,0,0,15,15,15,
0,0,0,0,0,0,0,0,0,0,0,0,0,15,15,15,
0,0,0,0,0,0,0,0,0,0,0,0,0,15,15,15,
0,0,0,0,0,0,0,0,0,0,0,0,0,15,15,15,
0,0,0,0,0,0,0,0,0,0,0,0,0,15,15,15,
0,0,0,0,0,0,0,0,0,0,0,0,0,15,15,15,
0,0,0,0,0,0,0,0,0,0,0,0,0,15,15,15
</chunk>
   <chunk x="1232" y="720" width="16" height="16">
15,15,15,15,0,0,0,0,0,0,0,0,0,0,0,0,
15,15,15,15,0,0,0,0,0,0,0,0,0,0,0,0,
15,15,15,15,0,0,0,0,0,0,0,0,0,0,0,0,
15,15,15,15,0,0,0,0,0,0,0,0,0,0,0,0,
15,15,15,15,0,0,0,0,0,0,0,0,0,0,0,0,
15,15,15,15,0,0,0,0,0,0,0,0,0,0,0,0,
15,15,15,15,0,0,0,0,0,0,0,0,0,0,0,0,
15,15,15,15,0,0,0,0,0,0,0,0,0,0,0,0,
15,15,15,15,0,0,0,0,0,0,0,0,0,0,0,0,
15,15,15,15,0,0,0,0,0,0,0,0,0,0,0,0,
15,15,15,15,0,0,0,0,0,0,0,0,0,0,0,0,
15,15,15,15,0,0,0,0,0,0,0,0,0,0,0,0,
15,15,15,15,0,0,0,0,0,0,0,0,0,0,0,0,
15,15,15,15,0,0,0,0,0,0,0,0,0,0,0,0,
15,15,15,15,0,0,0,0,0,0,0,0,0,0,0,0,
15,15,15,15,0,0,0,0,0,0,0,0,0,0,0,0
</chunk>
   <chunk x="1264" y="720" width="16" height="16">
0,0,0,0,0,0,0,0,0,0,0,0,0,0,0,0,
0,0,0,0,0,0,0,0,0,0,0,0,0,0,0,0,
0,0,0,0,0,0,0,0,0,0,0,0,0,0,0,0,
0,0,0,0,0,0,0,0,0,0,0,0,0,0,0,0,
0,0,0,0,0,0,0,0,0,0,0,0,0,0,0,0,
0,0,0,0,0,0,0,0,0,0,0,0,0,0,0,0,
0,0,0,0,0,0,0,0,0,0,0,0,0,0,0,0,
0,0,0,0,0,0,0,0,0,0,0,0,0,0,0,0,
0,0,0,0,0,0,0,0,0,0,0,0,0,0,0,0,
0,0,0,0,0,0,0,0,0,0,0,0,0,0,0,0,
0,0,0,0,0,0,0,0,0,0,0,0,0,0,0,0,
0,0,0,0,0,0,0,0,0,0,0,0,0,0,0,0,
0,0,0,0,0,0,0,0,0,0,0,0,0,0,0,0,
0,0,0,0,0,0,0,0,0,0,0,0,0,0,0,0,
0,0,0,0,0,0,0,0,0,21,21,21,21,21,21,21,
0,0,0,0,0,0,0,0,0,21,21,21,21,21,21,21
</chunk>
   <chunk x="1280" y="720" width="16" height="16">
0,0,0,0,0,0,0,0,0,0,0,0,0,0,0,0,
0,0,0,0,0,0,0,0,0,0,0,0,0,0,0,0,
0,0,0,0,0,0,0,0,0,0,0,0,0,0,0,0,
0,0,0,0,0,0,0,0,0,0,0,0,0,0,0,0,
0,0,0,0,0,0,0,0,0,0,0,0,0,0,0,0,
0,0,0,0,0,0,0,0,0,0,0,0,0,0,0,0,
0,0,0,0,0,0,0,0,0,0,0,0,0,0,0,0,
0,0,0,0,0,0,0,0,0,0,0,0,0,0,0,0,
0,0,0,0,0,0,0,0,0,0,0,0,0,0,0,0,
0,0,0,0,0,0,0,0,0,0,0,0,0,0,0,0,
0,0,0,0,0,0,0,0,0,0,0,0,0,0,0,0,
0,0,0,0,0,0,0,0,0,0,0,0,0,0,0,0,
0,0,0,0,0,0,0,0,0,0,0,0,0,0,0,0,
0,0,0,0,0,0,0,0,0,0,0,0,0,0,0,0,
21,21,21,21,21,21,21,21,21,21,21,21,0,0,0,0,
21,21,21,21,21,21,21,21,21,21,21,21,0,0,0,0
</chunk>
   <chunk x="1456" y="720" width="16" height="16">
0,0,0,0,0,0,0,0,0,0,0,21,21,21,21,21,
0,0,0,0,0,0,0,0,0,0,0,21,21,21,21,21,
0,0,0,0,0,0,0,0,0,0,0,21,21,21,21,21,
0,0,0,0,0,0,0,0,0,0,0,21,21,21,21,21,
0,0,0,0,0,0,0,0,0,0,0,21,21,21,21,21,
0,0,0,0,0,0,0,0,0,0,0,21,21,21,21,21,
0,0,0,0,0,0,0,0,0,0,0,21,21,21,21,21,
0,0,0,0,0,0,0,0,0,0,0,21,21,21,21,21,
0,0,0,0,0,0,0,0,0,0,0,21,21,21,21,21,
0,0,0,0,0,0,0,0,0,0,0,0,0,0,0,0,
0,0,0,0,0,0,0,0,0,0,0,0,0,0,0,0,
0,0,0,0,0,0,0,0,0,0,0,0,0,0,0,0,
0,0,0,0,0,0,0,0,0,0,0,0,0,0,0,0,
0,0,0,0,0,0,0,0,0,0,0,0,0,0,0,0,
0,0,0,0,0,0,0,0,0,0,0,0,0,0,0,0,
0,0,0,0,0,0,0,0,0,0,0,0,0,0,0,0
</chunk>
   <chunk x="1472" y="720" width="16" height="16">
21,21,21,21,21,21,21,21,21,21,21,21,21,21,21,0,
21,21,21,21,21,21,21,21,21,21,21,21,21,21,21,0,
21,21,21,21,21,21,21,21,21,21,21,21,21,21,21,0,
21,21,21,21,21,21,21,21,21,21,21,21,21,21,21,0,
21,21,21,21,21,21,21,21,21,21,21,21,21,21,21,0,
21,21,21,21,21,21,21,21,21,21,21,21,21,21,21,0,
21,21,21,21,21,21,21,21,21,21,21,21,21,21,21,0,
21,21,21,21,21,21,21,21,21,21,21,21,21,21,21,0,
21,21,21,21,21,21,21,21,21,21,21,21,21,21,21,0,
0,0,0,0,0,0,0,0,0,0,0,0,0,0,0,0,
0,0,0,0,0,0,0,0,0,0,0,0,0,0,0,0,
0,0,0,0,0,0,0,0,0,0,0,0,0,0,0,0,
0,0,0,0,0,0,0,0,0,0,0,0,0,0,0,0,
0,0,0,0,0,0,0,0,0,0,0,0,0,0,0,0,
0,0,0,0,0,0,0,0,0,0,0,0,0,0,0,0,
0,0,0,0,0,0,0,0,0,0,0,0,0,0,0,0
</chunk>
   <chunk x="1216" y="736" width="16" height="16">
0,0,0,0,0,0,0,0,0,0,0,0,0,15,15,15,
0,0,0,0,0,0,0,0,0,0,0,0,0,15,15,15,
0,0,0,0,0,0,0,0,0,0,0,0,0,15,15,15,
0,0,0,0,0,0,0,0,0,0,0,0,0,15,15,15,
0,0,0,0,0,0,0,0,0,0,0,0,0,15,15,15,
0,0,0,0,0,0,0,0,0,0,0,0,0,15,15,15,
0,0,0,0,0,0,0,0,0,0,0,0,0,15,15,15,
0,0,0,0,0,0,0,0,0,0,0,0,0,15,15,15,
0,0,0,0,0,0,0,0,0,0,0,0,0,15,15,15,
0,0,0,0,0,0,0,0,0,0,0,0,0,15,15,15,
0,0,0,0,0,0,0,0,0,0,0,0,0,15,15,15,
0,0,0,0,0,0,0,0,0,0,0,0,0,15,15,15,
0,0,0,0,0,0,0,0,0,0,0,0,0,15,15,15,
0,0,0,0,0,0,0,0,0,0,0,0,0,15,15,15,
0,0,0,0,0,0,0,0,0,0,0,0,0,15,15,15,
0,0,0,0,0,0,0,0,0,0,0,0,0,15,15,15
</chunk>
   <chunk x="1232" y="736" width="16" height="16">
15,15,15,15,0,0,0,0,0,0,0,0,0,0,0,0,
15,15,15,15,0,0,0,0,0,0,0,0,0,0,0,0,
15,15,15,15,0,0,0,0,0,0,0,0,0,0,0,0,
15,15,15,15,0,0,0,0,0,0,0,0,0,0,0,0,
15,15,15,15,0,0,0,0,0,0,0,0,0,0,0,0,
15,15,15,15,0,0,0,0,0,0,0,0,0,0,0,0,
15,15,15,15,0,0,0,0,0,0,0,0,0,0,0,0,
15,15,15,15,0,0,0,0,0,0,0,0,0,0,0,0,
15,15,15,15,0,0,0,0,0,0,0,0,0,0,0,0,
15,15,15,15,0,0,0,0,0,0,0,0,0,0,0,0,
15,15,15,15,0,0,0,0,0,0,0,0,0,0,0,0,
15,15,15,15,0,0,0,0,0,0,0,0,0,0,0,0,
15,15,15,15,0,0,0,0,0,0,0,0,0,0,0,0,
15,15,15,15,0,0,0,0,0,0,0,0,0,0,0,0,
15,15,15,15,0,0,0,0,0,0,0,0,0,0,0,0,
15,15,15,15,0,0,0,0,0,0,0,0,0,0,0,0
</chunk>
   <chunk x="1264" y="736" width="16" height="16">
0,0,0,0,0,0,0,0,0,21,21,21,21,21,21,21,
0,0,0,0,0,0,0,0,0,21,21,21,21,21,21,21,
0,0,0,0,0,0,0,0,0,21,21,21,21,21,21,21,
0,0,0,0,0,0,0,0,0,21,21,21,21,21,21,21,
0,0,0,0,0,0,0,0,0,21,21,21,21,21,21,21,
0,0,0,0,0,0,0,0,0,21,21,21,21,21,21,21,
0,0,0,0,0,0,0,0,0,21,21,21,21,21,21,21,
0,0,0,0,0,0,0,0,0,21,21,21,21,21,21,21,
0,0,0,0,0,0,0,0,0,21,21,21,21,21,21,21,
0,0,0,0,0,0,0,0,0,21,21,21,21,21,21,21,
0,0,0,0,0,0,0,0,0,21,21,21,21,21,21,21,
0,0,0,0,0,0,0,0,0,21,21,21,21,21,21,21,
0,0,0,0,0,0,0,0,0,21,21,21,21,21,21,21,
0,0,0,0,0,0,0,0,0,21,21,21,21,21,21,21,
0,0,0,0,0,0,0,0,0,21,21,21,21,21,21,21,
0,0,0,0,0,0,0,0,0,21,21,21,21,21,21,21
</chunk>
   <chunk x="1280" y="736" width="16" height="16">
21,21,21,21,21,21,21,21,21,21,21,21,0,0,0,0,
21,21,21,21,21,21,21,21,21,21,21,21,0,0,0,0,
21,21,21,21,21,21,21,21,21,21,21,21,0,0,0,0,
21,21,21,21,21,21,21,21,21,21,21,21,0,0,0,0,
21,21,21,21,21,21,21,21,21,21,21,21,0,0,0,0,
21,21,21,21,21,21,21,21,21,21,21,21,0,0,0,0,
21,21,21,21,21,21,21,21,21,21,21,21,0,0,0,0,
21,21,21,21,21,21,21,21,21,21,21,21,0,0,0,0,
21,21,21,21,21,21,21,21,21,21,21,21,0,0,0,0,
21,21,21,21,21,21,21,21,21,21,21,21,0,0,0,0,
21,21,21,21,21,21,21,21,21,21,21,21,0,0,0,0,
21,21,21,21,21,21,21,21,21,21,21,21,0,0,0,0,
21,21,21,21,21,21,21,21,21,21,21,21,0,0,0,0,
21,21,21,21,21,21,21,21,21,21,21,21,0,0,0,0,
21,21,21,21,21,21,21,21,21,21,21,21,0,0,0,0,
21,21,21,21,21,21,21,21,21,21,21,21,0,0,0,0
</chunk>
   <chunk x="1216" y="752" width="16" height="16">
0,0,0,0,0,0,0,0,0,0,0,0,0,15,15,15,
0,0,0,0,0,0,0,0,0,0,0,0,0,15,15,15,
0,0,0,0,0,0,0,0,0,0,0,0,0,15,15,15,
0,0,0,0,0,0,0,0,0,0,0,0,0,15,15,15,
0,0,0,0,0,0,0,0,0,0,0,0,0,15,15,15,
0,0,0,0,0,0,0,0,0,0,0,0,0,15,15,15,
0,0,0,0,0,0,0,0,0,0,0,0,0,15,15,15,
0,0,0,0,0,0,0,0,0,0,0,0,0,15,15,15,
0,0,0,0,0,0,0,0,0,0,0,0,0,15,15,15,
0,0,0,0,0,0,0,0,0,0,0,0,0,15,15,15,
0,0,0,0,0,0,0,0,0,0,0,0,0,15,15,15,
0,0,0,0,0,0,0,0,0,0,0,0,0,15,15,15,
0,0,0,0,0,0,0,0,0,0,0,0,0,15,15,15,
0,0,0,0,0,0,0,0,0,0,0,0,0,15,15,15,
0,0,0,0,0,0,0,0,0,0,0,0,0,15,15,15,
0,0,0,0,0,0,0,0,0,0,0,0,0,15,15,15
</chunk>
   <chunk x="1232" y="752" width="16" height="16">
15,15,15,15,0,0,0,0,0,0,0,0,0,0,0,0,
15,15,15,15,0,0,0,0,0,0,0,0,0,0,0,0,
15,15,15,15,0,0,0,0,0,0,0,0,0,0,0,0,
15,15,15,15,0,0,0,0,0,0,0,0,0,0,0,0,
15,15,15,15,0,0,0,0,0,0,0,0,0,0,0,0,
15,15,15,15,0,0,0,0,0,0,0,0,0,0,0,0,
15,15,15,15,0,0,0,0,0,0,0,0,0,0,0,0,
15,15,15,15,0,0,0,0,0,0,0,0,0,0,0,0,
15,15,15,15,0,0,0,0,0,0,0,0,0,0,0,0,
15,15,15,15,0,0,0,0,0,0,0,0,0,0,0,0,
15,15,15,15,0,0,0,0,0,0,0,0,0,0,0,0,
15,15,15,15,0,0,0,0,0,0,0,0,0,0,0,0,
15,15,15,15,0,0,0,0,0,0,0,0,0,0,0,0,
15,15,15,15,0,0,0,0,0,0,0,0,0,0,0,0,
15,15,15,15,0,0,0,0,0,0,0,0,0,0,0,0,
15,15,15,15,0,0,0,0,0,0,0,0,0,0,0,0
</chunk>
   <chunk x="1264" y="752" width="16" height="16">
0,0,0,0,0,0,0,0,0,21,21,21,21,21,21,21,
0,0,0,0,0,0,0,0,0,21,21,21,21,21,21,21,
0,0,0,0,0,0,0,0,0,0,0,0,0,0,0,0,
0,0,0,0,0,0,0,0,0,0,0,0,0,0,0,0,
0,0,0,0,0,0,0,0,0,0,0,0,0,0,0,0,
0,0,0,0,0,0,0,0,0,0,0,0,0,0,0,0,
0,0,0,0,0,0,0,0,0,0,0,0,0,0,0,0,
0,0,0,0,0,0,0,0,0,0,0,0,0,0,0,0,
0,0,0,0,0,0,0,0,0,0,0,0,0,0,0,0,
0,0,0,0,0,0,0,0,0,0,0,0,0,0,0,0,
0,0,0,0,0,0,0,0,0,0,0,0,0,0,0,0,
0,0,0,0,0,0,0,0,0,0,0,0,0,0,0,0,
0,0,0,0,0,0,0,0,0,0,0,0,0,0,0,0,
0,0,0,0,0,0,0,0,0,0,0,0,0,0,0,0,
0,0,0,0,0,0,0,0,0,0,0,0,0,0,0,0,
0,0,0,0,0,0,0,0,0,0,0,0,0,0,0,0
</chunk>
   <chunk x="1280" y="752" width="16" height="16">
21,21,21,21,21,21,21,21,21,21,21,21,0,0,0,0,
21,21,21,21,21,21,21,21,21,21,21,21,0,0,0,0,
0,0,0,0,0,0,0,0,0,0,0,0,0,0,0,0,
0,0,0,0,0,0,0,0,0,0,0,0,0,0,0,0,
0,0,0,0,0,0,0,0,0,0,0,0,0,0,0,0,
0,0,0,0,0,0,0,0,0,0,0,0,0,0,0,0,
0,0,0,0,0,0,0,0,0,0,0,0,0,0,0,0,
0,0,0,0,0,0,0,0,0,0,0,0,0,0,0,0,
0,0,0,0,0,0,0,0,0,0,0,0,0,0,0,0,
0,0,0,0,0,0,0,0,0,0,0,0,0,0,0,0,
0,0,0,0,0,0,0,0,0,0,0,0,0,0,0,0,
0,0,0,0,0,0,0,0,0,0,0,0,0,0,0,0,
0,0,0,0,0,0,0,0,0,0,0,0,0,0,0,0,
0,0,0,0,0,0,0,0,0,0,0,0,0,0,0,0,
0,0,0,0,0,0,0,0,0,0,0,0,0,0,0,0,
0,0,0,0,0,0,0,0,0,0,0,0,0,0,0,0
</chunk>
   <chunk x="1312" y="752" width="16" height="16">
0,0,0,0,0,0,0,0,0,0,0,0,0,0,0,0,
0,0,0,0,0,0,0,0,0,0,0,0,0,0,0,0,
0,0,0,0,0,0,0,0,0,0,0,0,0,0,0,0,
0,0,0,0,0,0,0,0,0,0,0,0,0,0,0,0,
0,0,0,0,0,0,0,0,0,0,0,0,0,0,0,0,
0,0,0,0,0,0,0,0,0,0,0,0,0,0,0,0,
0,0,0,0,0,0,0,0,0,0,0,0,0,0,0,0,
0,0,0,0,0,0,0,0,0,0,0,0,0,0,0,0,
0,0,0,0,0,0,0,0,0,0,0,0,0,0,0,0,
0,0,0,0,0,0,0,0,0,0,0,0,0,0,0,0,
0,0,0,0,0,0,0,0,0,0,0,0,0,0,0,0,
0,0,0,0,0,0,0,0,0,0,0,0,0,0,0,0,
0,0,0,0,0,0,0,0,0,0,0,0,0,0,0,0,
0,0,0,0,0,0,0,0,0,0,0,0,0,0,0,0,
0,0,0,0,0,0,0,0,0,0,0,0,21,21,21,21,
0,0,0,0,0,0,0,0,0,0,0,0,21,21,21,21
</chunk>
   <chunk x="1328" y="752" width="16" height="16">
0,0,0,0,0,0,0,0,0,0,0,0,0,0,0,0,
0,0,0,0,0,0,0,0,0,0,0,0,0,0,0,0,
0,0,0,0,0,0,0,0,0,0,0,0,0,0,0,0,
0,0,0,0,0,0,0,0,0,0,0,0,0,0,0,0,
0,0,0,0,0,0,0,0,0,0,0,0,0,0,0,0,
0,0,0,0,0,0,0,0,0,0,0,0,0,0,0,0,
0,0,0,0,0,0,0,0,0,0,0,0,0,0,0,0,
0,0,0,0,0,0,0,0,0,0,0,0,0,0,0,0,
0,0,0,0,0,0,0,0,0,0,0,0,0,0,0,0,
0,0,0,0,0,0,0,0,0,0,0,0,0,0,0,0,
0,0,0,0,0,0,0,0,0,0,0,0,0,0,0,0,
0,0,0,0,0,0,0,0,0,0,0,0,0,0,0,0,
0,0,0,0,0,0,0,0,0,0,0,0,0,0,0,0,
0,0,0,0,0,0,0,0,0,0,0,0,0,0,0,0,
21,21,21,21,21,21,21,21,21,21,21,21,21,21,21,0,
21,21,21,21,21,21,21,21,21,21,21,21,21,21,21,0
</chunk>
   <chunk x="1376" y="752" width="16" height="16">
0,0,0,0,0,0,0,0,0,0,0,0,0,0,0,0,
0,0,0,0,0,0,0,0,0,0,0,0,0,0,0,21,
0,0,0,0,0,0,0,0,0,0,0,0,0,0,0,21,
0,0,0,0,0,0,0,0,0,0,0,0,0,0,0,21,
0,0,0,0,0,0,0,0,0,0,0,0,0,0,0,21,
0,0,0,0,0,0,0,0,0,0,0,0,0,0,0,21,
0,0,0,0,0,0,0,0,0,0,0,0,0,0,0,21,
0,0,0,0,0,0,0,0,0,0,0,0,0,0,0,21,
0,0,0,0,0,0,0,0,0,0,0,0,0,0,0,21,
0,0,0,0,0,0,0,0,0,0,0,0,0,0,0,21,
0,0,0,0,0,0,0,0,0,0,0,0,0,0,0,21,
0,0,0,0,0,0,0,0,0,0,0,0,0,0,0,21,
0,0,0,0,0,0,0,0,0,0,0,0,0,0,0,21,
0,0,0,0,0,0,0,0,0,0,0,0,0,0,0,21,
0,0,0,0,0,0,0,0,0,0,0,0,0,0,0,21,
0,0,0,0,0,0,0,0,0,0,0,0,0,0,0,21
</chunk>
   <chunk x="1392" y="752" width="16" height="16">
0,0,0,0,0,0,0,0,0,0,0,0,0,0,0,0,
21,21,21,21,21,21,21,21,21,21,21,21,21,21,21,21,
21,21,21,21,21,21,21,21,21,21,21,21,21,21,21,21,
21,21,21,21,21,21,21,21,21,21,21,21,21,21,21,21,
21,21,21,21,21,21,21,21,21,21,21,21,21,21,21,21,
21,21,21,21,21,21,21,21,21,21,21,21,21,21,21,21,
21,21,21,21,21,21,21,21,21,21,21,21,21,21,21,21,
21,21,21,21,21,21,21,21,21,21,21,21,21,21,21,21,
21,21,21,21,21,21,21,21,21,21,21,21,21,21,21,21,
21,21,21,21,21,21,21,21,21,21,21,21,21,21,21,21,
21,21,21,21,21,21,21,21,21,21,21,21,21,21,21,21,
21,21,21,21,21,21,21,21,21,21,21,21,21,21,21,21,
21,21,21,21,21,21,21,21,21,21,21,21,21,21,21,21,
21,21,21,21,21,21,21,21,21,21,21,21,21,21,21,21,
21,21,21,21,21,21,21,21,21,21,21,21,21,21,21,21,
21,21,21,21,21,21,21,21,21,21,21,21,21,21,21,21
</chunk>
   <chunk x="1408" y="752" width="16" height="16">
0,0,0,0,0,0,0,0,0,0,0,0,0,0,0,0,
21,21,0,0,0,0,0,0,0,0,0,0,0,0,0,0,
21,21,0,0,0,0,0,0,0,0,0,0,0,0,0,0,
21,21,0,0,0,0,0,0,0,0,0,0,0,0,0,0,
21,21,0,0,0,0,0,0,0,0,0,0,0,0,0,0,
21,21,0,0,0,0,0,0,0,0,0,0,0,0,0,0,
21,21,0,0,0,0,0,0,0,0,0,0,0,0,0,0,
21,21,0,0,0,0,0,0,0,0,0,0,0,0,0,0,
21,21,0,0,0,0,0,0,0,0,0,0,0,0,0,0,
21,21,0,0,0,0,0,0,0,0,0,0,0,0,0,0,
21,21,0,0,0,0,0,0,0,0,0,0,0,0,0,0,
21,21,0,0,0,0,0,0,0,0,0,0,0,0,0,0,
21,21,0,0,0,0,0,0,0,0,0,0,0,0,0,0,
21,21,0,0,0,0,0,0,0,0,0,0,0,0,0,0,
21,21,15,0,0,0,0,0,0,0,0,0,0,0,0,0,
21,21,15,15,15,15,15,15,0,15,15,0,0,0,0,0
</chunk>
   <chunk x="1216" y="768" width="16" height="16">
0,0,0,0,0,0,0,0,0,0,0,0,0,15,15,15,
0,0,0,0,0,0,0,0,0,0,0,0,0,15,15,15,
0,0,0,0,0,0,0,0,0,0,0,0,0,15,15,15,
0,0,0,0,0,0,0,0,0,0,0,0,0,15,15,15,
0,0,0,0,0,0,0,0,0,0,0,0,0,15,15,15,
0,0,0,0,0,0,0,0,0,0,0,0,0,15,15,15,
0,0,0,0,0,0,0,0,0,0,0,0,0,15,15,15,
0,0,0,0,0,0,0,0,0,0,0,0,0,15,15,15,
0,0,0,0,0,0,0,0,0,0,0,0,0,15,15,15,
0,0,0,0,0,0,0,0,0,0,0,0,0,15,15,15,
0,0,0,0,0,0,0,0,0,0,0,0,0,15,15,15,
0,0,0,0,0,0,0,0,0,0,0,0,0,15,15,15,
0,0,0,0,0,0,0,0,0,0,0,0,0,15,15,15,
0,0,0,0,0,0,0,0,0,0,0,0,0,15,15,15,
0,0,0,0,0,0,0,0,0,0,0,0,0,15,15,15,
0,0,0,0,0,0,0,0,0,0,0,0,0,15,15,15
</chunk>
   <chunk x="1232" y="768" width="16" height="16">
15,15,15,15,0,0,0,0,0,0,0,0,0,0,0,0,
15,15,15,15,0,0,0,0,0,0,0,0,0,0,0,0,
15,15,15,15,0,0,0,0,0,0,0,0,0,0,0,0,
15,15,15,15,0,0,0,0,0,0,0,0,0,0,0,0,
15,15,15,15,0,0,0,0,0,0,0,0,0,0,0,0,
15,15,15,15,0,0,0,0,0,0,0,0,0,0,0,0,
15,15,15,15,0,0,0,0,0,0,0,0,0,0,0,0,
15,15,15,15,0,0,0,0,0,0,0,0,0,0,0,0,
15,15,15,15,0,0,0,0,0,0,0,0,0,0,0,0,
15,15,15,15,0,0,0,0,0,0,0,0,0,0,0,0,
15,15,15,15,0,0,0,0,0,0,0,0,0,0,0,0,
15,15,15,15,0,0,0,0,0,0,0,0,0,0,0,0,
15,15,15,15,0,0,0,0,0,0,0,0,0,0,0,0,
15,15,15,15,0,0,0,0,0,0,0,0,0,0,0,0,
15,15,15,15,0,0,0,0,0,0,0,0,0,0,0,0,
15,15,15,15,0,0,0,0,0,0,0,0,0,0,0,0
</chunk>
   <chunk x="1312" y="768" width="16" height="16">
0,0,0,0,0,0,0,0,0,0,0,0,21,21,21,21,
0,0,0,0,0,0,0,0,0,0,0,0,21,21,21,21,
0,0,0,0,0,0,0,0,0,0,0,0,21,21,21,21,
0,0,0,0,0,0,0,0,0,0,0,0,21,21,21,21,
0,0,0,0,0,0,0,0,0,0,0,0,21,21,21,21,
0,0,0,0,0,0,0,0,0,0,0,0,21,21,21,21,
0,0,0,0,0,0,0,0,0,0,0,0,21,21,21,21,
0,0,0,0,0,0,0,0,0,0,0,0,21,21,21,21,
0,0,0,0,0,0,0,0,0,0,0,0,21,21,21,21,
0,0,0,0,0,0,0,0,0,0,0,0,21,21,21,21,
0,0,0,0,0,0,0,0,0,0,0,0,21,21,21,21,
0,0,0,0,0,0,0,0,0,0,0,0,21,21,21,21,
0,0,0,0,0,0,0,0,0,0,0,0,21,21,21,21,
0,0,0,0,0,0,0,0,0,0,0,0,21,21,21,21,
0,0,0,0,0,0,0,0,0,0,0,0,21,21,21,21,
0,0,0,0,0,0,0,0,0,0,0,0,21,21,21,21
</chunk>
   <chunk x="1328" y="768" width="16" height="16">
21,21,21,21,21,21,21,21,21,21,21,21,21,21,21,0,
21,21,21,21,21,21,21,21,21,21,21,21,21,21,21,0,
21,21,21,21,21,21,21,21,21,21,21,21,21,21,21,0,
21,21,21,21,21,21,21,21,21,21,21,21,21,21,21,0,
21,21,21,21,21,21,21,21,21,21,21,21,21,21,21,0,
21,21,21,21,21,21,21,21,21,21,21,21,21,21,21,0,
21,21,21,21,21,21,21,21,21,21,21,21,21,21,21,0,
21,21,21,21,21,21,21,21,21,21,21,21,21,21,21,0,
21,21,21,21,21,21,21,21,21,21,21,21,21,21,21,0,
21,21,21,21,21,21,21,21,21,21,21,21,21,21,21,0,
21,21,21,21,21,21,21,21,21,21,21,21,21,21,21,0,
21,21,21,21,21,21,21,21,21,21,21,21,21,21,21,0,
21,21,21,21,21,21,21,21,21,21,21,21,21,21,21,0,
21,21,21,21,21,21,21,21,21,21,21,21,21,21,21,0,
21,21,21,21,21,21,21,21,21,21,21,21,21,21,21,0,
21,21,21,21,21,21,21,21,21,21,21,21,21,21,21,0
</chunk>
   <chunk x="1376" y="768" width="16" height="16">
0,0,0,0,0,0,0,0,0,0,0,0,0,0,0,21,
0,0,0,0,0,0,0,0,0,0,0,0,0,0,0,21,
0,0,0,0,0,0,0,0,0,0,0,0,0,0,0,21,
0,0,0,0,0,0,0,0,0,0,0,0,0,0,0,21,
0,0,0,0,0,0,0,0,0,0,0,0,0,0,0,21,
0,0,0,0,0,0,0,0,0,0,0,0,0,0,0,0,
0,0,0,0,0,0,0,0,0,0,0,0,0,0,0,0,
0,0,0,0,0,0,0,0,0,0,0,0,0,0,0,0,
0,0,0,0,0,0,0,0,0,0,0,0,0,0,0,0,
0,0,0,0,0,0,0,0,0,0,0,0,0,0,0,0,
0,0,0,0,0,0,0,0,0,0,0,0,0,0,0,0,
0,0,0,0,0,0,0,0,0,0,0,0,0,0,0,0,
0,0,0,0,0,0,0,0,0,0,0,0,0,0,0,0,
0,0,0,0,0,0,0,0,0,0,0,0,0,0,0,0,
0,0,0,0,0,0,0,0,0,0,0,0,0,0,0,0,
0,0,0,0,0,0,0,0,0,0,0,0,0,0,0,0
</chunk>
   <chunk x="1392" y="768" width="16" height="16">
21,21,21,21,21,21,21,21,21,21,21,21,21,21,21,21,
21,21,21,21,21,21,21,21,21,21,21,21,21,21,21,21,
21,21,21,21,21,21,21,21,21,21,21,21,21,21,21,21,
21,21,21,21,21,21,21,21,21,21,21,21,21,21,21,21,
21,21,21,21,21,21,21,21,21,21,21,21,21,21,21,21,
0,0,0,0,0,0,0,0,0,0,0,0,0,0,0,0,
0,0,0,0,0,0,0,0,0,0,0,0,0,0,0,0,
0,0,0,0,0,0,0,0,0,0,0,0,0,0,0,0,
0,0,0,0,0,0,0,0,0,0,0,0,0,0,0,0,
0,0,0,0,0,0,0,0,0,0,0,0,0,0,0,0,
0,0,0,0,0,0,0,0,0,0,0,0,0,0,0,0,
0,0,0,0,0,0,0,0,0,0,0,0,0,0,0,0,
0,0,0,0,0,0,0,0,0,0,0,0,0,0,0,0,
0,0,0,0,0,0,0,0,0,0,0,0,0,0,0,0,
0,0,0,0,0,0,0,0,0,0,0,0,0,0,0,0,
0,0,0,0,0,0,0,0,0,0,0,0,0,0,0,0
</chunk>
   <chunk x="1408" y="768" width="16" height="16">
21,21,15,15,15,15,15,15,15,15,15,0,0,0,0,0,
21,21,15,15,15,0,15,15,15,15,15,15,0,0,0,0,
21,21,15,15,15,15,0,15,15,15,15,15,0,0,0,0,
21,21,15,15,15,15,15,15,15,15,0,0,0,0,0,0,
21,21,15,15,15,15,15,15,15,15,0,0,0,0,0,0,
0,0,0,15,15,15,15,15,15,0,0,0,0,0,0,0,
0,0,15,15,15,15,15,15,0,0,0,0,0,0,0,0,
0,0,15,15,15,15,15,0,0,0,0,0,0,0,0,0,
0,0,0,15,15,15,15,15,0,0,0,0,0,0,0,0,
0,0,0,0,0,0,15,15,15,0,0,0,0,0,0,0,
0,0,0,0,0,15,15,15,15,15,15,0,0,0,0,0,
0,0,0,0,15,15,15,15,15,0,15,0,0,0,0,0,
0,0,0,0,15,15,15,15,15,15,0,0,0,0,0,0,
0,0,0,0,0,0,0,0,15,0,0,0,0,0,0,0,
0,0,0,0,0,0,0,0,0,0,0,0,0,0,0,0,
0,0,0,0,0,0,0,0,0,0,0,0,0,0,0,0
</chunk>
   <chunk x="1488" y="768" width="16" height="16">
0,0,0,0,0,0,0,0,0,0,0,0,0,0,0,0,
0,0,0,0,0,0,0,0,0,0,0,0,0,0,0,0,
0,0,0,0,0,0,0,0,0,0,0,0,0,0,0,0,
0,0,0,0,0,0,0,0,0,0,0,0,0,0,0,0,
0,0,0,0,0,0,0,0,0,0,21,21,21,21,21,21,
0,0,0,0,0,0,0,0,0,0,21,21,21,21,21,21,
0,0,0,0,0,0,0,0,0,0,21,21,21,21,21,21,
0,0,0,0,0,0,0,0,0,0,21,21,21,21,21,21,
0,0,0,0,0,0,0,0,0,0,21,21,21,21,21,21,
0,0,0,0,0,0,0,0,0,0,21,21,21,21,21,21,
0,0,0,0,0,0,0,0,0,0,21,21,21,21,21,21,
0,0,0,0,0,0,0,0,0,0,21,21,21,21,21,21,
0,0,0,0,0,0,0,0,0,0,21,21,21,21,21,21,
0,0,0,0,0,0,0,0,0,0,21,21,21,21,21,21,
0,0,0,0,0,0,0,0,0,0,21,21,21,21,21,21,
0,0,0,0,0,0,0,0,0,0,21,21,21,21,21,21
</chunk>
   <chunk x="1504" y="768" width="16" height="16">
0,0,0,0,0,0,0,0,0,0,0,0,0,0,0,0,
0,0,0,0,0,0,0,0,0,0,0,0,0,0,0,0,
0,0,0,0,0,0,0,0,0,0,0,0,0,0,0,0,
0,0,0,0,0,0,0,0,0,0,0,0,0,0,0,0,
21,21,21,21,21,21,21,21,21,21,21,21,21,0,0,0,
21,21,21,21,21,21,21,21,21,21,21,21,21,0,0,0,
21,21,21,21,21,21,21,21,21,21,21,21,21,0,0,0,
21,21,21,21,21,21,21,21,21,21,21,21,21,0,0,0,
21,21,21,21,21,21,21,21,21,21,21,21,21,0,0,0,
21,21,21,21,21,21,21,21,21,21,21,21,21,0,0,0,
21,21,21,21,21,21,21,21,21,21,21,21,21,0,0,0,
21,21,21,21,21,21,21,21,21,21,21,21,21,0,0,0,
21,21,21,21,21,21,21,21,21,21,21,21,21,0,0,0,
21,21,21,21,21,21,21,21,21,21,21,21,21,0,0,0,
21,21,21,21,21,21,21,21,21,21,21,21,21,0,0,0,
21,21,21,21,21,21,21,21,21,21,21,21,21,0,0,0
</chunk>
   <chunk x="1216" y="784" width="16" height="16">
0,0,0,0,0,0,0,0,0,0,0,0,0,15,15,15,
0,0,0,0,0,0,0,0,0,0,0,0,0,15,15,15,
0,0,0,0,0,0,0,0,0,0,0,0,0,15,15,15,
0,0,0,0,0,0,0,0,0,0,0,0,0,15,15,15,
0,0,0,0,0,0,0,0,0,0,0,0,0,15,15,15,
0,0,0,0,0,0,0,0,0,0,0,0,0,15,15,15,
0,0,0,0,0,0,0,0,0,0,0,0,0,15,15,15,
0,0,0,0,0,0,0,0,0,0,0,0,0,15,15,15,
0,0,0,0,0,0,0,0,0,0,0,0,0,15,15,15,
0,0,0,0,0,0,0,0,0,0,0,0,0,15,15,15,
0,0,0,0,0,0,0,0,0,0,0,0,0,15,15,15,
0,0,0,0,0,0,0,0,0,0,0,0,0,15,15,15,
0,0,0,0,0,0,0,0,0,0,0,0,0,15,15,15,
0,0,0,0,0,0,0,0,0,0,0,0,0,15,15,15,
0,0,0,0,0,0,0,0,0,0,0,0,0,15,15,15,
0,0,0,0,0,0,0,0,0,0,0,0,0,15,15,15
</chunk>
   <chunk x="1232" y="784" width="16" height="16">
15,15,15,15,0,0,0,0,0,0,0,0,0,0,0,0,
15,15,15,15,0,0,0,0,0,0,0,0,0,0,0,0,
15,15,15,15,0,0,0,0,0,0,0,0,0,0,0,0,
15,15,15,15,0,0,0,0,0,0,0,0,0,0,0,0,
15,15,15,15,0,0,0,0,0,0,0,0,0,0,0,0,
15,15,15,15,0,0,0,0,0,0,0,0,0,0,0,0,
15,15,15,15,0,0,0,0,0,0,0,0,0,0,0,0,
15,15,15,15,0,0,0,0,0,0,0,0,0,0,0,0,
15,15,15,15,0,0,0,0,0,0,0,0,0,0,0,0,
15,15,15,15,0,0,0,0,0,0,0,0,0,0,0,0,
15,15,15,15,0,0,0,0,0,0,0,0,0,0,0,0,
15,15,15,15,0,0,0,0,0,0,0,0,0,0,0,0,
15,15,15,15,0,0,0,0,0,0,0,0,0,0,0,0,
15,15,15,15,0,0,0,0,0,0,0,0,0,0,0,0,
15,15,15,15,0,0,0,0,0,0,0,0,0,0,0,0,
15,15,15,15,0,0,0,0,0,0,0,0,0,0,0,0
</chunk>
   <chunk x="1280" y="784" width="16" height="16">
0,0,0,0,0,0,0,0,0,0,0,0,0,0,0,0,
0,0,0,0,0,0,0,0,0,0,0,0,0,0,0,0,
0,0,0,0,0,0,0,0,0,0,0,0,0,0,0,0,
0,0,0,0,0,0,0,0,0,0,0,0,0,0,0,0,
0,0,0,0,0,0,0,0,0,0,0,0,0,0,0,0,
0,0,0,0,0,0,0,0,0,0,0,0,0,0,0,0,
0,0,0,0,0,0,0,0,0,0,0,0,0,0,0,0,
0,0,0,0,0,0,0,0,0,0,0,0,0,0,0,0,
0,0,0,0,0,0,0,0,0,0,0,0,0,0,0,0,
0,0,0,0,0,0,0,0,0,0,0,0,0,0,0,0,
0,0,0,0,0,0,0,0,0,0,0,0,0,0,0,0,
0,0,0,0,0,0,0,0,0,0,0,0,0,0,0,0,
0,0,0,0,0,0,0,0,0,0,0,0,0,0,0,0,
0,0,0,0,0,0,0,0,0,0,0,0,0,0,0,0,
0,0,0,0,0,0,0,0,0,0,0,0,0,0,0,0,
0,21,21,21,21,21,21,21,21,21,21,21,21,21,21,21
</chunk>
   <chunk x="1296" y="784" width="16" height="16">
0,0,0,0,0,0,0,0,0,0,0,0,0,0,0,0,
0,0,0,0,0,0,0,0,0,0,0,0,0,0,0,0,
0,0,0,0,0,0,0,0,0,0,0,0,0,0,0,0,
0,0,0,0,0,0,0,0,0,0,0,0,0,0,0,0,
0,0,0,0,0,0,0,0,0,0,0,0,0,0,0,0,
0,0,0,0,0,0,0,0,0,0,0,0,0,0,0,0,
0,0,0,0,0,0,0,0,0,0,0,0,0,0,0,0,
0,0,0,0,0,0,0,0,0,0,0,0,0,0,0,0,
0,0,0,0,0,0,0,0,0,0,0,0,0,0,0,0,
0,0,0,0,0,0,0,0,0,0,0,0,0,0,0,0,
0,0,0,0,0,0,0,0,0,0,0,0,0,0,0,0,
0,0,0,0,0,0,0,0,0,0,0,0,0,0,0,0,
0,0,0,0,0,0,0,0,0,0,0,0,0,0,0,0,
0,0,0,0,0,0,0,0,0,0,0,0,0,0,0,0,
0,0,0,0,0,0,0,0,0,0,0,0,0,0,0,0,
21,21,21,21,0,0,0,0,0,0,0,0,0,0,0,0
</chunk>
   <chunk x="1312" y="784" width="16" height="16">
0,0,0,0,0,0,0,0,0,0,0,0,21,21,21,21,
0,0,0,0,0,0,0,0,0,0,0,0,21,21,21,21,
0,0,0,0,0,0,0,0,0,0,0,0,0,0,0,0,
0,0,0,0,0,0,0,0,0,0,0,0,0,0,0,0,
0,0,0,0,0,0,0,0,0,0,0,0,0,0,0,0,
0,0,0,0,0,0,0,0,0,0,0,0,0,0,0,0,
0,0,0,0,0,0,0,0,0,0,0,0,0,0,0,0,
0,0,0,0,0,0,0,0,0,0,0,0,0,0,0,0,
0,0,0,0,0,0,0,0,0,0,0,0,0,0,0,0,
0,0,0,0,0,0,0,0,0,0,0,0,0,0,0,0,
0,0,0,0,0,0,0,0,0,0,0,0,0,0,0,0,
0,0,0,0,0,0,0,0,0,0,0,0,0,0,0,0,
0,0,0,0,0,0,0,0,0,0,0,0,0,0,0,0,
0,0,0,0,0,0,0,0,0,0,0,0,0,0,0,0,
0,0,0,0,0,0,0,0,0,0,0,0,0,0,0,0,
0,0,0,0,0,0,0,0,0,0,0,0,0,0,0,0
</chunk>
   <chunk x="1328" y="784" width="16" height="16">
21,21,21,21,21,21,21,21,21,21,21,21,21,21,21,0,
21,21,21,21,21,21,21,21,21,21,21,21,21,21,21,0,
0,0,0,0,0,0,0,0,0,0,0,0,0,0,0,0,
0,0,0,0,0,0,0,0,0,0,0,0,0,0,0,0,
0,0,0,0,0,0,0,0,0,0,0,0,0,0,0,0,
0,0,0,0,0,0,0,0,0,0,0,0,0,0,0,0,
0,0,0,0,0,0,0,0,0,0,0,0,0,0,0,0,
0,0,0,0,0,0,0,0,0,0,0,0,0,0,0,0,
0,0,0,0,0,0,0,0,0,0,0,0,0,0,0,0,
0,0,0,0,0,0,0,0,0,0,0,0,0,0,0,0,
0,0,0,0,0,0,0,0,0,0,0,0,0,0,0,0,
0,0,0,0,0,0,0,0,0,0,0,0,0,0,0,0,
0,0,0,0,0,0,0,0,0,0,0,0,0,0,0,0,
0,0,0,0,0,0,0,0,0,0,0,0,0,0,0,0,
0,0,0,0,0,0,0,0,0,0,0,0,0,0,0,0,
0,0,0,0,0,0,0,0,0,0,0,0,0,0,0,0
</chunk>
   <chunk x="1440" y="784" width="16" height="16">
0,0,0,0,0,21,21,21,21,21,21,21,21,21,21,21,
0,0,0,0,0,21,21,21,21,21,21,21,21,21,21,21,
0,0,0,0,0,21,21,21,21,21,21,21,21,21,21,21,
0,0,0,0,0,21,21,21,21,21,21,21,21,21,21,21,
0,0,0,0,0,21,21,21,21,21,21,21,21,21,21,21,
0,0,0,0,0,21,21,21,21,21,21,21,21,21,21,21,
0,0,0,0,0,21,21,21,21,21,21,21,21,21,21,21,
0,0,0,0,0,21,21,21,21,21,21,21,21,21,21,21,
0,0,0,0,0,21,21,21,21,21,21,21,21,21,21,21,
0,0,0,0,0,21,21,21,21,21,21,21,21,21,21,21,
0,0,0,0,0,21,21,21,21,21,21,21,21,21,21,21,
0,0,0,0,0,21,21,21,21,21,21,21,21,21,21,21,
0,0,0,0,0,21,21,21,21,21,21,21,21,21,21,21,
0,0,0,0,0,21,21,21,21,21,21,21,21,21,21,21,
0,0,0,0,0,21,21,21,21,21,21,21,21,21,21,21,
0,0,0,0,0,21,21,21,21,21,21,21,21,21,21,21
</chunk>
   <chunk x="1456" y="784" width="16" height="16">
21,21,21,21,21,21,21,21,0,0,0,0,0,0,0,0,
21,21,21,21,21,21,21,21,0,0,0,0,0,0,0,0,
21,21,21,21,21,21,21,21,0,0,0,0,0,0,0,0,
21,21,21,21,21,21,21,21,0,0,0,0,0,0,0,0,
21,21,21,21,21,21,21,21,0,0,0,0,0,0,0,0,
21,21,21,21,21,21,21,21,0,0,0,0,0,0,0,0,
21,21,21,21,21,21,21,21,0,0,0,0,0,0,0,0,
21,21,21,21,21,21,21,21,0,0,0,0,0,0,0,0,
21,21,21,21,21,21,21,21,0,0,0,0,0,0,0,0,
21,21,21,21,21,21,21,21,0,0,0,0,0,0,0,0,
21,21,21,21,21,21,21,21,0,0,0,0,0,0,0,0,
21,21,21,21,21,21,21,21,0,0,0,0,0,0,0,0,
21,21,21,21,21,21,21,21,0,0,0,0,0,0,0,0,
21,21,21,21,21,21,21,21,0,0,0,0,0,0,0,0,
21,21,21,21,21,21,21,21,0,0,0,0,0,0,0,0,
21,21,21,21,21,21,21,21,0,0,0,0,0,0,0,0
</chunk>
   <chunk x="1488" y="784" width="16" height="16">
0,0,0,0,0,0,0,0,0,0,21,21,21,21,21,21,
0,0,0,0,0,0,0,0,0,0,21,21,21,21,21,21,
0,0,0,0,0,0,0,0,0,0,21,21,21,21,21,21,
0,0,0,0,0,0,0,0,0,0,21,21,21,21,21,21,
0,0,0,0,0,0,0,0,0,0,21,21,21,21,21,21,
0,0,0,0,0,0,0,0,0,0,21,21,21,21,21,21,
0,0,0,0,0,0,0,0,0,0,21,21,21,21,21,21,
0,0,0,0,0,0,0,0,0,0,21,21,21,21,21,21,
0,0,0,0,0,0,0,0,0,0,0,0,0,0,0,0,
0,0,0,0,0,0,0,0,0,0,0,0,0,0,0,0,
0,0,0,0,0,0,0,0,0,0,0,0,0,0,0,0,
0,0,0,0,0,0,0,0,0,0,0,0,0,0,0,0,
0,0,0,0,0,0,0,0,0,0,0,0,0,0,0,0,
0,0,0,0,0,0,0,0,0,0,0,0,0,0,0,0,
0,0,0,0,0,0,0,0,0,0,0,0,0,0,0,0,
0,0,0,0,0,0,0,0,0,0,0,0,0,0,0,0
</chunk>
   <chunk x="1504" y="784" width="16" height="16">
21,21,21,21,21,21,21,21,21,21,21,21,21,0,0,0,
21,21,21,21,21,21,21,21,21,21,21,21,21,0,0,0,
21,21,21,21,21,21,21,21,21,21,21,21,21,0,0,0,
21,21,21,21,21,21,21,21,21,21,21,21,21,0,0,0,
21,21,21,21,21,21,21,21,21,21,21,21,21,0,0,0,
21,21,21,21,21,21,21,21,21,21,21,21,21,0,0,0,
21,21,21,21,21,21,21,21,21,21,21,21,21,0,0,0,
21,21,21,21,21,21,21,21,21,21,21,21,21,0,0,0,
0,0,0,0,0,0,0,0,0,0,0,0,0,0,0,0,
0,0,0,0,0,0,0,0,0,0,0,0,0,0,0,0,
0,0,0,0,0,0,0,0,0,0,0,0,0,0,0,0,
0,0,0,0,0,0,0,0,0,0,0,0,0,0,0,0,
0,0,0,0,0,0,0,0,0,0,0,0,0,0,0,0,
0,0,0,0,0,0,0,0,0,0,0,0,0,0,0,0,
0,0,0,0,0,0,0,0,0,0,0,0,0,0,0,0,
0,0,0,0,0,0,0,0,0,0,0,0,0,0,0,0
</chunk>
   <chunk x="1216" y="800" width="16" height="16">
0,0,0,0,0,0,0,0,0,0,0,0,0,15,15,15,
0,0,0,0,0,0,0,0,0,0,0,0,0,15,15,15,
0,0,0,0,0,0,0,0,0,0,0,0,0,15,15,15,
0,0,0,0,0,0,0,0,0,0,0,0,0,15,15,15,
0,0,0,0,0,0,0,0,0,0,0,0,0,15,15,15,
0,0,0,0,0,0,0,0,0,0,0,0,0,15,15,15,
0,0,0,0,0,0,0,0,0,0,0,0,0,15,15,15,
0,0,0,0,0,0,0,0,0,0,0,0,0,15,15,15,
0,0,0,0,0,0,0,0,0,0,0,0,0,15,15,15,
0,0,0,0,0,0,0,0,0,0,0,0,0,15,15,15,
0,0,0,0,0,0,0,0,0,0,0,0,0,15,15,15,
0,0,0,0,0,0,0,0,0,0,0,0,0,15,15,15,
0,0,0,0,0,0,0,0,0,0,0,0,0,15,15,15,
0,0,0,0,0,0,0,0,0,0,0,0,0,15,15,15,
0,0,0,0,0,0,0,0,0,0,0,0,0,0,0,0,
0,0,0,0,0,0,0,0,0,0,0,0,0,0,0,0
</chunk>
   <chunk x="1232" y="800" width="16" height="16">
15,15,15,15,0,0,0,0,0,0,0,0,0,0,0,0,
15,15,15,15,0,0,0,0,0,0,0,0,0,0,0,0,
15,15,15,15,0,0,0,0,0,0,0,0,0,0,0,0,
15,15,15,15,0,0,0,0,0,0,0,0,0,0,0,0,
15,15,15,15,0,0,0,0,0,0,0,0,0,0,0,0,
15,15,15,15,0,0,0,0,0,0,0,0,0,0,0,0,
15,15,15,15,0,0,0,0,0,0,0,0,0,0,0,0,
15,15,15,15,0,0,0,0,0,0,0,0,0,0,0,0,
15,15,15,15,0,0,0,0,0,0,0,0,0,0,0,0,
15,15,15,15,0,0,0,0,0,0,0,0,0,0,0,0,
15,15,15,15,0,0,0,0,0,0,0,0,0,0,0,0,
15,15,15,15,0,0,0,0,0,0,0,0,0,0,0,0,
15,15,15,15,0,0,0,0,0,0,0,0,0,0,0,0,
15,15,15,15,0,0,0,0,0,0,0,0,0,0,0,0,
0,0,0,0,0,0,0,0,0,0,0,0,0,0,0,0,
0,0,0,0,0,0,0,0,0,0,0,0,0,0,0,0
</chunk>
   <chunk x="1280" y="800" width="16" height="16">
0,21,21,21,21,21,21,21,21,21,21,21,21,21,21,21,
0,21,21,21,21,21,21,21,21,21,21,21,21,21,21,21,
0,21,21,21,21,21,21,21,21,21,21,21,21,21,21,21,
0,21,21,21,21,21,21,21,21,21,21,21,21,21,21,21,
0,21,21,21,21,21,21,21,21,21,21,21,21,21,21,21,
0,21,21,21,21,21,21,21,21,21,21,21,21,21,21,21,
0,21,21,21,21,21,21,21,21,21,21,21,21,21,21,21,
0,21,21,21,21,21,21,21,21,21,21,21,21,21,21,21,
0,21,21,21,21,21,21,21,21,21,21,21,21,21,21,21,
0,21,21,21,21,21,21,21,21,21,21,21,21,21,21,21,
0,21,21,21,21,21,21,21,21,21,21,21,21,21,21,21,
0,21,21,21,21,21,21,21,21,21,21,21,21,21,21,21,
0,21,21,21,21,21,21,21,21,21,21,21,21,21,21,21,
0,21,21,21,21,21,21,21,21,21,21,21,21,21,21,21,
0,21,21,21,21,21,21,21,21,21,21,21,21,21,21,21,
0,21,21,21,21,21,21,21,21,21,21,21,21,21,21,21
</chunk>
   <chunk x="1296" y="800" width="16" height="16">
21,21,21,21,0,0,0,0,0,0,0,0,0,0,0,0,
21,21,21,21,0,0,0,0,0,0,0,0,0,0,0,0,
21,21,21,21,0,0,0,0,0,0,0,0,0,0,0,0,
21,21,21,21,0,0,0,0,0,0,0,0,0,0,0,0,
21,21,21,21,0,0,0,0,0,0,0,0,0,0,0,0,
21,21,21,21,0,0,0,0,0,0,0,0,0,0,0,0,
21,21,21,21,0,0,0,0,0,0,0,0,0,0,0,0,
21,21,21,21,0,0,0,0,0,0,0,0,0,0,0,0,
21,21,21,21,0,0,0,0,0,0,0,0,0,0,0,0,
21,21,21,21,0,0,0,0,0,0,0,0,0,0,0,0,
21,21,21,21,0,0,0,0,0,0,0,0,0,0,0,0,
21,21,21,21,0,0,0,0,0,0,0,0,0,0,0,0,
21,21,21,21,0,0,0,0,0,0,0,0,0,0,0,0,
21,21,21,21,0,0,0,0,0,0,0,0,0,0,0,0,
21,21,21,21,0,0,0,0,0,0,0,0,0,0,0,0,
21,21,21,21,0,0,0,0,0,0,0,0,0,0,0,0
</chunk>
   <chunk x="1408" y="800" width="16" height="16">
0,0,0,0,0,0,0,0,0,0,0,0,0,0,0,0,
0,0,0,0,0,0,0,0,0,0,0,0,0,0,0,0,
0,0,0,0,0,0,0,0,0,0,0,0,0,0,0,0,
0,0,0,0,0,0,0,0,0,0,0,0,0,0,0,0,
0,0,0,0,21,21,21,21,21,21,21,21,21,21,21,21,
0,0,0,0,21,21,21,21,21,21,21,21,21,21,21,21,
0,0,0,0,21,21,21,21,21,21,21,21,21,21,21,21,
0,0,0,0,21,21,21,21,21,21,21,21,21,21,21,21,
0,0,0,0,21,21,21,21,21,21,21,21,21,21,21,21,
0,0,0,0,21,21,21,21,21,21,21,21,21,21,21,21,
0,0,0,0,21,21,21,21,21,21,21,21,21,21,21,21,
0,0,0,0,21,21,21,21,21,21,21,21,21,21,21,21,
0,0,0,0,21,21,21,21,21,21,21,21,21,21,21,21,
0,0,0,0,21,21,21,21,21,21,21,21,21,21,21,21,
0,0,0,0,21,21,21,21,21,21,21,21,21,21,21,21,
0,0,0,0,21,21,21,21,21,21,21,21,21,21,21,21
</chunk>
   <chunk x="1424" y="800" width="16" height="16">
0,0,0,0,0,0,0,0,0,0,0,0,0,0,0,0,
0,0,0,0,0,0,0,0,0,0,0,0,0,0,0,0,
0,0,0,0,0,0,0,0,0,0,0,0,0,0,0,0,
0,0,0,0,0,0,0,0,0,0,0,0,0,0,0,0,
21,21,21,21,21,21,21,0,0,0,0,0,0,0,0,0,
21,21,21,21,21,21,21,0,0,0,0,0,0,0,0,0,
21,21,21,21,21,21,21,0,0,0,0,0,0,0,0,0,
21,21,21,21,21,21,21,0,0,0,0,0,0,0,0,0,
21,21,21,21,21,21,21,0,0,0,0,0,0,0,0,0,
21,21,21,21,21,21,21,0,0,0,0,0,0,0,0,0,
21,21,21,21,21,21,21,0,0,0,0,0,0,0,0,0,
21,21,21,21,21,21,21,0,0,0,0,0,0,0,0,0,
21,21,21,21,21,21,21,0,0,0,0,0,0,0,0,0,
21,21,21,21,21,21,21,0,0,0,0,0,0,0,0,0,
21,21,21,21,21,21,21,0,0,0,0,0,0,0,0,0,
21,21,21,21,21,21,21,0,0,0,0,0,0,0,0,0
</chunk>
   <chunk x="1440" y="800" width="16" height="16">
0,0,0,0,0,21,21,21,21,21,21,21,21,21,21,21,
0,0,0,0,0,21,21,21,21,21,21,21,21,21,21,21,
0,0,0,0,0,21,21,21,21,21,21,21,21,21,21,21,
0,0,0,0,0,21,21,21,21,21,21,21,21,21,21,21,
0,0,0,0,0,0,0,0,0,0,0,0,0,0,0,0,
0,0,0,0,0,0,0,0,0,0,0,0,0,0,0,0,
0,0,0,0,0,0,0,0,0,0,0,0,0,0,0,0,
0,0,0,0,0,0,0,0,0,0,0,0,0,0,0,0,
0,0,0,0,0,0,0,0,0,0,0,0,0,0,0,0,
0,0,0,0,0,0,0,0,0,0,0,0,0,0,0,0,
0,0,0,0,0,0,0,0,0,0,0,0,0,0,0,0,
0,0,0,0,0,0,0,0,0,0,0,0,0,0,0,0,
0,0,0,0,0,0,0,0,0,0,0,0,0,0,0,0,
0,0,0,0,0,0,0,0,0,0,0,0,0,0,0,0,
0,0,0,0,0,0,0,0,0,0,0,0,0,0,0,0,
0,0,0,0,0,0,0,0,0,0,0,0,0,0,0,0
</chunk>
   <chunk x="1456" y="800" width="16" height="16">
21,21,21,21,21,21,21,21,0,0,0,0,0,0,0,0,
21,21,21,21,21,21,21,21,0,0,0,0,0,0,0,0,
21,21,21,21,21,21,21,21,0,0,0,0,0,0,0,0,
21,21,21,21,21,21,21,21,0,0,0,0,0,0,0,0,
0,0,0,0,0,0,0,0,0,0,0,0,0,0,0,0,
0,0,0,0,0,0,0,0,0,0,0,0,0,0,0,0,
0,0,0,0,0,0,0,0,0,0,0,0,0,0,0,0,
0,0,0,0,0,0,0,0,0,0,0,0,0,0,0,0,
0,0,0,0,0,0,0,0,0,0,0,0,0,0,0,0,
0,0,0,0,0,0,0,0,0,0,0,0,0,0,0,0,
0,0,0,0,0,0,0,0,0,0,0,0,0,0,0,0,
0,0,0,0,0,0,0,0,0,0,0,0,0,0,0,0,
0,0,0,0,0,0,0,0,0,0,0,0,0,0,0,0,
0,0,0,0,0,0,0,0,0,0,0,0,0,0,0,0,
0,0,0,0,0,0,0,0,0,0,0,0,0,0,0,0,
0,0,0,0,0,0,0,0,0,0,0,0,0,0,0,0
</chunk>
   <chunk x="1280" y="816" width="16" height="16">
0,21,21,21,21,21,21,21,21,21,21,21,21,21,21,21,
0,21,21,21,21,21,21,21,21,21,21,21,21,21,21,21,
0,21,21,21,21,21,21,21,21,21,21,21,21,21,21,21,
0,0,0,0,0,0,0,0,0,0,0,0,0,0,0,0,
0,0,0,0,0,0,0,0,0,0,0,0,0,0,0,0,
0,0,0,0,0,0,0,0,0,0,0,0,0,0,0,0,
0,0,0,0,0,0,0,0,0,0,0,0,0,0,0,0,
0,0,0,0,0,0,0,0,0,0,0,0,0,0,0,0,
0,0,0,0,0,0,0,0,0,0,0,0,0,0,0,0,
0,0,0,0,0,0,0,0,0,0,0,0,0,0,0,0,
0,0,0,0,0,0,0,0,0,0,0,0,0,0,0,0,
0,0,0,0,0,0,0,0,0,0,0,0,0,0,0,0,
0,0,0,0,0,0,0,0,0,0,0,0,0,0,0,0,
0,0,0,0,0,0,0,0,0,0,0,0,0,0,0,0,
0,0,0,0,0,0,0,0,0,0,0,0,0,0,0,0,
0,0,0,0,0,0,0,0,0,0,0,0,0,0,0,0
</chunk>
   <chunk x="1296" y="816" width="16" height="16">
21,21,21,21,0,0,0,0,0,0,0,0,0,0,0,0,
21,21,21,21,0,0,0,0,0,0,0,0,0,0,0,0,
21,21,21,21,0,0,0,0,0,0,0,0,0,0,0,0,
0,0,0,0,0,0,0,0,0,0,0,0,0,0,0,0,
0,0,0,0,0,0,0,0,0,0,0,0,0,0,0,0,
0,0,0,0,0,0,0,0,0,0,0,0,0,0,0,0,
0,0,0,0,0,0,0,0,0,0,0,0,0,0,0,0,
0,0,0,0,0,0,0,0,0,0,0,0,0,0,0,0,
0,0,0,0,0,0,0,0,0,0,0,0,0,0,0,0,
0,0,0,0,0,0,0,0,0,0,0,0,0,0,0,0,
0,0,0,0,0,0,0,0,0,0,0,0,0,0,0,0,
0,0,0,0,0,0,0,0,0,0,0,0,0,0,0,0,
0,0,0,0,0,0,0,0,0,0,0,0,0,0,0,0,
0,0,0,0,0,0,0,0,0,0,0,0,0,0,0,0,
0,0,0,0,0,0,0,0,0,0,0,0,0,0,0,0,
0,0,0,0,0,0,0,0,0,0,0,0,0,0,0,0
</chunk>
   <chunk x="1408" y="816" width="16" height="16">
0,0,0,0,21,21,21,21,21,21,21,21,21,21,21,21,
0,0,0,0,21,21,21,21,21,21,21,21,21,21,21,21,
0,0,0,0,21,21,21,21,21,21,21,21,21,21,21,21,
0,0,0,0,21,21,21,21,21,21,21,21,21,21,21,21,
0,0,0,0,21,21,21,21,21,21,21,21,21,21,21,21,
0,0,0,0,21,21,21,21,21,21,21,21,21,21,21,21,
0,0,0,0,21,21,21,21,21,21,21,21,21,21,21,21,
0,0,0,0,21,21,21,21,21,21,21,21,21,21,21,21,
0,0,0,0,0,0,0,0,0,0,0,0,0,0,0,0,
0,0,0,0,0,0,0,0,0,0,0,0,0,0,0,0,
0,0,0,0,0,0,0,0,0,0,0,0,0,0,0,0,
0,0,0,0,0,0,0,0,0,0,0,0,0,0,0,0,
0,0,0,0,0,0,0,0,0,0,0,0,0,0,0,0,
0,0,0,0,0,0,0,0,0,0,0,0,0,0,0,0,
0,0,0,0,0,0,0,0,0,0,0,0,0,0,0,0,
0,0,0,0,0,0,0,0,0,0,0,0,0,0,0,0
</chunk>
   <chunk x="1424" y="816" width="16" height="16">
21,21,21,21,21,21,21,0,0,0,0,0,0,0,0,0,
21,21,21,21,21,21,21,0,0,0,0,0,0,0,0,0,
21,21,21,21,21,21,21,0,0,0,0,0,0,0,0,0,
21,21,21,21,21,21,21,0,0,0,0,0,0,0,0,0,
21,21,21,21,21,21,21,0,0,0,0,0,0,0,0,0,
21,21,21,21,21,21,21,0,0,0,0,0,0,0,0,0,
21,21,21,21,21,21,21,0,0,0,0,0,0,0,0,0,
21,21,21,21,21,21,21,0,0,0,0,0,0,0,0,0,
0,0,0,0,0,0,0,0,0,0,0,0,0,0,0,0,
0,0,0,0,0,0,0,0,0,0,0,0,0,0,0,0,
0,0,0,0,0,0,0,0,0,0,0,0,0,0,0,0,
0,0,0,0,0,0,0,0,0,0,0,0,0,0,0,0,
0,0,0,0,0,0,0,0,0,0,0,0,0,0,0,0,
0,0,0,0,0,0,0,0,0,0,0,0,0,0,0,0,
0,0,0,0,0,0,0,0,0,0,0,0,0,0,0,0,
0,0,0,0,0,0,0,0,0,0,0,0,0,0,0,0
</chunk>
  </data>
 </layer>
 <layer id="2" name="larry" width="1600" height="1040">
  <data encoding="csv">
   <chunk x="1376" y="752" width="16" height="16">
0,0,0,0,0,0,0,0,0,0,0,0,0,0,0,0,
0,0,0,0,0,0,0,0,0,0,0,0,0,0,0,0,
0,0,0,0,0,0,0,0,0,0,0,0,0,0,0,0,
0,0,0,0,0,0,0,0,0,0,0,0,0,0,0,0,
0,0,0,0,0,0,0,0,0,0,0,0,0,41,0,0,
0,0,0,0,0,0,0,0,0,0,0,0,0,0,0,0,
0,0,0,0,0,0,0,0,0,0,0,0,0,0,0,0,
0,0,0,0,0,0,0,0,0,0,0,0,0,0,0,0,
0,0,0,0,0,0,0,0,0,0,0,0,0,0,0,0,
0,0,0,0,0,0,0,0,0,0,0,0,0,0,0,0,
0,0,0,0,0,0,0,0,0,0,0,0,0,0,0,0,
0,0,0,0,0,0,0,0,0,0,0,0,0,0,0,0,
0,0,0,0,0,0,0,0,0,0,0,0,0,0,0,0,
0,0,0,0,0,0,0,0,0,0,0,0,0,0,0,0,
0,0,0,0,0,0,0,0,0,0,0,0,0,0,0,0,
0,0,0,0,0,0,0,0,0,0,0,0,0,0,0,0
</chunk>
  </data>
 </layer>
</map>
